( This gcode generated by /Users/marcosfernandocosta/Applications/EAGLE-9.0.0/ulp/pcb-gcode.ulp )
( Copyright 2005 by John Johnson. See readme.txt for licensing terms. )

( This file generated from the board /Users/marcosfernandocosta/Documents/eagle/ESP-Coffe/ESP-Coffee/schematic.brd )
( This file generated 06/07/18 18:40 )

( T01 3.200000 )
( T02 3.302000 )
( T03 0.350000 )
( T04 0.812800 )
( T05 0.914400 )
( T06 1.016000 )
( T07 1.117600 )
( T08 1.320800 )
G21

G90
M05
G00 X139.7000 Y86.3600 Z193.0400 
M06 T01  ; 3.2000 
G00 Z0.5080 
M03
G04 P3.000000
G00 Z0.508000
G00 X7.3519 Y22.8485 
G01 Z-3.0480 F127.00 
G01 Z0.508000
(R0.5080  P10.000000)
M05
G00 X139.7000 Y86.3600 Z193.0400 
M06 T02  ; 3.3020 
G00 Z0.5080 
M03
G04 P3.000000
G00 Z0.508000
G00 X7.3519 Y22.8485 
G01 Z-3.0480 F127.00 
G01 Z0.508000
(R0.5080  P10.000000)
M05
G00 X139.7000 Y86.3600 Z193.0400 
M06 T03  ; 0.3500 
G00 Z0.5080 
M03
G04 P3.000000
G00 Z0.508000
G00 X44.3605 Y32.0463 
G01 Z-3.0480 F127.00 
G01 Z0.508000
(R0.5080  P10.000000)
(G00 Z0.508000)
G00 X44.6653 Y75.4411 
G01 Z-3.048000
G01 Z0.508000
(G00 Z0.508000)
G00 X4.5013 Y31.8049 
G01 Z-3.048000
G01 Z0.508000
(G00 Z0.508000)
G00 X4.7864 Y76.1574 
G01 Z-3.048000
G01 Z0.508000
M05
G00 X139.7000 Y86.3600 Z193.0400 
M06 T04  ; 0.8128 
G00 Z0.5080 
M03
G04 P3.000000
G00 Z0.508000
G00 X31.5979 Y37.5343 
G01 Z-3.0480 F127.00 
G01 Z0.508000
(R0.5080  P10.000000)
(G00 Z0.508000)
G00 X31.5979 Y45.1543 
G01 Z-3.048000
G01 Z0.508000
(G00 Z0.508000)
G00 X34.1379 Y37.5343 
G01 Z-3.048000
G01 Z0.508000
(G00 Z0.508000)
G00 X34.1379 Y45.1543 
G01 Z-3.048000
G01 Z0.508000
(G00 Z0.508000)
G00 X36.6779 Y37.5343 
G01 Z-3.048000
G01 Z0.508000
(G00 Z0.508000)
G00 X36.6779 Y45.1543 
G01 Z-3.048000
G01 Z0.508000
(G00 Z0.508000)
G00 X40.2087 Y53.3400 
G01 Z-3.048000
G01 Z0.508000
(G00 Z0.508000)
G00 X40.2087 Y55.8800 
G01 Z-3.048000
G01 Z0.508000
(G00 Z0.508000)
G00 X40.2087 Y58.4200 
G01 Z-3.048000
G01 Z0.508000
(G00 Z0.508000)
G00 X40.2087 Y60.9600 
G01 Z-3.048000
G01 Z0.508000
(G00 Z0.508000)
G00 X40.2087 Y63.5000 
G01 Z-3.048000
G01 Z0.508000
(G00 Z0.508000)
G00 X40.2087 Y66.0400 
G01 Z-3.048000
G01 Z0.508000
(G00 Z0.508000)
G00 X40.2087 Y68.5800 
G01 Z-3.048000
G01 Z0.508000
(G00 Z0.508000)
G00 X40.2087 Y71.1200 
G01 Z-3.048000
G01 Z0.508000
(G00 Z0.508000)
G00 X4.9928 Y47.9153 
G01 Z-3.048000
G01 Z0.508000
(G00 Z0.508000)
G00 X7.0248 Y47.9153 
G01 Z-3.048000
G01 Z0.508000
(G00 Z0.508000)
G00 X12.2687 Y53.3400 
G01 Z-3.048000
G01 Z0.508000
(G00 Z0.508000)
G00 X12.2687 Y55.8800 
G01 Z-3.048000
G01 Z0.508000
(G00 Z0.508000)
G00 X12.2687 Y58.4200 
G01 Z-3.048000
G01 Z0.508000
(G00 Z0.508000)
G00 X12.2687 Y60.9600 
G01 Z-3.048000
G01 Z0.508000
(G00 Z0.508000)
G00 X12.2687 Y63.5000 
G01 Z-3.048000
G01 Z0.508000
(G00 Z0.508000)
G00 X12.2687 Y66.0400 
G01 Z-3.048000
G01 Z0.508000
(G00 Z0.508000)
G00 X12.2687 Y68.5800 
G01 Z-3.048000
G01 Z0.508000
(G00 Z0.508000)
G00 X12.2687 Y71.1200 
G01 Z-3.048000
G01 Z0.508000
(G00 Z0.508000)
G00 X12.3082 Y48.1153 
G01 Z-3.048000
G01 Z0.508000
(G00 Z0.508000)
G00 X14.3402 Y48.1153 
G01 Z-3.048000
G01 Z0.508000
(G00 Z0.508000)
G00 X16.3579 Y37.5343 
G01 Z-3.048000
G01 Z0.508000
(G00 Z0.508000)
G00 X16.3579 Y45.1543 
G01 Z-3.048000
G01 Z0.508000
(G00 Z0.508000)
G00 X18.8979 Y37.5343 
G01 Z-3.048000
G01 Z0.508000
(G00 Z0.508000)
G00 X18.8979 Y45.1543 
G01 Z-3.048000
G01 Z0.508000
(G00 Z0.508000)
G00 X21.4379 Y37.5343 
G01 Z-3.048000
G01 Z0.508000
(G00 Z0.508000)
G00 X21.4379 Y45.1543 
G01 Z-3.048000
G01 Z0.508000
(G00 Z0.508000)
G00 X23.9779 Y37.5343 
G01 Z-3.048000
G01 Z0.508000
(G00 Z0.508000)
G00 X23.9779 Y45.1543 
G01 Z-3.048000
G01 Z0.508000
(G00 Z0.508000)
G00 X26.5179 Y37.5343 
G01 Z-3.048000
G01 Z0.508000
(G00 Z0.508000)
G00 X26.5179 Y45.1543 
G01 Z-3.048000
G01 Z0.508000
(G00 Z0.508000)
G00 X29.0579 Y37.5343 
G01 Z-3.048000
G01 Z0.508000
(G00 Z0.508000)
G00 X29.0579 Y45.1543 
G01 Z-3.048000
G01 Z0.508000
M05
G00 X139.7000 Y86.3600 Z193.0400 
M06 T05  ; 0.9144 
G00 Z0.5080 
M03
G04 P3.000000
G00 Z0.508000
G00 X31.6900 Y33.6660 
G01 Z-3.0480 F127.00 
G01 Z0.508000
(R0.5080  P10.000000)
(G00 Z0.508000)
G00 X31.9638 Y49.0739 
G01 Z-3.048000
G01 Z0.508000
(G00 Z0.508000)
G00 X34.2300 Y33.6660 
G01 Z-3.048000
G01 Z0.508000
(G00 Z0.508000)
G00 X34.5038 Y49.0739 
G01 Z-3.048000
G01 Z0.508000
(G00 Z0.508000)
G00 X36.7700 Y33.6660 
G01 Z-3.048000
G01 Z0.508000
(G00 Z0.508000)
G00 X37.0438 Y49.0739 
G01 Z-3.048000
G01 Z0.508000
(G00 Z0.508000)
G00 X39.9977 Y49.1143 
G01 Z-3.048000
G01 Z0.508000
(G00 Z0.508000)
G00 X42.3993 Y60.9963 
G01 Z-3.048000
G01 Z0.508000
(G00 Z0.508000)
G00 X42.5377 Y49.1143 
G01 Z-3.048000
G01 Z0.508000
(G00 Z0.508000)
G00 X43.4106 Y66.0894 
G01 Z-3.048000
G01 Z0.508000
(G00 Z0.508000)
G00 X43.4106 Y68.6294 
G01 Z-3.048000
G01 Z0.508000
(G00 Z0.508000)
G00 X43.4106 Y71.1694 
G01 Z-3.048000
G01 Z0.508000
(G00 Z0.508000)
G00 X44.9393 Y60.9963 
G01 Z-3.048000
G01 Z0.508000
(G00 Z0.508000)
G00 X4.8983 Y42.2652 
G01 Z-3.048000
G01 Z0.508000
(G00 Z0.508000)
G00 X7.4383 Y42.2652 
G01 Z-3.048000
G01 Z0.508000
(G00 Z0.508000)
G00 X8.4776 Y55.3131 
G01 Z-3.048000
G01 Z0.508000
(G00 Z0.508000)
G00 X8.4776 Y57.8531 
G01 Z-3.048000
G01 Z0.508000
(G00 Z0.508000)
G00 X16.7238 Y49.0739 
G01 Z-3.048000
G01 Z0.508000
(G00 Z0.508000)
G00 X18.9900 Y33.6660 
G01 Z-3.048000
G01 Z0.508000
(G00 Z0.508000)
G00 X19.2638 Y49.0739 
G01 Z-3.048000
G01 Z0.508000
(G00 Z0.508000)
G00 X21.5300 Y33.6660 
G01 Z-3.048000
G01 Z0.508000
(G00 Z0.508000)
G00 X21.8038 Y49.0739 
G01 Z-3.048000
G01 Z0.508000
(G00 Z0.508000)
G00 X24.0700 Y33.6660 
G01 Z-3.048000
G01 Z0.508000
(G00 Z0.508000)
G00 X24.3438 Y49.0739 
G01 Z-3.048000
G01 Z0.508000
(G00 Z0.508000)
G00 X26.6100 Y33.6660 
G01 Z-3.048000
G01 Z0.508000
(G00 Z0.508000)
G00 X26.8838 Y49.0739 
G01 Z-3.048000
G01 Z0.508000
(G00 Z0.508000)
G00 X29.1500 Y33.6660 
G01 Z-3.048000
G01 Z0.508000
(G00 Z0.508000)
G00 X29.4238 Y49.0739 
G01 Z-3.048000
G01 Z0.508000
M05
G00 X139.7000 Y86.3600 Z193.0400 
M06 T06  ; 1.0160 
G00 Z0.5080 
M03
G04 P3.000000
G00 Z0.508000
G00 X4.8119 Y37.8345 
G01 Z-3.0480 F127.00 
G01 Z0.508000
(R0.5080  P10.000000)
(G00 Z0.508000)
G00 X7.3519 Y37.8345 
G01 Z-3.048000
G01 Z0.508000
(G00 Z0.508000)
G00 X9.8919 Y37.8345 
G01 Z-3.048000
G01 Z0.508000
M05
G00 X139.7000 Y86.3600 Z193.0400 
M06 T07  ; 1.1176 
G00 Z0.5080 
M03
G04 P3.000000
G00 Z0.508000
G00 X5.0534 Y51.4049 
G01 Z-3.0480 F127.00 
G01 Z0.508000
(R0.5080  P10.000000)
(G00 Z0.508000)
G00 X5.0534 Y61.5648 
G01 Z-3.048000
G01 Z0.508000
M05
G00 X139.7000 Y86.3600 Z193.0400 
M06 T08  ; 1.3208 
G00 Z0.5080 
M03
G04 P3.000000
G00 Z0.508000
G00 X6.4551 Y67.1461 
G01 Z-3.0480 F127.00 
G01 Z0.508000
(R0.5080  P10.000000)
(G00 Z0.508000)
G00 X6.4551 Y72.1753 
G01 Z-3.048000
G01 Z0.508000
(File Footer)
T01 
G00 Z0.1016 
M05
M02
