( This gcode generated by /Users/marcosfernandocosta/Applications/EAGLE-9.0.0/ulp/pcb-gcode.ulp )
( Copyright 2005 by John Johnson. See readme.txt for licensing terms. )

( This file generated from the board /Users/marcosfernandocosta/Documents/eagle/ESP-Coffe/ESP-Coffee/schematic.brd )
( This file generated 06/07/18 18:40 )

G21

G90
G00 Z0.1016 
G00 X0 Y0
M03
G04 P3.000000
G00 Z0.5080 
G00 X6.1481 Y51.3187 
G01 Z-0.2540 F254.00 
G01 X6.1481 Y51.4910 
G01 X6.1212 Y51.6612 
G01 X6.0679 Y51.8251 
G01 X5.9897 Y51.9786 
G01 X5.8884 Y52.1180 
G01 X5.7665 Y52.2399 
G01 X5.6271 Y52.3412 
G01 X5.4736 Y52.4194 
G01 X5.3097 Y52.4726 
G01 X5.1395 Y52.4996 
G01 X4.9672 Y52.4996 
G01 X4.7970 Y52.4726 
G01 X4.6331 Y52.4194 
G01 X4.4796 Y52.3412 
G01 X4.3402 Y52.2399 
G01 X4.2183 Y52.1180 
G01 X4.1171 Y51.9786 
G01 X4.0388 Y51.8251 
G01 X3.9856 Y51.6612 
G01 X3.9586 Y51.4910 
G01 X3.9586 Y51.3187 
G01 X3.9856 Y51.1485 
G01 X4.0388 Y50.9846 
G01 X4.1171 Y50.8311 
G01 X4.2183 Y50.6917 
G01 X4.3402 Y50.5698 
G01 X4.4796 Y50.4685 
G01 X4.6331 Y50.3903 
G01 X4.7970 Y50.3371 
G01 X4.9672 Y50.3101 
G01 X5.1395 Y50.3101 
G01 X5.3097 Y50.3371 
G01 X5.4736 Y50.3903 
G01 X5.6271 Y50.4685 
G01 X5.7665 Y50.5698 
G01 X5.8884 Y50.6917 
G01 X5.9897 Y50.8311 
G01 X6.0679 Y50.9846 
G01 X6.1212 Y51.1485 
G01 X6.1481 Y51.3187 
G00 Z0.5080 
G00 X6.1481 Y61.4787 
G01 Z-0.2540 F254.00 
G01 X6.1481 Y61.6510 
G01 X6.1212 Y61.8212 
G01 X6.0679 Y61.9851 
G01 X5.9897 Y62.1386 
G01 X5.8884 Y62.2780 
G01 X5.7665 Y62.3999 
G01 X5.6271 Y62.5012 
G01 X5.4736 Y62.5794 
G01 X5.3097 Y62.6326 
G01 X5.1395 Y62.6596 
G01 X4.9672 Y62.6596 
G01 X4.7970 Y62.6326 
G01 X4.6331 Y62.5794 
G01 X4.4796 Y62.5012 
G01 X4.3402 Y62.3999 
G01 X4.2183 Y62.2780 
G01 X4.1171 Y62.1386 
G01 X4.0388 Y61.9851 
G01 X3.9856 Y61.8212 
G01 X3.9586 Y61.6510 
G01 X3.9586 Y61.4787 
G01 X3.9856 Y61.3085 
G01 X4.0388 Y61.1446 
G01 X4.1171 Y60.9911 
G01 X4.2183 Y60.8517 
G01 X4.3402 Y60.7298 
G01 X4.4796 Y60.6285 
G01 X4.6331 Y60.5503 
G01 X4.7970 Y60.4971 
G01 X4.9672 Y60.4701 
G01 X5.1395 Y60.4701 
G01 X5.3097 Y60.4971 
G01 X5.4736 Y60.5503 
G01 X5.6271 Y60.6285 
G01 X5.7665 Y60.7298 
G01 X5.8884 Y60.8517 
G01 X5.9897 Y60.9911 
G01 X6.0679 Y61.1446 
G01 X6.1212 Y61.3085 
G01 X6.1481 Y61.4787 
G00 Z0.5080 
G00 X9.2716 Y56.1538 
G01 Z-0.2540 F254.00 
G01 X7.6836 Y56.1538 
G01 X7.5211 Y56.1215 
G01 X7.3681 Y56.0581 
G01 X7.2304 Y55.9661 
G01 X7.1133 Y55.8490 
G01 X7.0213 Y55.7113 
G01 X6.9579 Y55.5583 
G01 X6.9256 Y55.3959 
G01 X6.9256 Y55.2303 
G01 X6.9579 Y55.0678 
G01 X7.0213 Y54.9148 
G01 X7.1133 Y54.7771 
G01 X7.2304 Y54.6600 
G01 X7.3681 Y54.5680 
G01 X7.5211 Y54.5047 
G01 X7.6836 Y54.4723 
G01 X9.2716 Y54.4723 
G01 X9.4340 Y54.5047 
G01 X9.5870 Y54.5680 
G01 X9.7247 Y54.6600 
G01 X9.8418 Y54.7771 
G01 X9.9338 Y54.9148 
G01 X9.9972 Y55.0678 
G01 X10.0295 Y55.2303 
G01 X10.0295 Y55.3959 
G01 X9.9972 Y55.5583 
G01 X9.9338 Y55.7113 
G01 X9.8418 Y55.8490 
G01 X9.7247 Y55.9661 
G01 X9.5870 Y56.0581 
G01 X9.4340 Y56.1215 
G01 X9.2716 Y56.1538 
G00 Z0.5080 
G00 X9.2716 Y58.6938 
G01 Z-0.2540 F254.00 
G01 X7.6836 Y58.6938 
G01 X7.5211 Y58.6615 
G01 X7.3681 Y58.5981 
G01 X7.2304 Y58.5061 
G01 X7.1133 Y58.3890 
G01 X7.0213 Y58.2513 
G01 X6.9579 Y58.0983 
G01 X6.9256 Y57.9359 
G01 X6.9256 Y57.7703 
G01 X6.9579 Y57.6078 
G01 X7.0213 Y57.4548 
G01 X7.1133 Y57.3171 
G01 X7.2304 Y57.2000 
G01 X7.3681 Y57.1080 
G01 X7.5211 Y57.0447 
G01 X7.6836 Y57.0123 
G01 X9.2716 Y57.0123 
G01 X9.4340 Y57.0447 
G01 X9.5870 Y57.1080 
G01 X9.7247 Y57.2000 
G01 X9.8418 Y57.3171 
G01 X9.9338 Y57.4548 
G01 X9.9972 Y57.6078 
G01 X10.0295 Y57.7703 
G01 X10.0295 Y57.9359 
G01 X9.9972 Y58.0983 
G01 X9.9338 Y58.2513 
G01 X9.8418 Y58.3890 
G01 X9.7247 Y58.5061 
G01 X9.5870 Y58.5981 
G01 X9.4340 Y58.6615 
G01 X9.2716 Y58.6938 
G00 Z0.5080 
G00 X44.0986 Y61.7903 
G01 Z-0.2540 F254.00 
G01 X44.0986 Y60.2023 
G01 X44.1309 Y60.0398 
G01 X44.1943 Y59.8868 
G01 X44.2863 Y59.7491 
G01 X44.4034 Y59.6320 
G01 X44.5411 Y59.5400 
G01 X44.6941 Y59.4766 
G01 X44.8565 Y59.4443 
G01 X45.0221 Y59.4443 
G01 X45.1845 Y59.4766 
G01 X45.3376 Y59.5400 
G01 X45.4753 Y59.6320 
G01 X45.5924 Y59.7491 
G01 X45.6844 Y59.8868 
G01 X45.7477 Y60.0398 
G01 X45.7801 Y60.2023 
G01 X45.7801 Y61.7903 
G01 X45.7477 Y61.9527 
G01 X45.6844 Y62.1057 
G01 X45.5924 Y62.2434 
G01 X45.4753 Y62.3605 
G01 X45.3376 Y62.4525 
G01 X45.1845 Y62.5159 
G01 X45.0221 Y62.5482 
G01 X44.8565 Y62.5482 
G01 X44.6941 Y62.5159 
G01 X44.5411 Y62.4525 
G01 X44.4034 Y62.3605 
G01 X44.2863 Y62.2434 
G01 X44.1943 Y62.1057 
G01 X44.1309 Y61.9527 
G01 X44.0986 Y61.7903 
G00 Z0.5080 
G00 X41.5586 Y61.7903 
G01 Z-0.2540 F254.00 
G01 X41.5586 Y60.2023 
G01 X41.5909 Y60.0398 
G01 X41.6543 Y59.8868 
G01 X41.7463 Y59.7491 
G01 X41.8634 Y59.6320 
G01 X42.0011 Y59.5400 
G01 X42.1541 Y59.4766 
G01 X42.3165 Y59.4443 
G01 X42.4821 Y59.4443 
G01 X42.6445 Y59.4766 
G01 X42.7976 Y59.5400 
G01 X42.9353 Y59.6320 
G01 X43.0524 Y59.7491 
G01 X43.1444 Y59.8868 
G01 X43.2077 Y60.0398 
G01 X43.2401 Y60.2023 
G01 X43.2401 Y61.7903 
G01 X43.2077 Y61.9527 
G01 X43.1444 Y62.1057 
G01 X43.0524 Y62.2434 
G01 X42.9353 Y62.3605 
G01 X42.7976 Y62.4525 
G01 X42.6445 Y62.5159 
G01 X42.4821 Y62.5482 
G01 X42.3165 Y62.5482 
G01 X42.1541 Y62.5159 
G01 X42.0011 Y62.4525 
G01 X41.8634 Y62.3605 
G01 X41.7463 Y62.2434 
G01 X41.6543 Y62.1057 
G01 X41.5909 Y61.9527 
G01 X41.5586 Y61.7903 
G00 Z0.5080 
G00 X44.2046 Y72.0101 
G01 Z-0.2540 F254.00 
G01 X42.6166 Y72.0101 
G01 X42.4541 Y71.9778 
G01 X42.3011 Y71.9145 
G01 X42.1634 Y71.8224 
G01 X42.0463 Y71.7053 
G01 X41.9543 Y71.5676 
G01 X41.8909 Y71.4146 
G01 X41.8586 Y71.2522 
G01 X41.8586 Y71.0866 
G01 X41.8909 Y70.9242 
G01 X41.9543 Y70.7712 
G01 X42.0463 Y70.6335 
G01 X42.1634 Y70.5164 
G01 X42.3011 Y70.4243 
G01 X42.4541 Y70.3610 
G01 X42.6166 Y70.3287 
G01 X44.2046 Y70.3287 
G01 X44.3670 Y70.3610 
G01 X44.5200 Y70.4243 
G01 X44.6577 Y70.5164 
G01 X44.7748 Y70.6335 
G01 X44.8668 Y70.7712 
G01 X44.9302 Y70.9242 
G01 X44.9625 Y71.0866 
G01 X44.9625 Y71.2522 
G01 X44.9302 Y71.4146 
G01 X44.8668 Y71.5676 
G01 X44.7748 Y71.7053 
G01 X44.6577 Y71.8224 
G01 X44.5200 Y71.9145 
G01 X44.3670 Y71.9778 
G01 X44.2046 Y72.0101 
G00 Z0.5080 
G00 X44.2046 Y69.4701 
G01 Z-0.2540 F254.00 
G01 X42.6166 Y69.4701 
G01 X42.4541 Y69.4378 
G01 X42.3011 Y69.3745 
G01 X42.1634 Y69.2824 
G01 X42.0463 Y69.1653 
G01 X41.9543 Y69.0276 
G01 X41.8909 Y68.8746 
G01 X41.8586 Y68.7122 
G01 X41.8586 Y68.5466 
G01 X41.8909 Y68.3842 
G01 X41.9543 Y68.2312 
G01 X42.0463 Y68.0935 
G01 X42.1634 Y67.9763 
G01 X42.3011 Y67.8843 
G01 X42.4541 Y67.8210 
G01 X42.6166 Y67.7887 
G01 X44.2046 Y67.7887 
G01 X44.3670 Y67.8210 
G01 X44.5200 Y67.8843 
G01 X44.6577 Y67.9763 
G01 X44.7748 Y68.0935 
G01 X44.8668 Y68.2312 
G01 X44.9302 Y68.3842 
G01 X44.9625 Y68.5466 
G01 X44.9625 Y68.7122 
G01 X44.9302 Y68.8746 
G01 X44.8668 Y69.0276 
G01 X44.7748 Y69.1653 
G01 X44.6577 Y69.2824 
G01 X44.5200 Y69.3745 
G01 X44.3670 Y69.4378 
G01 X44.2046 Y69.4701 
G00 Z0.5080 
G00 X44.2046 Y66.9301 
G01 Z-0.2540 F254.00 
G01 X42.6166 Y66.9301 
G01 X42.4541 Y66.8978 
G01 X42.3011 Y66.8345 
G01 X42.1634 Y66.7424 
G01 X42.0463 Y66.6253 
G01 X41.9543 Y66.4876 
G01 X41.8909 Y66.3346 
G01 X41.8586 Y66.1722 
G01 X41.8586 Y66.0066 
G01 X41.8909 Y65.8442 
G01 X41.9543 Y65.6912 
G01 X42.0463 Y65.5535 
G01 X42.1634 Y65.4364 
G01 X42.3011 Y65.3443 
G01 X42.4541 Y65.2810 
G01 X42.6166 Y65.2487 
G01 X44.2046 Y65.2487 
G01 X44.3670 Y65.2810 
G01 X44.5200 Y65.3443 
G01 X44.6577 Y65.4364 
G01 X44.7748 Y65.5535 
G01 X44.8668 Y65.6912 
G01 X44.9302 Y65.8442 
G01 X44.9625 Y66.0066 
G01 X44.9625 Y66.1722 
G01 X44.9302 Y66.3346 
G01 X44.8668 Y66.4876 
G01 X44.7748 Y66.6253 
G01 X44.6577 Y66.7424 
G01 X44.5200 Y66.8345 
G01 X44.3670 Y66.8978 
G01 X44.2046 Y66.9301 
G00 Z0.5080 
G00 X7.5338 Y73.2955 
G01 Z-0.2540 F254.00 
G01 X5.3763 Y73.2955 
G01 X5.2022 Y73.2679 
G01 X5.0345 Y73.2134 
G01 X4.8774 Y73.1334 
G01 X4.7348 Y73.0297 
G01 X4.6101 Y72.9051 
G01 X4.5064 Y72.7624 
G01 X4.4264 Y72.6053 
G01 X4.3719 Y72.4376 
G01 X4.3443 Y72.2635 
G01 X4.3443 Y72.0872 
G01 X4.3719 Y71.9130 
G01 X4.4264 Y71.7453 
G01 X4.5064 Y71.5883 
G01 X4.6101 Y71.4456 
G01 X4.7348 Y71.3209 
G01 X4.8774 Y71.2173 
G01 X5.0345 Y71.1373 
G01 X5.2022 Y71.0828 
G01 X5.3763 Y71.0552 
G01 X7.5338 Y71.0552 
G01 X7.7080 Y71.0828 
G01 X7.8757 Y71.1373 
G01 X8.0328 Y71.2173 
G01 X8.1754 Y71.3209 
G01 X8.3001 Y71.4456 
G01 X8.4037 Y71.5883 
G01 X8.4838 Y71.7453 
G01 X8.5382 Y71.9130 
G01 X8.5658 Y72.0872 
G01 X8.5658 Y72.2635 
G01 X8.5382 Y72.4376 
G01 X8.4838 Y72.6053 
G01 X8.4037 Y72.7624 
G01 X8.3001 Y72.9051 
G01 X8.1754 Y73.0297 
G01 X8.0328 Y73.1334 
G01 X7.8757 Y73.2134 
G01 X7.7080 Y73.2679 
G01 X7.5338 Y73.2955 
G00 Z0.5080 
G00 X7.5338 Y68.2663 
G01 Z-0.2540 F254.00 
G01 X5.3763 Y68.2663 
G01 X5.2022 Y68.2387 
G01 X5.0345 Y68.1842 
G01 X4.8774 Y68.1042 
G01 X4.7348 Y68.0005 
G01 X4.6101 Y67.8759 
G01 X4.5064 Y67.7332 
G01 X4.4264 Y67.5761 
G01 X4.3719 Y67.4084 
G01 X4.3443 Y67.2343 
G01 X4.3443 Y67.0580 
G01 X4.3719 Y66.8838 
G01 X4.4264 Y66.7161 
G01 X4.5064 Y66.5590 
G01 X4.6101 Y66.4164 
G01 X4.7348 Y66.2917 
G01 X4.8774 Y66.1881 
G01 X5.0345 Y66.1081 
G01 X5.2022 Y66.0536 
G01 X5.3763 Y66.0260 
G01 X7.5338 Y66.0260 
G01 X7.7080 Y66.0536 
G01 X7.8757 Y66.1081 
G01 X8.0328 Y66.1881 
G01 X8.1754 Y66.2917 
G01 X8.3001 Y66.4164 
G01 X8.4037 Y66.5590 
G01 X8.4838 Y66.7161 
G01 X8.5382 Y66.8838 
G01 X8.5658 Y67.0580 
G01 X8.5658 Y67.2343 
G01 X8.5382 Y67.4084 
G01 X8.4838 Y67.5761 
G01 X8.4037 Y67.7332 
G01 X8.3001 Y67.8759 
G01 X8.1754 Y68.0005 
G01 X8.0328 Y68.1042 
G01 X7.8757 Y68.1842 
G01 X7.7080 Y68.2387 
G01 X7.5338 Y68.2663 
G00 Z0.5080 
G00 X13.2873 Y68.1581 
G01 Z-0.2540 F254.00 
G01 X13.2873 Y69.0019 
G01 X12.6906 Y69.5985 
G01 X11.8469 Y69.5985 
G01 X11.2502 Y69.0019 
G01 X11.2502 Y68.1581 
G01 X11.8469 Y67.5615 
G01 X12.6906 Y67.5615 
G01 X13.2873 Y68.1581 
G00 Z0.5080 
G00 X13.2873 Y70.2052 
G01 Z-0.2540 F254.00 
G01 X13.2873 Y72.0348 
G01 X13.2676 Y72.0824 
G01 X13.2311 Y72.1188 
G01 X13.1835 Y72.1385 
G01 X11.3540 Y72.1385 
G01 X11.3064 Y72.1188 
G01 X11.2699 Y72.0824 
G01 X11.2502 Y72.0348 
G01 X11.2502 Y70.2052 
G01 X11.2699 Y70.1576 
G01 X11.3064 Y70.1212 
G01 X11.3540 Y70.1015 
G01 X13.1835 Y70.1015 
G01 X13.2311 Y70.1212 
G01 X13.2676 Y70.1576 
G01 X13.2873 Y70.2052 
G00 Z0.5080 
G00 X13.2873 Y65.6181 
G01 Z-0.2540 F254.00 
G01 X13.2873 Y66.4619 
G01 X12.6906 Y67.0585 
G01 X11.8469 Y67.0585 
G01 X11.2502 Y66.4619 
G01 X11.2502 Y65.6181 
G01 X11.8469 Y65.0215 
G01 X12.6906 Y65.0215 
G01 X13.2873 Y65.6181 
G00 Z0.5080 
G00 X13.2873 Y63.0781 
G01 Z-0.2540 F254.00 
G01 X13.2873 Y63.9219 
G01 X12.6906 Y64.5185 
G01 X11.8469 Y64.5185 
G01 X11.2502 Y63.9219 
G01 X11.2502 Y63.0781 
G01 X11.8469 Y62.4815 
G01 X12.6906 Y62.4815 
G01 X13.2873 Y63.0781 
G00 Z0.5080 
G00 X13.2873 Y60.5381 
G01 Z-0.2540 F254.00 
G01 X13.2873 Y61.3819 
G01 X12.6906 Y61.9785 
G01 X11.8469 Y61.9785 
G01 X11.2502 Y61.3819 
G01 X11.2502 Y60.5381 
G01 X11.8469 Y59.9415 
G01 X12.6906 Y59.9415 
G01 X13.2873 Y60.5381 
G00 Z0.5080 
G00 X13.2873 Y57.9981 
G01 Z-0.2540 F254.00 
G01 X13.2873 Y58.8419 
G01 X12.6906 Y59.4385 
G01 X11.8469 Y59.4385 
G01 X11.2502 Y58.8419 
G01 X11.2502 Y57.9981 
G01 X11.8469 Y57.4015 
G01 X12.6906 Y57.4015 
G01 X13.2873 Y57.9981 
G00 Z0.5080 
G00 X13.2873 Y55.4581 
G01 Z-0.2540 F254.00 
G01 X13.2873 Y56.3019 
G01 X12.6906 Y56.8985 
G01 X11.8469 Y56.8985 
G01 X11.2502 Y56.3019 
G01 X11.2502 Y55.4581 
G01 X11.8469 Y54.8615 
G01 X12.6906 Y54.8615 
G01 X13.2873 Y55.4581 
G00 Z0.5080 
G00 X13.2873 Y52.9181 
G01 Z-0.2540 F254.00 
G01 X13.2873 Y53.7619 
G01 X12.6906 Y54.3585 
G01 X11.8469 Y54.3585 
G01 X11.2502 Y53.7619 
G01 X11.2502 Y52.9181 
G01 X11.8469 Y52.3215 
G01 X12.6906 Y52.3215 
G01 X13.2873 Y52.9181 
G00 Z0.5080 
G00 X41.2273 Y68.1581 
G01 Z-0.2540 F254.00 
G01 X41.2273 Y69.0019 
G01 X40.6306 Y69.5985 
G01 X39.7869 Y69.5985 
G01 X39.1902 Y69.0019 
G01 X39.1902 Y68.1581 
G01 X39.7869 Y67.5615 
G01 X40.6306 Y67.5615 
G01 X41.2273 Y68.1581 
G00 Z0.5080 
G00 X41.2273 Y70.2052 
G01 Z-0.2540 F254.00 
G01 X41.2273 Y72.0348 
G01 X41.2076 Y72.0824 
G01 X41.1711 Y72.1188 
G01 X41.1235 Y72.1385 
G01 X39.2940 Y72.1385 
G01 X39.2464 Y72.1188 
G01 X39.2099 Y72.0824 
G01 X39.1902 Y72.0348 
G01 X39.1902 Y70.2052 
G01 X39.2099 Y70.1576 
G01 X39.2464 Y70.1212 
G01 X39.2940 Y70.1015 
G01 X41.1235 Y70.1015 
G01 X41.1711 Y70.1212 
G01 X41.2076 Y70.1576 
G01 X41.2273 Y70.2052 
G00 Z0.5080 
G00 X41.2273 Y65.6181 
G01 Z-0.2540 F254.00 
G01 X41.2273 Y66.4619 
G01 X40.6306 Y67.0585 
G01 X39.7869 Y67.0585 
G01 X39.1902 Y66.4619 
G01 X39.1902 Y65.6181 
G01 X39.7869 Y65.0215 
G01 X40.6306 Y65.0215 
G01 X41.2273 Y65.6181 
G00 Z0.5080 
G00 X41.2273 Y63.0781 
G01 Z-0.2540 F254.00 
G01 X41.2273 Y63.9219 
G01 X40.6306 Y64.5185 
G01 X39.7869 Y64.5185 
G01 X39.1902 Y63.9219 
G01 X39.1902 Y63.0781 
G01 X39.7869 Y62.4815 
G01 X40.6306 Y62.4815 
G01 X41.2273 Y63.0781 
G00 Z0.5080 
G00 X41.2273 Y60.5381 
G01 Z-0.2540 F254.00 
G01 X41.2273 Y61.3819 
G01 X40.6306 Y61.9785 
G01 X39.7869 Y61.9785 
G01 X39.1902 Y61.3819 
G01 X39.1902 Y60.5381 
G01 X39.7869 Y59.9415 
G01 X40.6306 Y59.9415 
G01 X41.2273 Y60.5381 
G00 Z0.5080 
G00 X41.2273 Y57.9981 
G01 Z-0.2540 F254.00 
G01 X41.2273 Y58.8419 
G01 X40.6306 Y59.4385 
G01 X39.7869 Y59.4385 
G01 X39.1902 Y58.8419 
G01 X39.1902 Y57.9981 
G01 X39.7869 Y57.4015 
G01 X40.6306 Y57.4015 
G01 X41.2273 Y57.9981 
G00 Z0.5080 
G00 X41.2273 Y55.4581 
G01 Z-0.2540 F254.00 
G01 X41.2273 Y56.3019 
G01 X40.6306 Y56.8985 
G01 X39.7869 Y56.8985 
G01 X39.1902 Y56.3019 
G01 X39.1902 Y55.4581 
G01 X39.7869 Y54.8615 
G01 X40.6306 Y54.8615 
G01 X41.2273 Y55.4581 
G00 Z0.5080 
G00 X41.2273 Y52.9181 
G01 Z-0.2540 F254.00 
G01 X41.2273 Y53.7619 
G01 X40.6306 Y54.3585 
G01 X39.7869 Y54.3585 
G01 X39.1902 Y53.7619 
G01 X39.1902 Y52.9181 
G01 X39.7869 Y52.3215 
G01 X40.6306 Y52.3215 
G01 X41.2273 Y52.9181 
G00 Z0.5080 
G00 X10.7835 Y36.9847 
G01 Z-0.2540 F254.00 
G01 X10.7835 Y38.6843 
G01 X10.7492 Y38.8565 
G01 X10.6820 Y39.0188 
G01 X10.5844 Y39.1648 
G01 X10.4603 Y39.2890 
G01 X10.3142 Y39.3865 
G01 X10.1520 Y39.4537 
G01 X9.9798 Y39.4880 
G01 X9.8041 Y39.4880 
G01 X9.6319 Y39.4537 
G01 X9.4696 Y39.3865 
G01 X9.3236 Y39.2890 
G01 X9.1994 Y39.1648 
G01 X9.1019 Y39.0188 
G01 X9.0347 Y38.8565 
G01 X9.0004 Y38.6843 
G01 X9.0004 Y36.9847 
G01 X9.0347 Y36.8124 
G01 X9.1019 Y36.6502 
G01 X9.1994 Y36.5041 
G01 X9.3236 Y36.3800 
G01 X9.4696 Y36.2824 
G01 X9.6319 Y36.2152 
G01 X9.8041 Y36.1809 
G01 X9.9798 Y36.1809 
G01 X10.1520 Y36.2152 
G01 X10.3142 Y36.2824 
G01 X10.4603 Y36.3800 
G01 X10.5844 Y36.5041 
G01 X10.6820 Y36.6502 
G01 X10.7492 Y36.8124 
G01 X10.7835 Y36.9847 
G00 Z0.5080 
G00 X8.2435 Y36.9847 
G01 Z-0.2540 F254.00 
G01 X8.2435 Y38.6843 
G01 X8.2092 Y38.8565 
G01 X8.1420 Y39.0188 
G01 X8.0444 Y39.1648 
G01 X7.9203 Y39.2890 
G01 X7.7742 Y39.3865 
G01 X7.6120 Y39.4537 
G01 X7.4398 Y39.4880 
G01 X7.2641 Y39.4880 
G01 X7.0919 Y39.4537 
G01 X6.9296 Y39.3865 
G01 X6.7836 Y39.2890 
G01 X6.6594 Y39.1648 
G01 X6.5619 Y39.0188 
G01 X6.4947 Y38.8565 
G01 X6.4604 Y38.6843 
G01 X6.4604 Y36.9847 
G01 X6.4947 Y36.8124 
G01 X6.5619 Y36.6502 
G01 X6.6594 Y36.5041 
G01 X6.7836 Y36.3800 
G01 X6.9296 Y36.2824 
G01 X7.0919 Y36.2152 
G01 X7.2641 Y36.1809 
G01 X7.4398 Y36.1809 
G01 X7.6120 Y36.2152 
G01 X7.7742 Y36.2824 
G01 X7.9203 Y36.3800 
G01 X8.0444 Y36.5041 
G01 X8.1420 Y36.6502 
G01 X8.2092 Y36.8124 
G01 X8.2435 Y36.9847 
G00 Z0.5080 
G00 X5.7035 Y36.9847 
G01 Z-0.2540 F254.00 
G01 X5.7035 Y38.6843 
G01 X5.6692 Y38.8565 
G01 X5.6020 Y39.0188 
G01 X5.5044 Y39.1648 
G01 X5.3803 Y39.2890 
G01 X5.2342 Y39.3865 
G01 X5.0720 Y39.4537 
G01 X4.8998 Y39.4880 
G01 X4.7241 Y39.4880 
G01 X4.5519 Y39.4537 
G01 X4.3896 Y39.3865 
G01 X4.2436 Y39.2890 
G01 X4.1194 Y39.1648 
G01 X4.0219 Y39.0188 
G01 X3.9547 Y38.8565 
G01 X3.9204 Y38.6843 
G01 X3.9204 Y36.9847 
G01 X3.9547 Y36.8124 
G01 X4.0219 Y36.6502 
G01 X4.1194 Y36.5041 
G01 X4.2436 Y36.3800 
G01 X4.3896 Y36.2824 
G01 X4.5519 Y36.2152 
G01 X4.7241 Y36.1809 
G01 X4.8998 Y36.1809 
G01 X5.0720 Y36.2152 
G01 X5.2342 Y36.2824 
G01 X5.3803 Y36.3800 
G01 X5.5044 Y36.5041 
G01 X5.6020 Y36.6502 
G01 X5.6692 Y36.8124 
G01 X5.7035 Y36.9847 
G00 Z0.5080 
G00 X9.5895 Y22.7018 
G01 Z-0.2540 F254.00 
G01 X9.5895 Y22.9951 
G01 X9.5512 Y23.2859 
G01 X9.4753 Y23.5692 
G01 X9.3630 Y23.8402 
G01 X9.2164 Y24.0942 
G01 X9.0378 Y24.3269 
G01 X8.8304 Y24.5343 
G01 X8.5977 Y24.7129 
G01 X8.3437 Y24.8596 
G01 X8.0727 Y24.9718 
G01 X7.7894 Y25.0477 
G01 X7.4986 Y25.0860 
G01 X7.2053 Y25.0860 
G01 X6.9145 Y25.0477 
G01 X6.6312 Y24.9718 
G01 X6.3602 Y24.8596 
G01 X6.1062 Y24.7129 
G01 X5.8735 Y24.5343 
G01 X5.6661 Y24.3269 
G01 X5.4875 Y24.0942 
G01 X5.3408 Y23.8402 
G01 X5.2286 Y23.5692 
G01 X5.1527 Y23.2859 
G01 X5.1144 Y22.9951 
G01 X5.1144 Y22.7018 
G01 X5.1527 Y22.4110 
G01 X5.2286 Y22.1277 
G01 X5.3408 Y21.8567 
G01 X5.4875 Y21.6027 
G01 X5.6661 Y21.3700 
G01 X5.8735 Y21.1626 
G01 X6.1062 Y20.9840 
G01 X6.3602 Y20.8374 
G01 X6.6312 Y20.7251 
G01 X6.9145 Y20.6492 
G01 X7.2053 Y20.6109 
G01 X7.4986 Y20.6109 
G01 X7.7894 Y20.6492 
G01 X8.0727 Y20.7251 
G01 X8.3437 Y20.8374 
G01 X8.5977 Y20.9840 
G01 X8.8304 Y21.1626 
G01 X9.0378 Y21.3700 
G01 X9.2164 Y21.6027 
G01 X9.3630 Y21.8567 
G01 X9.4753 Y22.1277 
G01 X9.5512 Y22.4110 
G01 X9.5895 Y22.7018 
G00 Z0.5080 
G00 X37.8845 Y48.2798 
G01 Z-0.2540 F254.00 
G01 X37.8845 Y49.8679 
G01 X37.8522 Y50.0303 
G01 X37.7888 Y50.1833 
G01 X37.6968 Y50.3210 
G01 X37.5797 Y50.4381 
G01 X37.4420 Y50.5301 
G01 X37.2890 Y50.5935 
G01 X37.1266 Y50.6258 
G01 X36.9609 Y50.6258 
G01 X36.7985 Y50.5935 
G01 X36.6455 Y50.5301 
G01 X36.5078 Y50.4381 
G01 X36.3907 Y50.3210 
G01 X36.2987 Y50.1833 
G01 X36.2353 Y50.0303 
G01 X36.2030 Y49.8679 
G01 X36.2030 Y48.2798 
G01 X36.2353 Y48.1174 
G01 X36.2987 Y47.9644 
G01 X36.3907 Y47.8267 
G01 X36.5078 Y47.7096 
G01 X36.6455 Y47.6176 
G01 X36.7985 Y47.5542 
G01 X36.9609 Y47.5219 
G01 X37.1266 Y47.5219 
G01 X37.2890 Y47.5542 
G01 X37.4420 Y47.6176 
G01 X37.5797 Y47.7096 
G01 X37.6968 Y47.8267 
G01 X37.7888 Y47.9644 
G01 X37.8522 Y48.1174 
G01 X37.8845 Y48.2798 
G00 Z0.5080 
G00 X35.3445 Y48.2798 
G01 Z-0.2540 F254.00 
G01 X35.3445 Y49.8679 
G01 X35.3122 Y50.0303 
G01 X35.2488 Y50.1833 
G01 X35.1568 Y50.3210 
G01 X35.0397 Y50.4381 
G01 X34.9020 Y50.5301 
G01 X34.7490 Y50.5935 
G01 X34.5866 Y50.6258 
G01 X34.4209 Y50.6258 
G01 X34.2585 Y50.5935 
G01 X34.1055 Y50.5301 
G01 X33.9678 Y50.4381 
G01 X33.8507 Y50.3210 
G01 X33.7587 Y50.1833 
G01 X33.6953 Y50.0303 
G01 X33.6630 Y49.8679 
G01 X33.6630 Y48.2798 
G01 X33.6953 Y48.1174 
G01 X33.7587 Y47.9644 
G01 X33.8507 Y47.8267 
G01 X33.9678 Y47.7096 
G01 X34.1055 Y47.6176 
G01 X34.2585 Y47.5542 
G01 X34.4209 Y47.5219 
G01 X34.5866 Y47.5219 
G01 X34.7490 Y47.5542 
G01 X34.9020 Y47.6176 
G01 X35.0397 Y47.7096 
G01 X35.1568 Y47.8267 
G01 X35.2488 Y47.9644 
G01 X35.3122 Y48.1174 
G01 X35.3445 Y48.2798 
G00 Z0.5080 
G00 X32.8045 Y48.2798 
G01 Z-0.2540 F254.00 
G01 X32.8045 Y49.8679 
G01 X32.7722 Y50.0303 
G01 X32.7088 Y50.1833 
G01 X32.6168 Y50.3210 
G01 X32.4997 Y50.4381 
G01 X32.3620 Y50.5301 
G01 X32.2090 Y50.5935 
G01 X32.0466 Y50.6258 
G01 X31.8809 Y50.6258 
G01 X31.7185 Y50.5935 
G01 X31.5655 Y50.5301 
G01 X31.4278 Y50.4381 
G01 X31.3107 Y50.3210 
G01 X31.2187 Y50.1833 
G01 X31.1553 Y50.0303 
G01 X31.1230 Y49.8679 
G01 X31.1230 Y48.2798 
G01 X31.1553 Y48.1174 
G01 X31.2187 Y47.9644 
G01 X31.3107 Y47.8267 
G01 X31.4278 Y47.7096 
G01 X31.5655 Y47.6176 
G01 X31.7185 Y47.5542 
G01 X31.8809 Y47.5219 
G01 X32.0466 Y47.5219 
G01 X32.2090 Y47.5542 
G01 X32.3620 Y47.6176 
G01 X32.4997 Y47.7096 
G01 X32.6168 Y47.8267 
G01 X32.7088 Y47.9644 
G01 X32.7722 Y48.1174 
G01 X32.8045 Y48.2798 
G00 Z0.5080 
G00 X30.2645 Y48.2798 
G01 Z-0.2540 F254.00 
G01 X30.2645 Y49.8679 
G01 X30.2322 Y50.0303 
G01 X30.1688 Y50.1833 
G01 X30.0768 Y50.3210 
G01 X29.9597 Y50.4381 
G01 X29.8220 Y50.5301 
G01 X29.6690 Y50.5935 
G01 X29.5066 Y50.6258 
G01 X29.3409 Y50.6258 
G01 X29.1785 Y50.5935 
G01 X29.0255 Y50.5301 
G01 X28.8878 Y50.4381 
G01 X28.7707 Y50.3210 
G01 X28.6787 Y50.1833 
G01 X28.6153 Y50.0303 
G01 X28.5830 Y49.8679 
G01 X28.5830 Y48.2798 
G01 X28.6153 Y48.1174 
G01 X28.6787 Y47.9644 
G01 X28.7707 Y47.8267 
G01 X28.8878 Y47.7096 
G01 X29.0255 Y47.6176 
G01 X29.1785 Y47.5542 
G01 X29.3409 Y47.5219 
G01 X29.5066 Y47.5219 
G01 X29.6690 Y47.5542 
G01 X29.8220 Y47.6176 
G01 X29.9597 Y47.7096 
G01 X30.0768 Y47.8267 
G01 X30.1688 Y47.9644 
G01 X30.2322 Y48.1174 
G01 X30.2645 Y48.2798 
G00 Z0.5080 
G00 X27.7245 Y48.2798 
G01 Z-0.2540 F254.00 
G01 X27.7245 Y49.8679 
G01 X27.6922 Y50.0303 
G01 X27.6288 Y50.1833 
G01 X27.5368 Y50.3210 
G01 X27.4197 Y50.4381 
G01 X27.2820 Y50.5301 
G01 X27.1290 Y50.5935 
G01 X26.9666 Y50.6258 
G01 X26.8009 Y50.6258 
G01 X26.6385 Y50.5935 
G01 X26.4855 Y50.5301 
G01 X26.3478 Y50.4381 
G01 X26.2307 Y50.3210 
G01 X26.1387 Y50.1833 
G01 X26.0753 Y50.0303 
G01 X26.0430 Y49.8679 
G01 X26.0430 Y48.2798 
G01 X26.0753 Y48.1174 
G01 X26.1387 Y47.9644 
G01 X26.2307 Y47.8267 
G01 X26.3478 Y47.7096 
G01 X26.4855 Y47.6176 
G01 X26.6385 Y47.5542 
G01 X26.8009 Y47.5219 
G01 X26.9666 Y47.5219 
G01 X27.1290 Y47.5542 
G01 X27.2820 Y47.6176 
G01 X27.4197 Y47.7096 
G01 X27.5368 Y47.8267 
G01 X27.6288 Y47.9644 
G01 X27.6922 Y48.1174 
G01 X27.7245 Y48.2798 
G00 Z0.5080 
G00 X22.6445 Y48.2798 
G01 Z-0.2540 F254.00 
G01 X22.6445 Y49.8679 
G01 X22.6122 Y50.0303 
G01 X22.5488 Y50.1833 
G01 X22.4568 Y50.3210 
G01 X22.3397 Y50.4381 
G01 X22.2020 Y50.5301 
G01 X22.0490 Y50.5935 
G01 X21.8866 Y50.6258 
G01 X21.7209 Y50.6258 
G01 X21.5585 Y50.5935 
G01 X21.4055 Y50.5301 
G01 X21.2678 Y50.4381 
G01 X21.1507 Y50.3210 
G01 X21.0587 Y50.1833 
G01 X20.9953 Y50.0303 
G01 X20.9630 Y49.8679 
G01 X20.9630 Y48.2798 
G01 X20.9953 Y48.1174 
G01 X21.0587 Y47.9644 
G01 X21.1507 Y47.8267 
G01 X21.2678 Y47.7096 
G01 X21.4055 Y47.6176 
G01 X21.5585 Y47.5542 
G01 X21.7209 Y47.5219 
G01 X21.8866 Y47.5219 
G01 X22.0490 Y47.5542 
G01 X22.2020 Y47.6176 
G01 X22.3397 Y47.7096 
G01 X22.4568 Y47.8267 
G01 X22.5488 Y47.9644 
G01 X22.6122 Y48.1174 
G01 X22.6445 Y48.2798 
G00 Z0.5080 
G00 X25.1845 Y48.2798 
G01 Z-0.2540 F254.00 
G01 X25.1845 Y49.8679 
G01 X25.1522 Y50.0303 
G01 X25.0888 Y50.1833 
G01 X24.9968 Y50.3210 
G01 X24.8797 Y50.4381 
G01 X24.7420 Y50.5301 
G01 X24.5890 Y50.5935 
G01 X24.4266 Y50.6258 
G01 X24.2609 Y50.6258 
G01 X24.0985 Y50.5935 
G01 X23.9455 Y50.5301 
G01 X23.8078 Y50.4381 
G01 X23.6907 Y50.3210 
G01 X23.5987 Y50.1833 
G01 X23.5353 Y50.0303 
G01 X23.5030 Y49.8679 
G01 X23.5030 Y48.2798 
G01 X23.5353 Y48.1174 
G01 X23.5987 Y47.9644 
G01 X23.6907 Y47.8267 
G01 X23.8078 Y47.7096 
G01 X23.9455 Y47.6176 
G01 X24.0985 Y47.5542 
G01 X24.2609 Y47.5219 
G01 X24.4266 Y47.5219 
G01 X24.5890 Y47.5542 
G01 X24.7420 Y47.6176 
G01 X24.8797 Y47.7096 
G01 X24.9968 Y47.8267 
G01 X25.0888 Y47.9644 
G01 X25.1522 Y48.1174 
G01 X25.1845 Y48.2798 
G00 Z0.5080 
G00 X17.5645 Y48.2798 
G01 Z-0.2540 F254.00 
G01 X17.5645 Y49.8679 
G01 X17.5322 Y50.0303 
G01 X17.4688 Y50.1833 
G01 X17.3768 Y50.3210 
G01 X17.2597 Y50.4381 
G01 X17.1220 Y50.5301 
G01 X16.9690 Y50.5935 
G01 X16.8066 Y50.6258 
G01 X16.6409 Y50.6258 
G01 X16.4785 Y50.5935 
G01 X16.3255 Y50.5301 
G01 X16.1878 Y50.4381 
G01 X16.0707 Y50.3210 
G01 X15.9787 Y50.1833 
G01 X15.9153 Y50.0303 
G01 X15.8830 Y49.8679 
G01 X15.8830 Y48.2798 
G01 X15.9153 Y48.1174 
G01 X15.9787 Y47.9644 
G01 X16.0707 Y47.8267 
G01 X16.1878 Y47.7096 
G01 X16.3255 Y47.6176 
G01 X16.4785 Y47.5542 
G01 X16.6409 Y47.5219 
G01 X16.8066 Y47.5219 
G01 X16.9690 Y47.5542 
G01 X17.1220 Y47.6176 
G01 X17.2597 Y47.7096 
G01 X17.3768 Y47.8267 
G01 X17.4688 Y47.9644 
G01 X17.5322 Y48.1174 
G01 X17.5645 Y48.2798 
G00 Z0.5080 
G00 X20.1045 Y48.2798 
G01 Z-0.2540 F254.00 
G01 X20.1045 Y49.8679 
G01 X20.0722 Y50.0303 
G01 X20.0088 Y50.1833 
G01 X19.9168 Y50.3210 
G01 X19.7997 Y50.4381 
G01 X19.6620 Y50.5301 
G01 X19.5090 Y50.5935 
G01 X19.3466 Y50.6258 
G01 X19.1809 Y50.6258 
G01 X19.0185 Y50.5935 
G01 X18.8655 Y50.5301 
G01 X18.7278 Y50.4381 
G01 X18.6107 Y50.3210 
G01 X18.5187 Y50.1833 
G01 X18.4553 Y50.0303 
G01 X18.4230 Y49.8679 
G01 X18.4230 Y48.2798 
G01 X18.4553 Y48.1174 
G01 X18.5187 Y47.9644 
G01 X18.6107 Y47.8267 
G01 X18.7278 Y47.7096 
G01 X18.8655 Y47.6176 
G01 X19.0185 Y47.5542 
G01 X19.1809 Y47.5219 
G01 X19.3466 Y47.5219 
G01 X19.5090 Y47.5542 
G01 X19.6620 Y47.6176 
G01 X19.7997 Y47.7096 
G01 X19.9168 Y47.8267 
G01 X20.0088 Y47.9644 
G01 X20.0722 Y48.1174 
G01 X20.1045 Y48.2798 
G00 Z0.5080 
G00 X37.4678 Y44.4161 
G01 Z-0.2540 F254.00 
G01 X37.4678 Y45.8925 
G01 X37.4375 Y46.0451 
G01 X37.3779 Y46.1889 
G01 X37.2915 Y46.3182 
G01 X37.1814 Y46.4283 
G01 X37.0521 Y46.5147 
G01 X36.9083 Y46.5743 
G01 X36.7557 Y46.6046 
G01 X36.6001 Y46.6046 
G01 X36.4475 Y46.5743 
G01 X36.3037 Y46.5147 
G01 X36.1743 Y46.4283 
G01 X36.0643 Y46.3182 
G01 X35.9779 Y46.1889 
G01 X35.9183 Y46.0451 
G01 X35.8880 Y45.8925 
G01 X35.8880 Y44.4161 
G01 X35.9183 Y44.2635 
G01 X35.9779 Y44.1197 
G01 X36.0643 Y43.9903 
G01 X36.1743 Y43.8803 
G01 X36.3037 Y43.7939 
G01 X36.4475 Y43.7343 
G01 X36.6001 Y43.7039 
G01 X36.7557 Y43.7039 
G01 X36.9083 Y43.7343 
G01 X37.0521 Y43.7939 
G01 X37.1814 Y43.8803 
G01 X37.2915 Y43.9903 
G01 X37.3779 Y44.1197 
G01 X37.4375 Y44.2635 
G01 X37.4678 Y44.4161 
G00 Z0.5080 
G00 X34.9278 Y44.4161 
G01 Z-0.2540 F254.00 
G01 X34.9278 Y45.8925 
G01 X34.8975 Y46.0451 
G01 X34.8379 Y46.1889 
G01 X34.7515 Y46.3182 
G01 X34.6414 Y46.4283 
G01 X34.5121 Y46.5147 
G01 X34.3683 Y46.5743 
G01 X34.2157 Y46.6046 
G01 X34.0601 Y46.6046 
G01 X33.9075 Y46.5743 
G01 X33.7637 Y46.5147 
G01 X33.6343 Y46.4283 
G01 X33.5243 Y46.3182 
G01 X33.4379 Y46.1889 
G01 X33.3783 Y46.0451 
G01 X33.3480 Y45.8925 
G01 X33.3480 Y44.4161 
G01 X33.3783 Y44.2635 
G01 X33.4379 Y44.1197 
G01 X33.5243 Y43.9903 
G01 X33.6343 Y43.8803 
G01 X33.7637 Y43.7939 
G01 X33.9075 Y43.7343 
G01 X34.0601 Y43.7039 
G01 X34.2157 Y43.7039 
G01 X34.3683 Y43.7343 
G01 X34.5121 Y43.7939 
G01 X34.6414 Y43.8803 
G01 X34.7515 Y43.9903 
G01 X34.8379 Y44.1197 
G01 X34.8975 Y44.2635 
G01 X34.9278 Y44.4161 
G00 Z0.5080 
G00 X22.2278 Y44.4161 
G01 Z-0.2540 F254.00 
G01 X22.2278 Y45.8925 
G01 X22.1975 Y46.0451 
G01 X22.1379 Y46.1889 
G01 X22.0515 Y46.3182 
G01 X21.9414 Y46.4283 
G01 X21.8121 Y46.5147 
G01 X21.6683 Y46.5743 
G01 X21.5157 Y46.6046 
G01 X21.3601 Y46.6046 
G01 X21.2075 Y46.5743 
G01 X21.0637 Y46.5147 
G01 X20.9343 Y46.4283 
G01 X20.8243 Y46.3182 
G01 X20.7379 Y46.1889 
G01 X20.6783 Y46.0451 
G01 X20.6480 Y45.8925 
G01 X20.6480 Y44.4161 
G01 X20.6783 Y44.2635 
G01 X20.7379 Y44.1197 
G01 X20.8243 Y43.9903 
G01 X20.9343 Y43.8803 
G01 X21.0637 Y43.7939 
G01 X21.2075 Y43.7343 
G01 X21.3601 Y43.7039 
G01 X21.5157 Y43.7039 
G01 X21.6683 Y43.7343 
G01 X21.8121 Y43.7939 
G01 X21.9414 Y43.8803 
G01 X22.0515 Y43.9903 
G01 X22.1379 Y44.1197 
G01 X22.1975 Y44.2635 
G01 X22.2278 Y44.4161 
G00 Z0.5080 
G00 X19.6878 Y44.4161 
G01 Z-0.2540 F254.00 
G01 X19.6878 Y45.8925 
G01 X19.6575 Y46.0451 
G01 X19.5979 Y46.1889 
G01 X19.5115 Y46.3182 
G01 X19.4014 Y46.4283 
G01 X19.2721 Y46.5147 
G01 X19.1283 Y46.5743 
G01 X18.9757 Y46.6046 
G01 X18.8201 Y46.6046 
G01 X18.6675 Y46.5743 
G01 X18.5237 Y46.5147 
G01 X18.3943 Y46.4283 
G01 X18.2843 Y46.3182 
G01 X18.1979 Y46.1889 
G01 X18.1383 Y46.0451 
G01 X18.1080 Y45.8925 
G01 X18.1080 Y44.4161 
G01 X18.1383 Y44.2635 
G01 X18.1979 Y44.1197 
G01 X18.2843 Y43.9903 
G01 X18.3943 Y43.8803 
G01 X18.5237 Y43.7939 
G01 X18.6675 Y43.7343 
G01 X18.8201 Y43.7039 
G01 X18.9757 Y43.7039 
G01 X19.1283 Y43.7343 
G01 X19.2721 Y43.7939 
G01 X19.4014 Y43.8803 
G01 X19.5115 Y43.9903 
G01 X19.5979 Y44.1197 
G01 X19.6575 Y44.2635 
G01 X19.6878 Y44.4161 
G00 Z0.5080 
G00 X32.3878 Y44.4161 
G01 Z-0.2540 F254.00 
G01 X32.3878 Y45.8925 
G01 X32.3575 Y46.0451 
G01 X32.2979 Y46.1889 
G01 X32.2115 Y46.3182 
G01 X32.1014 Y46.4283 
G01 X31.9721 Y46.5147 
G01 X31.8283 Y46.5743 
G01 X31.6757 Y46.6046 
G01 X31.5201 Y46.6046 
G01 X31.3675 Y46.5743 
G01 X31.2237 Y46.5147 
G01 X31.0943 Y46.4283 
G01 X30.9843 Y46.3182 
G01 X30.8979 Y46.1889 
G01 X30.8383 Y46.0451 
G01 X30.8080 Y45.8925 
G01 X30.8080 Y44.4161 
G01 X30.8383 Y44.2635 
G01 X30.8979 Y44.1197 
G01 X30.9843 Y43.9903 
G01 X31.0943 Y43.8803 
G01 X31.2237 Y43.7939 
G01 X31.3675 Y43.7343 
G01 X31.5201 Y43.7039 
G01 X31.6757 Y43.7039 
G01 X31.8283 Y43.7343 
G01 X31.9721 Y43.7939 
G01 X32.1014 Y43.8803 
G01 X32.2115 Y43.9903 
G01 X32.2979 Y44.1197 
G01 X32.3575 Y44.2635 
G01 X32.3878 Y44.4161 
G00 Z0.5080 
G00 X29.8478 Y44.4161 
G01 Z-0.2540 F254.00 
G01 X29.8478 Y45.8925 
G01 X29.8175 Y46.0451 
G01 X29.7579 Y46.1889 
G01 X29.6715 Y46.3182 
G01 X29.5614 Y46.4283 
G01 X29.4321 Y46.5147 
G01 X29.2883 Y46.5743 
G01 X29.1357 Y46.6046 
G01 X28.9801 Y46.6046 
G01 X28.8275 Y46.5743 
G01 X28.6837 Y46.5147 
G01 X28.5543 Y46.4283 
G01 X28.4443 Y46.3182 
G01 X28.3579 Y46.1889 
G01 X28.2983 Y46.0451 
G01 X28.2680 Y45.8925 
G01 X28.2680 Y44.4161 
G01 X28.2983 Y44.2635 
G01 X28.3579 Y44.1197 
G01 X28.4443 Y43.9903 
G01 X28.5543 Y43.8803 
G01 X28.6837 Y43.7939 
G01 X28.8275 Y43.7343 
G01 X28.9801 Y43.7039 
G01 X29.1357 Y43.7039 
G01 X29.2883 Y43.7343 
G01 X29.4321 Y43.7939 
G01 X29.5614 Y43.8803 
G01 X29.6715 Y43.9903 
G01 X29.7579 Y44.1197 
G01 X29.8175 Y44.2635 
G01 X29.8478 Y44.4161 
G00 Z0.5080 
G00 X24.7678 Y44.4161 
G01 Z-0.2540 F254.00 
G01 X24.7678 Y45.8925 
G01 X24.7375 Y46.0451 
G01 X24.6779 Y46.1889 
G01 X24.5915 Y46.3182 
G01 X24.4814 Y46.4283 
G01 X24.3521 Y46.5147 
G01 X24.2083 Y46.5743 
G01 X24.0557 Y46.6046 
G01 X23.9001 Y46.6046 
G01 X23.7475 Y46.5743 
G01 X23.6037 Y46.5147 
G01 X23.4743 Y46.4283 
G01 X23.3643 Y46.3182 
G01 X23.2779 Y46.1889 
G01 X23.2183 Y46.0451 
G01 X23.1880 Y45.8925 
G01 X23.1880 Y44.4161 
G01 X23.2183 Y44.2635 
G01 X23.2779 Y44.1197 
G01 X23.3643 Y43.9903 
G01 X23.4743 Y43.8803 
G01 X23.6037 Y43.7939 
G01 X23.7475 Y43.7343 
G01 X23.9001 Y43.7039 
G01 X24.0557 Y43.7039 
G01 X24.2083 Y43.7343 
G01 X24.3521 Y43.7939 
G01 X24.4814 Y43.8803 
G01 X24.5915 Y43.9903 
G01 X24.6779 Y44.1197 
G01 X24.7375 Y44.2635 
G01 X24.7678 Y44.4161 
G00 Z0.5080 
G00 X27.3078 Y44.4161 
G01 Z-0.2540 F254.00 
G01 X27.3078 Y45.8925 
G01 X27.2775 Y46.0451 
G01 X27.2179 Y46.1889 
G01 X27.1315 Y46.3182 
G01 X27.0214 Y46.4283 
G01 X26.8921 Y46.5147 
G01 X26.7483 Y46.5743 
G01 X26.5957 Y46.6046 
G01 X26.4401 Y46.6046 
G01 X26.2875 Y46.5743 
G01 X26.1437 Y46.5147 
G01 X26.0143 Y46.4283 
G01 X25.9043 Y46.3182 
G01 X25.8179 Y46.1889 
G01 X25.7583 Y46.0451 
G01 X25.7279 Y45.8925 
G01 X25.7279 Y44.4161 
G01 X25.7583 Y44.2635 
G01 X25.8179 Y44.1197 
G01 X25.9043 Y43.9903 
G01 X26.0143 Y43.8803 
G01 X26.1437 Y43.7939 
G01 X26.2875 Y43.7343 
G01 X26.4401 Y43.7039 
G01 X26.5957 Y43.7039 
G01 X26.7483 Y43.7343 
G01 X26.8921 Y43.7939 
G01 X27.0214 Y43.8803 
G01 X27.1315 Y43.9903 
G01 X27.2179 Y44.1197 
G01 X27.2775 Y44.2635 
G01 X27.3078 Y44.4161 
G00 Z0.5080 
G00 X17.1478 Y44.4161 
G01 Z-0.2540 F254.00 
G01 X17.1478 Y45.8925 
G01 X17.1175 Y46.0451 
G01 X17.0579 Y46.1889 
G01 X16.9715 Y46.3182 
G01 X16.8614 Y46.4283 
G01 X16.7321 Y46.5147 
G01 X16.5883 Y46.5743 
G01 X16.4357 Y46.6046 
G01 X16.2801 Y46.6046 
G01 X16.1275 Y46.5743 
G01 X15.9837 Y46.5147 
G01 X15.8543 Y46.4283 
G01 X15.7443 Y46.3182 
G01 X15.6579 Y46.1889 
G01 X15.5983 Y46.0451 
G01 X15.5680 Y45.8925 
G01 X15.5680 Y44.4161 
G01 X15.5983 Y44.2635 
G01 X15.6579 Y44.1197 
G01 X15.7443 Y43.9903 
G01 X15.8543 Y43.8803 
G01 X15.9837 Y43.7939 
G01 X16.1275 Y43.7343 
G01 X16.2801 Y43.7039 
G01 X16.4357 Y43.7039 
G01 X16.5883 Y43.7343 
G01 X16.7321 Y43.7939 
G01 X16.8614 Y43.8803 
G01 X16.9715 Y43.9903 
G01 X17.0579 Y44.1197 
G01 X17.1175 Y44.2635 
G01 X17.1478 Y44.4161 
G00 Z0.5080 
G00 X17.1478 Y36.7961 
G01 Z-0.2540 F254.00 
G01 X17.1478 Y38.2725 
G01 X17.1175 Y38.4251 
G01 X17.0579 Y38.5689 
G01 X16.9715 Y38.6982 
G01 X16.8614 Y38.8083 
G01 X16.7321 Y38.8947 
G01 X16.5883 Y38.9543 
G01 X16.4357 Y38.9846 
G01 X16.2801 Y38.9846 
G01 X16.1275 Y38.9543 
G01 X15.9837 Y38.8947 
G01 X15.8543 Y38.8083 
G01 X15.7443 Y38.6982 
G01 X15.6579 Y38.5689 
G01 X15.5983 Y38.4251 
G01 X15.5680 Y38.2725 
G01 X15.5680 Y36.7961 
G01 X15.5983 Y36.6435 
G01 X15.6579 Y36.4997 
G01 X15.7443 Y36.3703 
G01 X15.8543 Y36.2603 
G01 X15.9837 Y36.1739 
G01 X16.1275 Y36.1143 
G01 X16.2801 Y36.0840 
G01 X16.4357 Y36.0840 
G01 X16.5883 Y36.1143 
G01 X16.7321 Y36.1739 
G01 X16.8614 Y36.2603 
G01 X16.9715 Y36.3703 
G01 X17.0579 Y36.4997 
G01 X17.1175 Y36.6435 
G01 X17.1478 Y36.7961 
G00 Z0.5080 
G00 X19.6878 Y36.7961 
G01 Z-0.2540 F254.00 
G01 X19.6878 Y38.2725 
G01 X19.6575 Y38.4251 
G01 X19.5979 Y38.5689 
G01 X19.5115 Y38.6982 
G01 X19.4014 Y38.8083 
G01 X19.2721 Y38.8947 
G01 X19.1283 Y38.9543 
G01 X18.9757 Y38.9846 
G01 X18.8201 Y38.9846 
G01 X18.6675 Y38.9543 
G01 X18.5237 Y38.8947 
G01 X18.3943 Y38.8083 
G01 X18.2843 Y38.6982 
G01 X18.1979 Y38.5689 
G01 X18.1383 Y38.4251 
G01 X18.1080 Y38.2725 
G01 X18.1080 Y36.7961 
G01 X18.1383 Y36.6435 
G01 X18.1979 Y36.4997 
G01 X18.2843 Y36.3703 
G01 X18.3943 Y36.2603 
G01 X18.5237 Y36.1739 
G01 X18.6675 Y36.1143 
G01 X18.8201 Y36.0840 
G01 X18.9757 Y36.0840 
G01 X19.1283 Y36.1143 
G01 X19.2721 Y36.1739 
G01 X19.4014 Y36.2603 
G01 X19.5115 Y36.3703 
G01 X19.5979 Y36.4997 
G01 X19.6575 Y36.6435 
G01 X19.6878 Y36.7961 
G00 Z0.5080 
G00 X22.2278 Y36.7961 
G01 Z-0.2540 F254.00 
G01 X22.2278 Y38.2725 
G01 X22.1975 Y38.4251 
G01 X22.1379 Y38.5689 
G01 X22.0515 Y38.6982 
G01 X21.9414 Y38.8083 
G01 X21.8121 Y38.8947 
G01 X21.6683 Y38.9543 
G01 X21.5157 Y38.9846 
G01 X21.3601 Y38.9846 
G01 X21.2075 Y38.9543 
G01 X21.0637 Y38.8947 
G01 X20.9343 Y38.8083 
G01 X20.8243 Y38.6982 
G01 X20.7379 Y38.5689 
G01 X20.6783 Y38.4251 
G01 X20.6480 Y38.2725 
G01 X20.6480 Y36.7961 
G01 X20.6783 Y36.6435 
G01 X20.7379 Y36.4997 
G01 X20.8243 Y36.3703 
G01 X20.9343 Y36.2603 
G01 X21.0637 Y36.1739 
G01 X21.2075 Y36.1143 
G01 X21.3601 Y36.0840 
G01 X21.5157 Y36.0840 
G01 X21.6683 Y36.1143 
G01 X21.8121 Y36.1739 
G01 X21.9414 Y36.2603 
G01 X22.0515 Y36.3703 
G01 X22.1379 Y36.4997 
G01 X22.1975 Y36.6435 
G01 X22.2278 Y36.7961 
G00 Z0.5080 
G00 X24.7678 Y36.7961 
G01 Z-0.2540 F254.00 
G01 X24.7678 Y38.2725 
G01 X24.7375 Y38.4251 
G01 X24.6779 Y38.5689 
G01 X24.5915 Y38.6982 
G01 X24.4814 Y38.8083 
G01 X24.3521 Y38.8947 
G01 X24.2083 Y38.9543 
G01 X24.0557 Y38.9846 
G01 X23.9001 Y38.9846 
G01 X23.7475 Y38.9543 
G01 X23.6037 Y38.8947 
G01 X23.4743 Y38.8083 
G01 X23.3643 Y38.6982 
G01 X23.2779 Y38.5689 
G01 X23.2183 Y38.4251 
G01 X23.1880 Y38.2725 
G01 X23.1880 Y36.7961 
G01 X23.2183 Y36.6435 
G01 X23.2779 Y36.4997 
G01 X23.3643 Y36.3703 
G01 X23.4743 Y36.2603 
G01 X23.6037 Y36.1739 
G01 X23.7475 Y36.1143 
G01 X23.9001 Y36.0840 
G01 X24.0557 Y36.0840 
G01 X24.2083 Y36.1143 
G01 X24.3521 Y36.1739 
G01 X24.4814 Y36.2603 
G01 X24.5915 Y36.3703 
G01 X24.6779 Y36.4997 
G01 X24.7375 Y36.6435 
G01 X24.7678 Y36.7961 
G00 Z0.5080 
G00 X27.3078 Y36.7961 
G01 Z-0.2540 F254.00 
G01 X27.3078 Y38.2725 
G01 X27.2775 Y38.4251 
G01 X27.2179 Y38.5689 
G01 X27.1315 Y38.6982 
G01 X27.0214 Y38.8083 
G01 X26.8921 Y38.8947 
G01 X26.7483 Y38.9543 
G01 X26.5957 Y38.9846 
G01 X26.4401 Y38.9846 
G01 X26.2875 Y38.9543 
G01 X26.1437 Y38.8947 
G01 X26.0143 Y38.8083 
G01 X25.9043 Y38.6982 
G01 X25.8179 Y38.5689 
G01 X25.7583 Y38.4251 
G01 X25.7279 Y38.2725 
G01 X25.7279 Y36.7961 
G01 X25.7583 Y36.6435 
G01 X25.8179 Y36.4997 
G01 X25.9043 Y36.3703 
G01 X26.0143 Y36.2603 
G01 X26.1437 Y36.1739 
G01 X26.2875 Y36.1143 
G01 X26.4401 Y36.0840 
G01 X26.5957 Y36.0840 
G01 X26.7483 Y36.1143 
G01 X26.8921 Y36.1739 
G01 X27.0214 Y36.2603 
G01 X27.1315 Y36.3703 
G01 X27.2179 Y36.4997 
G01 X27.2775 Y36.6435 
G01 X27.3078 Y36.7961 
G00 Z0.5080 
G00 X29.8478 Y36.7961 
G01 Z-0.2540 F254.00 
G01 X29.8478 Y38.2725 
G01 X29.8175 Y38.4251 
G01 X29.7579 Y38.5689 
G01 X29.6715 Y38.6982 
G01 X29.5614 Y38.8083 
G01 X29.4321 Y38.8947 
G01 X29.2883 Y38.9543 
G01 X29.1357 Y38.9846 
G01 X28.9801 Y38.9846 
G01 X28.8275 Y38.9543 
G01 X28.6837 Y38.8947 
G01 X28.5543 Y38.8083 
G01 X28.4443 Y38.6982 
G01 X28.3579 Y38.5689 
G01 X28.2983 Y38.4251 
G01 X28.2680 Y38.2725 
G01 X28.2680 Y36.7961 
G01 X28.2983 Y36.6435 
G01 X28.3579 Y36.4997 
G01 X28.4443 Y36.3703 
G01 X28.5543 Y36.2603 
G01 X28.6837 Y36.1739 
G01 X28.8275 Y36.1143 
G01 X28.9801 Y36.0840 
G01 X29.1357 Y36.0840 
G01 X29.2883 Y36.1143 
G01 X29.4321 Y36.1739 
G01 X29.5614 Y36.2603 
G01 X29.6715 Y36.3703 
G01 X29.7579 Y36.4997 
G01 X29.8175 Y36.6435 
G01 X29.8478 Y36.7961 
G00 Z0.5080 
G00 X32.3878 Y36.7961 
G01 Z-0.2540 F254.00 
G01 X32.3878 Y38.2725 
G01 X32.3575 Y38.4251 
G01 X32.2979 Y38.5689 
G01 X32.2115 Y38.6982 
G01 X32.1014 Y38.8083 
G01 X31.9721 Y38.8947 
G01 X31.8283 Y38.9543 
G01 X31.6757 Y38.9846 
G01 X31.5201 Y38.9846 
G01 X31.3675 Y38.9543 
G01 X31.2237 Y38.8947 
G01 X31.0943 Y38.8083 
G01 X30.9843 Y38.6982 
G01 X30.8979 Y38.5689 
G01 X30.8383 Y38.4251 
G01 X30.8080 Y38.2725 
G01 X30.8080 Y36.7961 
G01 X30.8383 Y36.6435 
G01 X30.8979 Y36.4997 
G01 X30.9843 Y36.3703 
G01 X31.0943 Y36.2603 
G01 X31.2237 Y36.1739 
G01 X31.3675 Y36.1143 
G01 X31.5201 Y36.0840 
G01 X31.6757 Y36.0840 
G01 X31.8283 Y36.1143 
G01 X31.9721 Y36.1739 
G01 X32.1014 Y36.2603 
G01 X32.2115 Y36.3703 
G01 X32.2979 Y36.4997 
G01 X32.3575 Y36.6435 
G01 X32.3878 Y36.7961 
G00 Z0.5080 
G00 X34.9278 Y36.7961 
G01 Z-0.2540 F254.00 
G01 X34.9278 Y38.2725 
G01 X34.8975 Y38.4251 
G01 X34.8379 Y38.5689 
G01 X34.7515 Y38.6982 
G01 X34.6414 Y38.8083 
G01 X34.5121 Y38.8947 
G01 X34.3683 Y38.9543 
G01 X34.2157 Y38.9846 
G01 X34.0601 Y38.9846 
G01 X33.9075 Y38.9543 
G01 X33.7637 Y38.8947 
G01 X33.6343 Y38.8083 
G01 X33.5243 Y38.6982 
G01 X33.4379 Y38.5689 
G01 X33.3783 Y38.4251 
G01 X33.3480 Y38.2725 
G01 X33.3480 Y36.7961 
G01 X33.3783 Y36.6435 
G01 X33.4379 Y36.4997 
G01 X33.5243 Y36.3703 
G01 X33.6343 Y36.2603 
G01 X33.7637 Y36.1739 
G01 X33.9075 Y36.1143 
G01 X34.0601 Y36.0840 
G01 X34.2157 Y36.0840 
G01 X34.3683 Y36.1143 
G01 X34.5121 Y36.1739 
G01 X34.6414 Y36.2603 
G01 X34.7515 Y36.3703 
G01 X34.8379 Y36.4997 
G01 X34.8975 Y36.6435 
G01 X34.9278 Y36.7961 
G00 Z0.5080 
G00 X37.4678 Y36.7961 
G01 Z-0.2540 F254.00 
G01 X37.4678 Y38.2725 
G01 X37.4375 Y38.4251 
G01 X37.3779 Y38.5689 
G01 X37.2915 Y38.6982 
G01 X37.1814 Y38.8083 
G01 X37.0521 Y38.8947 
G01 X36.9083 Y38.9543 
G01 X36.7557 Y38.9846 
G01 X36.6001 Y38.9846 
G01 X36.4475 Y38.9543 
G01 X36.3037 Y38.8947 
G01 X36.1743 Y38.8083 
G01 X36.0643 Y38.6982 
G01 X35.9779 Y38.5689 
G01 X35.9183 Y38.4251 
G01 X35.8880 Y38.2725 
G01 X35.8880 Y36.7961 
G01 X35.9183 Y36.6435 
G01 X35.9779 Y36.4997 
G01 X36.0643 Y36.3703 
G01 X36.1743 Y36.2603 
G01 X36.3037 Y36.1739 
G01 X36.4475 Y36.1143 
G01 X36.6001 Y36.0840 
G01 X36.7557 Y36.0840 
G01 X36.9083 Y36.1143 
G01 X37.0521 Y36.1739 
G01 X37.1814 Y36.2603 
G01 X37.2915 Y36.3703 
G01 X37.3779 Y36.4997 
G01 X37.4375 Y36.6435 
G01 X37.4678 Y36.7961 
G00 Z0.5080 
G00 X7.8656 Y47.5671 
G01 Z-0.2540 F254.00 
G01 X7.8656 Y48.2636 
G01 X7.3731 Y48.7561 
G01 X6.6766 Y48.7561 
G01 X6.1841 Y48.2636 
G01 X6.1841 Y47.5671 
G01 X6.6766 Y47.0746 
G01 X7.3731 Y47.0746 
G01 X7.8656 Y47.5671 
G00 Z0.5080 
G00 X5.8336 Y47.8325 
G01 Z-0.2540 F254.00 
G01 X5.8336 Y47.9981 
G01 X5.8013 Y48.1606 
G01 X5.7379 Y48.3136 
G01 X5.6459 Y48.4513 
G01 X5.5288 Y48.5684 
G01 X5.3911 Y48.6604 
G01 X5.2381 Y48.7238 
G01 X5.0756 Y48.7561 
G01 X4.9100 Y48.7561 
G01 X4.7476 Y48.7238 
G01 X4.5946 Y48.6604 
G01 X4.4569 Y48.5684 
G01 X4.3398 Y48.4513 
G01 X4.2478 Y48.3136 
G01 X4.1844 Y48.1606 
G01 X4.1521 Y47.9981 
G01 X4.1521 Y47.8325 
G01 X4.1844 Y47.6701 
G01 X4.2478 Y47.5171 
G01 X4.3398 Y47.3794 
G01 X4.4569 Y47.2623 
G01 X4.5946 Y47.1703 
G01 X4.7476 Y47.1069 
G01 X4.9100 Y47.0746 
G01 X5.0756 Y47.0746 
G01 X5.2381 Y47.1069 
G01 X5.3911 Y47.1703 
G01 X5.5288 Y47.2623 
G01 X5.6459 Y47.3794 
G01 X5.7379 Y47.5171 
G01 X5.8013 Y47.6701 
G01 X5.8336 Y47.8325 
G00 Z0.5080 
G00 X15.1809 Y47.7670 
G01 Z-0.2540 F254.00 
G01 X15.1809 Y48.4635 
G01 X14.6885 Y48.9560 
G01 X13.9920 Y48.9560 
G01 X13.4995 Y48.4635 
G01 X13.4995 Y47.7670 
G01 X13.9920 Y47.2745 
G01 X14.6885 Y47.2745 
G01 X15.1809 Y47.7670 
G00 Z0.5080 
G00 X13.1489 Y48.0325 
G01 Z-0.2540 F254.00 
G01 X13.1489 Y48.1981 
G01 X13.1166 Y48.3605 
G01 X13.0533 Y48.5135 
G01 X12.9613 Y48.6512 
G01 X12.8441 Y48.7683 
G01 X12.7064 Y48.8603 
G01 X12.5534 Y48.9237 
G01 X12.3910 Y48.9560 
G01 X12.2254 Y48.9560 
G01 X12.0630 Y48.9237 
G01 X11.9100 Y48.8603 
G01 X11.7723 Y48.7683 
G01 X11.6552 Y48.6512 
G01 X11.5632 Y48.5135 
G01 X11.4998 Y48.3605 
G01 X11.4675 Y48.1981 
G01 X11.4675 Y48.0325 
G01 X11.4998 Y47.8700 
G01 X11.5632 Y47.7170 
G01 X11.6552 Y47.5793 
G01 X11.7723 Y47.4622 
G01 X11.9100 Y47.3702 
G01 X12.0630 Y47.3068 
G01 X12.2254 Y47.2745 
G01 X12.3910 Y47.2745 
G01 X12.5534 Y47.3068 
G01 X12.7064 Y47.3702 
G01 X12.8441 Y47.4622 
G01 X12.9613 Y47.5793 
G01 X13.0533 Y47.7170 
G01 X13.1166 Y47.8700 
G01 X13.1489 Y48.0325 
G00 Z0.5080 
G00 X37.6107 Y32.8720 
G01 Z-0.2540 F254.00 
G01 X37.6107 Y34.4600 
G01 X37.5784 Y34.6224 
G01 X37.5150 Y34.7754 
G01 X37.4230 Y34.9131 
G01 X37.3059 Y35.0302 
G01 X37.1682 Y35.1223 
G01 X37.0152 Y35.1856 
G01 X36.8528 Y35.2179 
G01 X36.6872 Y35.2179 
G01 X36.5247 Y35.1856 
G01 X36.3717 Y35.1223 
G01 X36.2340 Y35.0302 
G01 X36.1169 Y34.9131 
G01 X36.0249 Y34.7754 
G01 X35.9615 Y34.6224 
G01 X35.9292 Y34.4600 
G01 X35.9292 Y32.8720 
G01 X35.9615 Y32.7096 
G01 X36.0249 Y32.5566 
G01 X36.1169 Y32.4189 
G01 X36.2340 Y32.3017 
G01 X36.3717 Y32.2097 
G01 X36.5247 Y32.1464 
G01 X36.6872 Y32.1141 
G01 X36.8528 Y32.1141 
G01 X37.0152 Y32.1464 
G01 X37.1682 Y32.2097 
G01 X37.3059 Y32.3017 
G01 X37.4230 Y32.4189 
G01 X37.5150 Y32.5566 
G01 X37.5784 Y32.7096 
G01 X37.6107 Y32.8720 
G00 Z0.5080 
G00 X35.0707 Y32.8720 
G01 Z-0.2540 F254.00 
G01 X35.0707 Y34.4600 
G01 X35.0384 Y34.6224 
G01 X34.9750 Y34.7754 
G01 X34.8830 Y34.9131 
G01 X34.7659 Y35.0302 
G01 X34.6282 Y35.1223 
G01 X34.4752 Y35.1856 
G01 X34.3128 Y35.2179 
G01 X34.1472 Y35.2179 
G01 X33.9847 Y35.1856 
G01 X33.8317 Y35.1223 
G01 X33.6940 Y35.0302 
G01 X33.5769 Y34.9131 
G01 X33.4849 Y34.7754 
G01 X33.4215 Y34.6224 
G01 X33.3892 Y34.4600 
G01 X33.3892 Y32.8720 
G01 X33.4215 Y32.7096 
G01 X33.4849 Y32.5566 
G01 X33.5769 Y32.4189 
G01 X33.6940 Y32.3017 
G01 X33.8317 Y32.2097 
G01 X33.9847 Y32.1464 
G01 X34.1472 Y32.1141 
G01 X34.3128 Y32.1141 
G01 X34.4752 Y32.1464 
G01 X34.6282 Y32.2097 
G01 X34.7659 Y32.3017 
G01 X34.8830 Y32.4189 
G01 X34.9750 Y32.5566 
G01 X35.0384 Y32.7096 
G01 X35.0707 Y32.8720 
G00 Z0.5080 
G00 X32.5307 Y32.8720 
G01 Z-0.2540 F254.00 
G01 X32.5307 Y34.4600 
G01 X32.4984 Y34.6224 
G01 X32.4350 Y34.7754 
G01 X32.3430 Y34.9131 
G01 X32.2259 Y35.0302 
G01 X32.0882 Y35.1223 
G01 X31.9352 Y35.1856 
G01 X31.7728 Y35.2179 
G01 X31.6072 Y35.2179 
G01 X31.4447 Y35.1856 
G01 X31.2917 Y35.1223 
G01 X31.1540 Y35.0302 
G01 X31.0369 Y34.9131 
G01 X30.9449 Y34.7754 
G01 X30.8815 Y34.6224 
G01 X30.8492 Y34.4600 
G01 X30.8492 Y32.8720 
G01 X30.8815 Y32.7096 
G01 X30.9449 Y32.5566 
G01 X31.0369 Y32.4189 
G01 X31.1540 Y32.3017 
G01 X31.2917 Y32.2097 
G01 X31.4447 Y32.1464 
G01 X31.6072 Y32.1141 
G01 X31.7728 Y32.1141 
G01 X31.9352 Y32.1464 
G01 X32.0882 Y32.2097 
G01 X32.2259 Y32.3017 
G01 X32.3430 Y32.4189 
G01 X32.4350 Y32.5566 
G01 X32.4984 Y32.7096 
G01 X32.5307 Y32.8720 
G00 Z0.5080 
G00 X29.9907 Y32.8720 
G01 Z-0.2540 F254.00 
G01 X29.9907 Y34.4600 
G01 X29.9584 Y34.6224 
G01 X29.8950 Y34.7754 
G01 X29.8030 Y34.9131 
G01 X29.6859 Y35.0302 
G01 X29.5482 Y35.1223 
G01 X29.3952 Y35.1856 
G01 X29.2328 Y35.2179 
G01 X29.0672 Y35.2179 
G01 X28.9047 Y35.1856 
G01 X28.7517 Y35.1223 
G01 X28.6140 Y35.0302 
G01 X28.4969 Y34.9131 
G01 X28.4049 Y34.7754 
G01 X28.3415 Y34.6224 
G01 X28.3092 Y34.4600 
G01 X28.3092 Y32.8720 
G01 X28.3415 Y32.7096 
G01 X28.4049 Y32.5566 
G01 X28.4969 Y32.4189 
G01 X28.6140 Y32.3017 
G01 X28.7517 Y32.2097 
G01 X28.9047 Y32.1464 
G01 X29.0672 Y32.1141 
G01 X29.2328 Y32.1141 
G01 X29.3952 Y32.1464 
G01 X29.5482 Y32.2097 
G01 X29.6859 Y32.3017 
G01 X29.8030 Y32.4189 
G01 X29.8950 Y32.5566 
G01 X29.9584 Y32.7096 
G01 X29.9907 Y32.8720 
G00 Z0.5080 
G00 X27.4507 Y32.8720 
G01 Z-0.2540 F254.00 
G01 X27.4507 Y34.4600 
G01 X27.4184 Y34.6224 
G01 X27.3550 Y34.7754 
G01 X27.2630 Y34.9131 
G01 X27.1459 Y35.0302 
G01 X27.0082 Y35.1223 
G01 X26.8552 Y35.1856 
G01 X26.6928 Y35.2179 
G01 X26.5272 Y35.2179 
G01 X26.3647 Y35.1856 
G01 X26.2117 Y35.1223 
G01 X26.0740 Y35.0302 
G01 X25.9569 Y34.9131 
G01 X25.8649 Y34.7754 
G01 X25.8015 Y34.6224 
G01 X25.7692 Y34.4600 
G01 X25.7692 Y32.8720 
G01 X25.8015 Y32.7096 
G01 X25.8649 Y32.5566 
G01 X25.9569 Y32.4189 
G01 X26.0740 Y32.3017 
G01 X26.2117 Y32.2097 
G01 X26.3647 Y32.1464 
G01 X26.5272 Y32.1141 
G01 X26.6928 Y32.1141 
G01 X26.8552 Y32.1464 
G01 X27.0082 Y32.2097 
G01 X27.1459 Y32.3017 
G01 X27.2630 Y32.4189 
G01 X27.3550 Y32.5566 
G01 X27.4184 Y32.7096 
G01 X27.4507 Y32.8720 
G00 Z0.5080 
G00 X22.3707 Y32.8720 
G01 Z-0.2540 F254.00 
G01 X22.3707 Y34.4600 
G01 X22.3384 Y34.6224 
G01 X22.2750 Y34.7754 
G01 X22.1830 Y34.9131 
G01 X22.0659 Y35.0302 
G01 X21.9282 Y35.1223 
G01 X21.7752 Y35.1856 
G01 X21.6128 Y35.2179 
G01 X21.4472 Y35.2179 
G01 X21.2847 Y35.1856 
G01 X21.1317 Y35.1223 
G01 X20.9940 Y35.0302 
G01 X20.8769 Y34.9131 
G01 X20.7849 Y34.7754 
G01 X20.7215 Y34.6224 
G01 X20.6892 Y34.4600 
G01 X20.6892 Y32.8720 
G01 X20.7215 Y32.7096 
G01 X20.7849 Y32.5566 
G01 X20.8769 Y32.4189 
G01 X20.9940 Y32.3017 
G01 X21.1317 Y32.2097 
G01 X21.2847 Y32.1464 
G01 X21.4472 Y32.1141 
G01 X21.6128 Y32.1141 
G01 X21.7752 Y32.1464 
G01 X21.9282 Y32.2097 
G01 X22.0659 Y32.3017 
G01 X22.1830 Y32.4189 
G01 X22.2750 Y32.5566 
G01 X22.3384 Y32.7096 
G01 X22.3707 Y32.8720 
G00 Z0.5080 
G00 X24.9107 Y32.8720 
G01 Z-0.2540 F254.00 
G01 X24.9107 Y34.4600 
G01 X24.8784 Y34.6224 
G01 X24.8150 Y34.7754 
G01 X24.7230 Y34.9131 
G01 X24.6059 Y35.0302 
G01 X24.4682 Y35.1223 
G01 X24.3152 Y35.1856 
G01 X24.1528 Y35.2179 
G01 X23.9872 Y35.2179 
G01 X23.8247 Y35.1856 
G01 X23.6717 Y35.1223 
G01 X23.5340 Y35.0302 
G01 X23.4169 Y34.9131 
G01 X23.3249 Y34.7754 
G01 X23.2615 Y34.6224 
G01 X23.2292 Y34.4600 
G01 X23.2292 Y32.8720 
G01 X23.2615 Y32.7096 
G01 X23.3249 Y32.5566 
G01 X23.4169 Y32.4189 
G01 X23.5340 Y32.3017 
G01 X23.6717 Y32.2097 
G01 X23.8247 Y32.1464 
G01 X23.9872 Y32.1141 
G01 X24.1528 Y32.1141 
G01 X24.3152 Y32.1464 
G01 X24.4682 Y32.2097 
G01 X24.6059 Y32.3017 
G01 X24.7230 Y32.4189 
G01 X24.8150 Y32.5566 
G01 X24.8784 Y32.7096 
G01 X24.9107 Y32.8720 
G00 Z0.5080 
G00 X19.8307 Y32.8720 
G01 Z-0.2540 F254.00 
G01 X19.8307 Y34.4600 
G01 X19.7984 Y34.6224 
G01 X19.7350 Y34.7754 
G01 X19.6430 Y34.9131 
G01 X19.5259 Y35.0302 
G01 X19.3882 Y35.1223 
G01 X19.2352 Y35.1856 
G01 X19.0728 Y35.2179 
G01 X18.9072 Y35.2179 
G01 X18.7447 Y35.1856 
G01 X18.5917 Y35.1223 
G01 X18.4540 Y35.0302 
G01 X18.3369 Y34.9131 
G01 X18.2449 Y34.7754 
G01 X18.1815 Y34.6224 
G01 X18.1492 Y34.4600 
G01 X18.1492 Y32.8720 
G01 X18.1815 Y32.7096 
G01 X18.2449 Y32.5566 
G01 X18.3369 Y32.4189 
G01 X18.4540 Y32.3017 
G01 X18.5917 Y32.2097 
G01 X18.7447 Y32.1464 
G01 X18.9072 Y32.1141 
G01 X19.0728 Y32.1141 
G01 X19.2352 Y32.1464 
G01 X19.3882 Y32.2097 
G01 X19.5259 Y32.3017 
G01 X19.6430 Y32.4189 
G01 X19.7350 Y32.5566 
G01 X19.7984 Y32.7096 
G01 X19.8307 Y32.8720 
G00 Z0.5080 
G00 X4.0575 Y43.0592 
G01 Z-0.2540 F254.00 
G01 X4.0575 Y41.4712 
G01 X4.0898 Y41.3087 
G01 X4.1532 Y41.1557 
G01 X4.2452 Y41.0180 
G01 X4.3623 Y40.9009 
G01 X4.5000 Y40.8089 
G01 X4.6530 Y40.7456 
G01 X4.8154 Y40.7132 
G01 X4.9811 Y40.7132 
G01 X5.1435 Y40.7456 
G01 X5.2965 Y40.8089 
G01 X5.4342 Y40.9009 
G01 X5.5513 Y41.0180 
G01 X5.6433 Y41.1557 
G01 X5.7067 Y41.3087 
G01 X5.7390 Y41.4712 
G01 X5.7390 Y43.0592 
G01 X5.7067 Y43.2216 
G01 X5.6433 Y43.3746 
G01 X5.5513 Y43.5123 
G01 X5.4342 Y43.6294 
G01 X5.2965 Y43.7214 
G01 X5.1435 Y43.7848 
G01 X4.9811 Y43.8171 
G01 X4.8154 Y43.8171 
G01 X4.6530 Y43.7848 
G01 X4.5000 Y43.7214 
G01 X4.3623 Y43.6294 
G01 X4.2452 Y43.5123 
G01 X4.1532 Y43.3746 
G01 X4.0898 Y43.2216 
G01 X4.0575 Y43.0592 
G00 Z0.5080 
G00 X6.5975 Y43.0592 
G01 Z-0.2540 F254.00 
G01 X6.5975 Y41.4712 
G01 X6.6298 Y41.3087 
G01 X6.6932 Y41.1557 
G01 X6.7852 Y41.0180 
G01 X6.9023 Y40.9009 
G01 X7.0400 Y40.8089 
G01 X7.1930 Y40.7456 
G01 X7.3554 Y40.7132 
G01 X7.5211 Y40.7132 
G01 X7.6835 Y40.7456 
G01 X7.8365 Y40.8089 
G01 X7.9742 Y40.9009 
G01 X8.0913 Y41.0180 
G01 X8.1833 Y41.1557 
G01 X8.2467 Y41.3087 
G01 X8.2790 Y41.4712 
G01 X8.2790 Y43.0592 
G01 X8.2467 Y43.2216 
G01 X8.1833 Y43.3746 
G01 X8.0913 Y43.5123 
G01 X7.9742 Y43.6294 
G01 X7.8365 Y43.7214 
G01 X7.6835 Y43.7848 
G01 X7.5211 Y43.8171 
G01 X7.3554 Y43.8171 
G01 X7.1930 Y43.7848 
G01 X7.0400 Y43.7214 
G01 X6.9023 Y43.6294 
G01 X6.7852 Y43.5123 
G01 X6.6932 Y43.3746 
G01 X6.6298 Y43.2216 
G01 X6.5975 Y43.0592 
G00 Z0.5080 
G00 X43.3784 Y48.3203 
G01 Z-0.2540 F254.00 
G01 X43.3784 Y49.9083 
G01 X43.3461 Y50.0708 
G01 X43.2827 Y50.2238 
G01 X43.1907 Y50.3615 
G01 X43.0736 Y50.4786 
G01 X42.9359 Y50.5706 
G01 X42.7829 Y50.6340 
G01 X42.6205 Y50.6663 
G01 X42.4549 Y50.6663 
G01 X42.2924 Y50.6340 
G01 X42.1394 Y50.5706 
G01 X42.0017 Y50.4786 
G01 X41.8846 Y50.3615 
G01 X41.7926 Y50.2238 
G01 X41.7292 Y50.0708 
G01 X41.6969 Y49.9083 
G01 X41.6969 Y48.3203 
G01 X41.7292 Y48.1579 
G01 X41.7926 Y48.0049 
G01 X41.8846 Y47.8672 
G01 X42.0017 Y47.7501 
G01 X42.1394 Y47.6581 
G01 X42.2924 Y47.5947 
G01 X42.4549 Y47.5624 
G01 X42.6205 Y47.5624 
G01 X42.7829 Y47.5947 
G01 X42.9359 Y47.6581 
G01 X43.0736 Y47.7501 
G01 X43.1907 Y47.8672 
G01 X43.2827 Y48.0049 
G01 X43.3461 Y48.1579 
G01 X43.3784 Y48.3203 
G00 Z0.5080 
G00 X40.8384 Y48.3203 
G01 Z-0.2540 F254.00 
G01 X40.8384 Y49.9083 
G01 X40.8061 Y50.0708 
G01 X40.7427 Y50.2238 
G01 X40.6507 Y50.3615 
G01 X40.5336 Y50.4786 
G01 X40.3959 Y50.5706 
G01 X40.2429 Y50.6340 
G01 X40.0805 Y50.6663 
G01 X39.9149 Y50.6663 
G01 X39.7524 Y50.6340 
G01 X39.5994 Y50.5706 
G01 X39.4617 Y50.4786 
G01 X39.3446 Y50.3615 
G01 X39.2526 Y50.2238 
G01 X39.1892 Y50.0708 
G01 X39.1569 Y49.9083 
G01 X39.1569 Y48.3203 
G01 X39.1892 Y48.1579 
G01 X39.2526 Y48.0049 
G01 X39.3446 Y47.8672 
G01 X39.4617 Y47.7501 
G01 X39.5994 Y47.6581 
G01 X39.7524 Y47.5947 
G01 X39.9149 Y47.5624 
G01 X40.0805 Y47.5624 
G01 X40.2429 Y47.5947 
G01 X40.3959 Y47.6581 
G01 X40.5336 Y47.7501 
G01 X40.6507 Y47.8672 
G01 X40.7427 Y48.0049 
G01 X40.8061 Y48.1579 
G01 X40.8384 Y48.3203 
G00 Z0.5080 
G00 X6.2751 Y51.3087 
G01 Z-0.2540 F254.00 
G01 X6.2751 Y51.5010 
G01 X6.2450 Y51.6909 
G01 X6.1856 Y51.8738 
G01 X6.0983 Y52.0452 
G01 X5.9853 Y52.2008 
G01 X5.8493 Y52.3367 
G01 X5.6937 Y52.4498 
G01 X5.5224 Y52.5371 
G01 X5.3395 Y52.5965 
G01 X5.1495 Y52.6266 
G01 X4.9572 Y52.6266 
G01 X4.7673 Y52.5965 
G01 X4.5844 Y52.5371 
G01 X4.4130 Y52.4498 
G01 X4.2575 Y52.3367 
G01 X4.1215 Y52.2008 
G01 X4.0084 Y52.0452 
G01 X3.9211 Y51.8738 
G01 X3.8617 Y51.6909 
G01 X3.8316 Y51.5010 
G01 X3.8316 Y51.3087 
G01 X3.8617 Y51.1188 
G01 X3.9211 Y50.9359 
G01 X4.0084 Y50.7645 
G01 X4.1215 Y50.6089 
G01 X4.2575 Y50.4730 
G01 X4.4130 Y50.3599 
G01 X4.5844 Y50.2726 
G01 X4.7673 Y50.2132 
G01 X4.9572 Y50.1831 
G01 X5.1495 Y50.1831 
G01 X5.3395 Y50.2132 
G01 X5.5224 Y50.2726 
G01 X5.6937 Y50.3599 
G01 X5.8493 Y50.4730 
G01 X5.9853 Y50.6089 
G01 X6.0983 Y50.7645 
G01 X6.1856 Y50.9359 
G01 X6.2450 Y51.1188 
G01 X6.2751 Y51.3087 
G00 Z0.5080 
G00 X6.2751 Y61.4687 
G01 Z-0.2540 F254.00 
G01 X6.2751 Y61.6610 
G01 X6.2450 Y61.8509 
G01 X6.1856 Y62.0338 
G01 X6.0983 Y62.2052 
G01 X5.9853 Y62.3608 
G01 X5.8493 Y62.4967 
G01 X5.6937 Y62.6098 
G01 X5.5224 Y62.6971 
G01 X5.3395 Y62.7565 
G01 X5.1495 Y62.7866 
G01 X4.9572 Y62.7866 
G01 X4.7673 Y62.7565 
G01 X4.5844 Y62.6971 
G01 X4.4130 Y62.6098 
G01 X4.2575 Y62.4967 
G01 X4.1215 Y62.3608 
G01 X4.0084 Y62.2052 
G01 X3.9211 Y62.0338 
G01 X3.8617 Y61.8509 
G01 X3.8316 Y61.6610 
G01 X3.8316 Y61.4687 
G01 X3.8617 Y61.2788 
G01 X3.9211 Y61.0959 
G01 X4.0084 Y60.9245 
G01 X4.1215 Y60.7689 
G01 X4.2575 Y60.6330 
G01 X4.4130 Y60.5199 
G01 X4.5844 Y60.4326 
G01 X4.7673 Y60.3732 
G01 X4.9572 Y60.3431 
G01 X5.1495 Y60.3431 
G01 X5.3395 Y60.3732 
G01 X5.5224 Y60.4326 
G01 X5.6937 Y60.5199 
G01 X5.8493 Y60.6330 
G01 X5.9853 Y60.7689 
G01 X6.0983 Y60.9245 
G01 X6.1856 Y61.0959 
G01 X6.2450 Y61.2788 
G01 X6.2751 Y61.4687 
G00 Z0.5080 
G00 X9.2841 Y56.2808 
G01 Z-0.2540 F254.00 
G01 X7.6711 Y56.2808 
G01 X7.4841 Y56.2436 
G01 X7.3080 Y56.1707 
G01 X7.1495 Y56.0648 
G01 X7.0147 Y55.9300 
G01 X6.9088 Y55.7715 
G01 X6.8358 Y55.5954 
G01 X6.7986 Y55.4084 
G01 X6.7986 Y55.2178 
G01 X6.8358 Y55.0308 
G01 X6.9088 Y54.8547 
G01 X7.0147 Y54.6962 
G01 X7.1495 Y54.5614 
G01 X7.3080 Y54.4555 
G01 X7.4841 Y54.3825 
G01 X7.6711 Y54.3453 
G01 X9.2841 Y54.3453 
G01 X9.4711 Y54.3825 
G01 X9.6472 Y54.4555 
G01 X9.8057 Y54.5614 
G01 X9.9405 Y54.6962 
G01 X10.0464 Y54.8547 
G01 X10.1193 Y55.0308 
G01 X10.1565 Y55.2178 
G01 X10.1565 Y55.4084 
G01 X10.1193 Y55.5954 
G01 X10.0464 Y55.7715 
G01 X9.9405 Y55.9300 
G01 X9.8057 Y56.0648 
G01 X9.6472 Y56.1707 
G01 X9.4711 Y56.2436 
G01 X9.2841 Y56.2808 
G00 Z0.5080 
G00 X9.2841 Y58.8208 
G01 Z-0.2540 F254.00 
G01 X7.6711 Y58.8208 
G01 X7.4841 Y58.7836 
G01 X7.3080 Y58.7107 
G01 X7.1495 Y58.6048 
G01 X7.0147 Y58.4700 
G01 X6.9088 Y58.3115 
G01 X6.8358 Y58.1354 
G01 X6.7986 Y57.9484 
G01 X6.7986 Y57.7578 
G01 X6.8358 Y57.5708 
G01 X6.9088 Y57.3947 
G01 X7.0147 Y57.2362 
G01 X7.1495 Y57.1014 
G01 X7.3080 Y56.9955 
G01 X7.4841 Y56.9225 
G01 X7.6711 Y56.8853 
G01 X9.2841 Y56.8853 
G01 X9.4711 Y56.9225 
G01 X9.6472 Y56.9955 
G01 X9.8057 Y57.1014 
G01 X9.9405 Y57.2362 
G01 X10.0464 Y57.3947 
G01 X10.1193 Y57.5708 
G01 X10.1565 Y57.7578 
G01 X10.1565 Y57.9484 
G01 X10.1193 Y58.1354 
G01 X10.0464 Y58.3115 
G01 X9.9405 Y58.4700 
G01 X9.8057 Y58.6048 
G01 X9.6472 Y58.7107 
G01 X9.4711 Y58.7836 
G01 X9.2841 Y58.8208 
G00 Z0.5080 
G00 X43.9716 Y61.8028 
G01 Z-0.2540 F254.00 
G01 X43.9716 Y60.1898 
G01 X44.0088 Y60.0028 
G01 X44.0817 Y59.8267 
G01 X44.1876 Y59.6682 
G01 X44.3224 Y59.5334 
G01 X44.4809 Y59.4275 
G01 X44.6570 Y59.3545 
G01 X44.8440 Y59.3173 
G01 X45.0346 Y59.3173 
G01 X45.2216 Y59.3545 
G01 X45.3977 Y59.4275 
G01 X45.5562 Y59.5334 
G01 X45.6910 Y59.6682 
G01 X45.7969 Y59.8267 
G01 X45.8699 Y60.0028 
G01 X45.9071 Y60.1898 
G01 X45.9071 Y61.8028 
G01 X45.8699 Y61.9897 
G01 X45.7969 Y62.1659 
G01 X45.6910 Y62.3244 
G01 X45.5562 Y62.4592 
G01 X45.3977 Y62.5651 
G01 X45.2216 Y62.6380 
G01 X45.0346 Y62.6752 
G01 X44.8440 Y62.6752 
G01 X44.6570 Y62.6380 
G01 X44.4809 Y62.5651 
G01 X44.3224 Y62.4592 
G01 X44.1876 Y62.3244 
G01 X44.0817 Y62.1659 
G01 X44.0088 Y61.9897 
G01 X43.9716 Y61.8028 
G00 Z0.5080 
G00 X41.4316 Y61.8028 
G01 Z-0.2540 F254.00 
G01 X41.4316 Y60.1898 
G01 X41.4688 Y60.0028 
G01 X41.5417 Y59.8267 
G01 X41.6476 Y59.6682 
G01 X41.7824 Y59.5334 
G01 X41.9409 Y59.4275 
G01 X42.1170 Y59.3545 
G01 X42.3040 Y59.3173 
G01 X42.4946 Y59.3173 
G01 X42.6816 Y59.3545 
G01 X42.8577 Y59.4275 
G01 X43.0162 Y59.5334 
G01 X43.1510 Y59.6682 
G01 X43.2569 Y59.8267 
G01 X43.3299 Y60.0028 
G01 X43.3670 Y60.1898 
G01 X43.3670 Y61.8028 
G01 X43.3299 Y61.9897 
G01 X43.2569 Y62.1659 
G01 X43.1510 Y62.3244 
G01 X43.0162 Y62.4592 
G01 X42.8577 Y62.5651 
G01 X42.6816 Y62.6380 
G01 X42.4946 Y62.6752 
G01 X42.3040 Y62.6752 
G01 X42.1170 Y62.6380 
G01 X41.9409 Y62.5651 
G01 X41.7824 Y62.4592 
G01 X41.6476 Y62.3244 
G01 X41.5417 Y62.1659 
G01 X41.4688 Y61.9897 
G01 X41.4316 Y61.8028 
G00 Z0.5080 
G00 X44.2171 Y72.1371 
G01 Z-0.2540 F254.00 
G01 X42.6041 Y72.1371 
G01 X42.4171 Y72.0999 
G01 X42.2410 Y72.0270 
G01 X42.0825 Y71.9211 
G01 X41.9477 Y71.7863 
G01 X41.8418 Y71.6278 
G01 X41.7688 Y71.4517 
G01 X41.7316 Y71.2647 
G01 X41.7316 Y71.0741 
G01 X41.7688 Y70.8871 
G01 X41.8418 Y70.7110 
G01 X41.9477 Y70.5525 
G01 X42.0825 Y70.4177 
G01 X42.2410 Y70.3118 
G01 X42.4171 Y70.2388 
G01 X42.6041 Y70.2017 
G01 X44.2171 Y70.2017 
G01 X44.4040 Y70.2388 
G01 X44.5802 Y70.3118 
G01 X44.7387 Y70.4177 
G01 X44.8735 Y70.5525 
G01 X44.9794 Y70.7110 
G01 X45.0523 Y70.8871 
G01 X45.0895 Y71.0741 
G01 X45.0895 Y71.2647 
G01 X45.0523 Y71.4517 
G01 X44.9794 Y71.6278 
G01 X44.8735 Y71.7863 
G01 X44.7387 Y71.9211 
G01 X44.5802 Y72.0270 
G01 X44.4040 Y72.0999 
G01 X44.2171 Y72.1371 
G00 Z0.5080 
G00 X44.2171 Y69.5971 
G01 Z-0.2540 F254.00 
G01 X42.6041 Y69.5971 
G01 X42.4171 Y69.5599 
G01 X42.2410 Y69.4870 
G01 X42.0825 Y69.3811 
G01 X41.9477 Y69.2463 
G01 X41.8418 Y69.0878 
G01 X41.7688 Y68.9117 
G01 X41.7316 Y68.7247 
G01 X41.7316 Y68.5341 
G01 X41.7688 Y68.3471 
G01 X41.8418 Y68.1710 
G01 X41.9477 Y68.0125 
G01 X42.0825 Y67.8777 
G01 X42.2410 Y67.7718 
G01 X42.4171 Y67.6988 
G01 X42.6041 Y67.6617 
G01 X44.2171 Y67.6617 
G01 X44.4040 Y67.6988 
G01 X44.5802 Y67.7718 
G01 X44.7387 Y67.8777 
G01 X44.8735 Y68.0125 
G01 X44.9794 Y68.1710 
G01 X45.0523 Y68.3471 
G01 X45.0895 Y68.5341 
G01 X45.0895 Y68.7247 
G01 X45.0523 Y68.9117 
G01 X44.9794 Y69.0878 
G01 X44.8735 Y69.2463 
G01 X44.7387 Y69.3811 
G01 X44.5802 Y69.4870 
G01 X44.4040 Y69.5599 
G01 X44.2171 Y69.5971 
G00 Z0.5080 
G00 X44.2171 Y67.0571 
G01 Z-0.2540 F254.00 
G01 X42.6041 Y67.0571 
G01 X42.4171 Y67.0199 
G01 X42.2410 Y66.9470 
G01 X42.0825 Y66.8411 
G01 X41.9477 Y66.7063 
G01 X41.8418 Y66.5478 
G01 X41.7688 Y66.3717 
G01 X41.7316 Y66.1847 
G01 X41.7316 Y65.9941 
G01 X41.7688 Y65.8071 
G01 X41.8418 Y65.6310 
G01 X41.9477 Y65.4725 
G01 X42.0825 Y65.3377 
G01 X42.2410 Y65.2318 
G01 X42.4171 Y65.1588 
G01 X42.6041 Y65.1217 
G01 X44.2171 Y65.1217 
G01 X44.4040 Y65.1588 
G01 X44.5802 Y65.2318 
G01 X44.7387 Y65.3377 
G01 X44.8735 Y65.4725 
G01 X44.9794 Y65.6310 
G01 X45.0523 Y65.8071 
G01 X45.0895 Y65.9941 
G01 X45.0895 Y66.1847 
G01 X45.0523 Y66.3717 
G01 X44.9794 Y66.5478 
G01 X44.8735 Y66.7063 
G01 X44.7387 Y66.8411 
G01 X44.5802 Y66.9470 
G01 X44.4040 Y67.0199 
G01 X44.2171 Y67.0571 
G00 Z0.5080 
G00 X7.5438 Y73.4225 
G01 Z-0.2540 F254.00 
G01 X5.3663 Y73.4225 
G01 X5.1724 Y73.3918 
G01 X4.9857 Y73.3311 
G01 X4.8108 Y73.2420 
G01 X4.6520 Y73.1266 
G01 X4.5132 Y72.9878 
G01 X4.3978 Y72.8290 
G01 X4.3087 Y72.6541 
G01 X4.2480 Y72.4674 
G01 X4.2173 Y72.2735 
G01 X4.2173 Y72.0772 
G01 X4.2480 Y71.8833 
G01 X4.3087 Y71.6966 
G01 X4.3978 Y71.5217 
G01 X4.5132 Y71.3629 
G01 X4.6520 Y71.2241 
G01 X4.8108 Y71.1087 
G01 X4.9857 Y71.0196 
G01 X5.1724 Y70.9589 
G01 X5.3663 Y70.9282 
G01 X7.5438 Y70.9282 
G01 X7.7377 Y70.9589 
G01 X7.9244 Y71.0196 
G01 X8.0993 Y71.1087 
G01 X8.2581 Y71.2241 
G01 X8.3969 Y71.3629 
G01 X8.5123 Y71.5217 
G01 X8.6014 Y71.6966 
G01 X8.6621 Y71.8833 
G01 X8.6928 Y72.0772 
G01 X8.6928 Y72.2735 
G01 X8.6621 Y72.4674 
G01 X8.6014 Y72.6541 
G01 X8.5123 Y72.8290 
G01 X8.3969 Y72.9878 
G01 X8.2581 Y73.1266 
G01 X8.0993 Y73.2420 
G01 X7.9244 Y73.3311 
G01 X7.7377 Y73.3918 
G01 X7.5438 Y73.4225 
G00 Z0.5080 
G00 X7.5438 Y68.3933 
G01 Z-0.2540 F254.00 
G01 X5.3663 Y68.3933 
G01 X5.1724 Y68.3626 
G01 X4.9857 Y68.3019 
G01 X4.8108 Y68.2128 
G01 X4.6520 Y68.0974 
G01 X4.5132 Y67.9586 
G01 X4.3978 Y67.7998 
G01 X4.3087 Y67.6249 
G01 X4.2480 Y67.4382 
G01 X4.2173 Y67.2443 
G01 X4.2173 Y67.0480 
G01 X4.2480 Y66.8541 
G01 X4.3087 Y66.6674 
G01 X4.3978 Y66.4925 
G01 X4.5132 Y66.3337 
G01 X4.6520 Y66.1949 
G01 X4.8108 Y66.0795 
G01 X4.9857 Y65.9904 
G01 X5.1724 Y65.9297 
G01 X5.3663 Y65.8990 
G01 X7.5438 Y65.8990 
G01 X7.7377 Y65.9297 
G01 X7.9244 Y65.9904 
G01 X8.0993 Y66.0795 
G01 X8.2581 Y66.1949 
G01 X8.3969 Y66.3337 
G01 X8.5123 Y66.4925 
G01 X8.6014 Y66.6674 
G01 X8.6621 Y66.8541 
G01 X8.6928 Y67.0480 
G01 X8.6928 Y67.2443 
G01 X8.6621 Y67.4382 
G01 X8.6014 Y67.6249 
G01 X8.5123 Y67.7998 
G01 X8.3969 Y67.9586 
G01 X8.2581 Y68.0974 
G01 X8.0993 Y68.2128 
G01 X7.9244 Y68.3019 
G01 X7.7377 Y68.3626 
G01 X7.5438 Y68.3933 
G00 Z0.5080 
G00 X13.4143 Y68.1055 
G01 Z-0.2540 F254.00 
G01 X13.4143 Y69.0545 
G01 X12.7432 Y69.7255 
G01 X11.7942 Y69.7255 
G01 X11.1232 Y69.0545 
G01 X11.1232 Y68.1055 
G01 X11.7942 Y67.4345 
G01 X12.7432 Y67.4345 
G01 X13.4143 Y68.1055 
G00 Z0.5080 
G00 X13.4143 Y70.1972 
G01 Z-0.2540 F254.00 
G01 X13.4143 Y72.0428 
G01 X13.3968 Y72.1080 
G01 X13.3630 Y72.1665 
G01 X13.3153 Y72.2143 
G01 X13.2568 Y72.2481 
G01 X13.1915 Y72.2655 
G01 X11.3460 Y72.2655 
G01 X11.2807 Y72.2481 
G01 X11.2222 Y72.2143 
G01 X11.1745 Y72.1665 
G01 X11.1407 Y72.1080 
G01 X11.1232 Y72.0428 
G01 X11.1232 Y70.1972 
G01 X11.1407 Y70.1320 
G01 X11.1745 Y70.0735 
G01 X11.2222 Y70.0257 
G01 X11.2807 Y69.9919 
G01 X11.3460 Y69.9745 
G01 X13.1915 Y69.9745 
G01 X13.2568 Y69.9919 
G01 X13.3153 Y70.0257 
G01 X13.3630 Y70.0735 
G01 X13.3968 Y70.1320 
G01 X13.4143 Y70.1972 
G00 Z0.5080 
G00 X13.4143 Y65.5655 
G01 Z-0.2540 F254.00 
G01 X13.4143 Y66.5145 
G01 X12.7432 Y67.1855 
G01 X11.7942 Y67.1855 
G01 X11.1232 Y66.5145 
G01 X11.1232 Y65.5655 
G01 X11.7942 Y64.8945 
G01 X12.7432 Y64.8945 
G01 X13.4143 Y65.5655 
G00 Z0.5080 
G00 X13.4143 Y63.0255 
G01 Z-0.2540 F254.00 
G01 X13.4143 Y63.9745 
G01 X12.7432 Y64.6455 
G01 X11.7942 Y64.6455 
G01 X11.1232 Y63.9745 
G01 X11.1232 Y63.0255 
G01 X11.7942 Y62.3545 
G01 X12.7432 Y62.3545 
G01 X13.4143 Y63.0255 
G00 Z0.5080 
G00 X13.4143 Y60.4855 
G01 Z-0.2540 F254.00 
G01 X13.4143 Y61.4345 
G01 X12.7432 Y62.1055 
G01 X11.7942 Y62.1055 
G01 X11.1232 Y61.4345 
G01 X11.1232 Y60.4855 
G01 X11.7942 Y59.8145 
G01 X12.7432 Y59.8145 
G01 X13.4143 Y60.4855 
G00 Z0.5080 
G00 X13.4143 Y57.9455 
G01 Z-0.2540 F254.00 
G01 X13.4143 Y58.8945 
G01 X12.7432 Y59.5655 
G01 X11.7942 Y59.5655 
G01 X11.1232 Y58.8945 
G01 X11.1232 Y57.9455 
G01 X11.7942 Y57.2745 
G01 X12.7432 Y57.2745 
G01 X13.4143 Y57.9455 
G00 Z0.5080 
G00 X13.4143 Y55.4055 
G01 Z-0.2540 F254.00 
G01 X13.4143 Y56.3545 
G01 X12.7432 Y57.0255 
G01 X11.7942 Y57.0255 
G01 X11.1232 Y56.3545 
G01 X11.1232 Y55.4055 
G01 X11.7942 Y54.7345 
G01 X12.7432 Y54.7345 
G01 X13.4143 Y55.4055 
G00 Z0.5080 
G00 X13.4143 Y52.8655 
G01 Z-0.2540 F254.00 
G01 X13.4143 Y53.8145 
G01 X12.7432 Y54.4855 
G01 X11.7942 Y54.4855 
G01 X11.1232 Y53.8145 
G01 X11.1232 Y52.8655 
G01 X11.7942 Y52.1945 
G01 X12.7432 Y52.1945 
G01 X13.4143 Y52.8655 
G00 Z0.5080 
G00 X41.3543 Y68.1055 
G01 Z-0.2540 F254.00 
G01 X41.3543 Y69.0545 
G01 X40.6832 Y69.7255 
G01 X39.7342 Y69.7255 
G01 X39.0632 Y69.0545 
G01 X39.0632 Y68.1055 
G01 X39.7342 Y67.4345 
G01 X40.6832 Y67.4345 
G01 X41.3543 Y68.1055 
G00 Z0.5080 
G00 X41.3543 Y70.1972 
G01 Z-0.2540 F254.00 
G01 X41.3543 Y72.0428 
G01 X41.3368 Y72.1080 
G01 X41.3030 Y72.1665 
G01 X41.2553 Y72.2143 
G01 X41.1968 Y72.2481 
G01 X41.1315 Y72.2655 
G01 X39.2860 Y72.2655 
G01 X39.2207 Y72.2481 
G01 X39.1622 Y72.2143 
G01 X39.1145 Y72.1665 
G01 X39.0807 Y72.1080 
G01 X39.0632 Y72.0428 
G01 X39.0632 Y70.1972 
G01 X39.0807 Y70.1320 
G01 X39.1145 Y70.0735 
G01 X39.1622 Y70.0257 
G01 X39.2207 Y69.9919 
G01 X39.2860 Y69.9745 
G01 X41.1315 Y69.9745 
G01 X41.1968 Y69.9919 
G01 X41.2553 Y70.0257 
G01 X41.3030 Y70.0735 
G01 X41.3368 Y70.1320 
G01 X41.3543 Y70.1972 
G00 Z0.5080 
G00 X41.3543 Y65.5655 
G01 Z-0.2540 F254.00 
G01 X41.3543 Y66.5145 
G01 X40.6832 Y67.1855 
G01 X39.7342 Y67.1855 
G01 X39.0632 Y66.5145 
G01 X39.0632 Y65.5655 
G01 X39.7342 Y64.8945 
G01 X40.6832 Y64.8945 
G01 X41.3543 Y65.5655 
G00 Z0.5080 
G00 X41.3543 Y63.0255 
G01 Z-0.2540 F254.00 
G01 X41.3543 Y63.9745 
G01 X40.6832 Y64.6455 
G01 X39.7342 Y64.6455 
G01 X39.0632 Y63.9745 
G01 X39.0632 Y63.0255 
G01 X39.7342 Y62.3545 
G01 X40.6832 Y62.3545 
G01 X41.3543 Y63.0255 
G00 Z0.5080 
G00 X41.3543 Y60.4855 
G01 Z-0.2540 F254.00 
G01 X41.3543 Y61.4345 
G01 X40.6832 Y62.1055 
G01 X39.7342 Y62.1055 
G01 X39.0632 Y61.4345 
G01 X39.0632 Y60.4855 
G01 X39.7342 Y59.8145 
G01 X40.6832 Y59.8145 
G01 X41.3543 Y60.4855 
G00 Z0.5080 
G00 X41.3543 Y57.9455 
G01 Z-0.2540 F254.00 
G01 X41.3543 Y58.8945 
G01 X40.6832 Y59.5655 
G01 X39.7342 Y59.5655 
G01 X39.0632 Y58.8945 
G01 X39.0632 Y57.9455 
G01 X39.7342 Y57.2745 
G01 X40.6832 Y57.2745 
G01 X41.3543 Y57.9455 
G00 Z0.5080 
G00 X41.3543 Y55.4055 
G01 Z-0.2540 F254.00 
G01 X41.3543 Y56.3545 
G01 X40.6832 Y57.0255 
G01 X39.7342 Y57.0255 
G01 X39.0632 Y56.3545 
G01 X39.0632 Y55.4055 
G01 X39.7342 Y54.7345 
G01 X40.6832 Y54.7345 
G01 X41.3543 Y55.4055 
G00 Z0.5080 
G00 X41.3543 Y52.8655 
G01 Z-0.2540 F254.00 
G01 X41.3543 Y53.8145 
G01 X40.6832 Y54.4855 
G01 X39.7342 Y54.4855 
G01 X39.0632 Y53.8145 
G01 X39.0632 Y52.8655 
G01 X39.7342 Y52.1945 
G01 X40.6832 Y52.1945 
G01 X41.3543 Y52.8655 
G00 Z0.5080 
G00 X10.9105 Y36.9721 
G01 Z-0.2540 F254.00 
G01 X10.9105 Y38.6968 
G01 X10.8713 Y38.8936 
G01 X10.7946 Y39.0789 
G01 X10.6831 Y39.2458 
G01 X10.5412 Y39.3876 
G01 X10.3744 Y39.4991 
G01 X10.1890 Y39.5759 
G01 X9.9923 Y39.6150 
G01 X9.7916 Y39.6150 
G01 X9.5948 Y39.5759 
G01 X9.4095 Y39.4991 
G01 X9.2427 Y39.3876 
G01 X9.1008 Y39.2458 
G01 X8.9893 Y39.0789 
G01 X8.9125 Y38.8936 
G01 X8.8734 Y38.6968 
G01 X8.8734 Y36.9721 
G01 X8.9125 Y36.7754 
G01 X8.9893 Y36.5900 
G01 X9.1008 Y36.4232 
G01 X9.2427 Y36.2813 
G01 X9.4095 Y36.1699 
G01 X9.5948 Y36.0931 
G01 X9.7916 Y36.0539 
G01 X9.9923 Y36.0539 
G01 X10.1890 Y36.0931 
G01 X10.3744 Y36.1699 
G01 X10.5412 Y36.2813 
G01 X10.6831 Y36.4232 
G01 X10.7946 Y36.5900 
G01 X10.8713 Y36.7754 
G01 X10.9105 Y36.9721 
G00 Z0.5080 
G00 X8.3705 Y36.9721 
G01 Z-0.2540 F254.00 
G01 X8.3705 Y38.6968 
G01 X8.3313 Y38.8936 
G01 X8.2546 Y39.0789 
G01 X8.1431 Y39.2458 
G01 X8.0012 Y39.3876 
G01 X7.8344 Y39.4991 
G01 X7.6490 Y39.5759 
G01 X7.4523 Y39.6150 
G01 X7.2516 Y39.6150 
G01 X7.0548 Y39.5759 
G01 X6.8695 Y39.4991 
G01 X6.7027 Y39.3876 
G01 X6.5608 Y39.2458 
G01 X6.4493 Y39.0789 
G01 X6.3725 Y38.8936 
G01 X6.3334 Y38.6968 
G01 X6.3334 Y36.9721 
G01 X6.3725 Y36.7754 
G01 X6.4493 Y36.5900 
G01 X6.5608 Y36.4232 
G01 X6.7027 Y36.2813 
G01 X6.8695 Y36.1699 
G01 X7.0548 Y36.0931 
G01 X7.2516 Y36.0539 
G01 X7.4523 Y36.0539 
G01 X7.6490 Y36.0931 
G01 X7.8344 Y36.1699 
G01 X8.0012 Y36.2813 
G01 X8.1431 Y36.4232 
G01 X8.2546 Y36.5900 
G01 X8.3313 Y36.7754 
G01 X8.3705 Y36.9721 
G00 Z0.5080 
G00 X5.8305 Y36.9721 
G01 Z-0.2540 F254.00 
G01 X5.8305 Y38.6968 
G01 X5.7913 Y38.8936 
G01 X5.7146 Y39.0789 
G01 X5.6031 Y39.2458 
G01 X5.4612 Y39.3876 
G01 X5.2944 Y39.4991 
G01 X5.1090 Y39.5759 
G01 X4.9123 Y39.6150 
G01 X4.7116 Y39.6150 
G01 X4.5148 Y39.5759 
G01 X4.3295 Y39.4991 
G01 X4.1627 Y39.3876 
G01 X4.0208 Y39.2458 
G01 X3.9093 Y39.0789 
G01 X3.8325 Y38.8936 
G01 X3.7934 Y38.6968 
G01 X3.7934 Y36.9721 
G01 X3.8325 Y36.7754 
G01 X3.9093 Y36.5900 
G01 X4.0208 Y36.4232 
G01 X4.1627 Y36.2813 
G01 X4.3295 Y36.1699 
G01 X4.5148 Y36.0931 
G01 X4.7116 Y36.0539 
G01 X4.9123 Y36.0539 
G01 X5.1090 Y36.0931 
G01 X5.2944 Y36.1699 
G01 X5.4612 Y36.2813 
G01 X5.6031 Y36.4232 
G01 X5.7146 Y36.5900 
G01 X5.7913 Y36.7754 
G01 X5.8305 Y36.9721 
G00 Z0.5080 
G00 X9.7165 Y22.7157 
G01 Z-0.2540 F254.00 
G01 X9.7165 Y22.9813 
G01 X9.6867 Y23.2452 
G01 X9.6276 Y23.5041 
G01 X9.5399 Y23.7548 
G01 X9.4247 Y23.9940 
G01 X9.2834 Y24.2189 
G01 X9.1178 Y24.4266 
G01 X8.9300 Y24.6143 
G01 X8.7224 Y24.7799 
G01 X8.4975 Y24.9212 
G01 X8.2582 Y25.0365 
G01 X8.0076 Y25.1242 
G01 X7.7486 Y25.1833 
G01 X7.4847 Y25.2130 
G01 X7.2191 Y25.2130 
G01 X6.9552 Y25.1833 
G01 X6.6963 Y25.1242 
G01 X6.4456 Y25.0365 
G01 X6.2064 Y24.9212 
G01 X5.9815 Y24.7799 
G01 X5.7739 Y24.6143 
G01 X5.5861 Y24.4266 
G01 X5.4205 Y24.2189 
G01 X5.2792 Y23.9940 
G01 X5.1639 Y23.7548 
G01 X5.0762 Y23.5041 
G01 X5.0171 Y23.2452 
G01 X4.9874 Y22.9813 
G01 X4.9874 Y22.7157 
G01 X5.0171 Y22.4518 
G01 X5.0762 Y22.1928 
G01 X5.1639 Y21.9422 
G01 X5.2792 Y21.7029 
G01 X5.4205 Y21.4780 
G01 X5.5861 Y21.2704 
G01 X5.7739 Y21.0826 
G01 X5.9815 Y20.9170 
G01 X6.2064 Y20.7757 
G01 X6.4456 Y20.6605 
G01 X6.6963 Y20.5728 
G01 X6.9552 Y20.5137 
G01 X7.2191 Y20.4839 
G01 X7.4847 Y20.4839 
G01 X7.7486 Y20.5137 
G01 X8.0076 Y20.5728 
G01 X8.2582 Y20.6605 
G01 X8.4975 Y20.7757 
G01 X8.7224 Y20.9170 
G01 X8.9300 Y21.0826 
G01 X9.1178 Y21.2704 
G01 X9.2834 Y21.4780 
G01 X9.4247 Y21.7029 
G01 X9.5399 Y21.9422 
G01 X9.6276 Y22.1928 
G01 X9.6867 Y22.4518 
G01 X9.7165 Y22.7157 
G00 Z0.5080 
G00 X38.0115 Y48.2673 
G01 Z-0.2540 F254.00 
G01 X38.0115 Y49.8804 
G01 X37.9743 Y50.0673 
G01 X37.9013 Y50.2435 
G01 X37.7954 Y50.4019 
G01 X37.6606 Y50.5367 
G01 X37.5021 Y50.6427 
G01 X37.3260 Y50.7156 
G01 X37.1391 Y50.7528 
G01 X36.9484 Y50.7528 
G01 X36.7615 Y50.7156 
G01 X36.5853 Y50.6427 
G01 X36.4269 Y50.5367 
G01 X36.2921 Y50.4019 
G01 X36.1862 Y50.2435 
G01 X36.1132 Y50.0673 
G01 X36.0760 Y49.8804 
G01 X36.0760 Y48.2673 
G01 X36.1132 Y48.0804 
G01 X36.1862 Y47.9043 
G01 X36.2921 Y47.7458 
G01 X36.4269 Y47.6110 
G01 X36.5853 Y47.5051 
G01 X36.7615 Y47.4321 
G01 X36.9484 Y47.3949 
G01 X37.1391 Y47.3949 
G01 X37.3260 Y47.4321 
G01 X37.5021 Y47.5051 
G01 X37.6606 Y47.6110 
G01 X37.7954 Y47.7458 
G01 X37.9013 Y47.9043 
G01 X37.9743 Y48.0804 
G01 X38.0115 Y48.2673 
G00 Z0.5080 
G00 X35.4715 Y48.2673 
G01 Z-0.2540 F254.00 
G01 X35.4715 Y49.8804 
G01 X35.4343 Y50.0673 
G01 X35.3613 Y50.2435 
G01 X35.2554 Y50.4019 
G01 X35.1206 Y50.5367 
G01 X34.9621 Y50.6427 
G01 X34.7860 Y50.7156 
G01 X34.5991 Y50.7528 
G01 X34.4084 Y50.7528 
G01 X34.2215 Y50.7156 
G01 X34.0453 Y50.6427 
G01 X33.8869 Y50.5367 
G01 X33.7521 Y50.4019 
G01 X33.6461 Y50.2435 
G01 X33.5732 Y50.0673 
G01 X33.5360 Y49.8804 
G01 X33.5360 Y48.2673 
G01 X33.5732 Y48.0804 
G01 X33.6461 Y47.9043 
G01 X33.7521 Y47.7458 
G01 X33.8869 Y47.6110 
G01 X34.0453 Y47.5051 
G01 X34.2215 Y47.4321 
G01 X34.4084 Y47.3949 
G01 X34.5991 Y47.3949 
G01 X34.7860 Y47.4321 
G01 X34.9621 Y47.5051 
G01 X35.1206 Y47.6110 
G01 X35.2554 Y47.7458 
G01 X35.3613 Y47.9043 
G01 X35.4343 Y48.0804 
G01 X35.4715 Y48.2673 
G00 Z0.5080 
G00 X32.9315 Y48.2673 
G01 Z-0.2540 F254.00 
G01 X32.9315 Y49.8804 
G01 X32.8943 Y50.0673 
G01 X32.8213 Y50.2435 
G01 X32.7154 Y50.4019 
G01 X32.5806 Y50.5367 
G01 X32.4221 Y50.6427 
G01 X32.2460 Y50.7156 
G01 X32.0591 Y50.7528 
G01 X31.8684 Y50.7528 
G01 X31.6815 Y50.7156 
G01 X31.5053 Y50.6427 
G01 X31.3468 Y50.5367 
G01 X31.2121 Y50.4019 
G01 X31.1062 Y50.2435 
G01 X31.0332 Y50.0673 
G01 X30.9960 Y49.8804 
G01 X30.9960 Y48.2673 
G01 X31.0332 Y48.0804 
G01 X31.1062 Y47.9043 
G01 X31.2121 Y47.7458 
G01 X31.3468 Y47.6110 
G01 X31.5053 Y47.5051 
G01 X31.6815 Y47.4321 
G01 X31.8684 Y47.3949 
G01 X32.0591 Y47.3949 
G01 X32.2460 Y47.4321 
G01 X32.4221 Y47.5051 
G01 X32.5806 Y47.6110 
G01 X32.7154 Y47.7458 
G01 X32.8213 Y47.9043 
G01 X32.8943 Y48.0804 
G01 X32.9315 Y48.2673 
G00 Z0.5080 
G00 X30.3915 Y48.2673 
G01 Z-0.2540 F254.00 
G01 X30.3915 Y49.8804 
G01 X30.3543 Y50.0673 
G01 X30.2813 Y50.2435 
G01 X30.1754 Y50.4019 
G01 X30.0406 Y50.5367 
G01 X29.8821 Y50.6427 
G01 X29.7060 Y50.7156 
G01 X29.5191 Y50.7528 
G01 X29.3284 Y50.7528 
G01 X29.1415 Y50.7156 
G01 X28.9654 Y50.6427 
G01 X28.8069 Y50.5367 
G01 X28.6721 Y50.4019 
G01 X28.5662 Y50.2435 
G01 X28.4932 Y50.0673 
G01 X28.4560 Y49.8804 
G01 X28.4560 Y48.2673 
G01 X28.4932 Y48.0804 
G01 X28.5662 Y47.9043 
G01 X28.6721 Y47.7458 
G01 X28.8069 Y47.6110 
G01 X28.9654 Y47.5051 
G01 X29.1415 Y47.4321 
G01 X29.3284 Y47.3949 
G01 X29.5191 Y47.3949 
G01 X29.7060 Y47.4321 
G01 X29.8821 Y47.5051 
G01 X30.0406 Y47.6110 
G01 X30.1754 Y47.7458 
G01 X30.2813 Y47.9043 
G01 X30.3543 Y48.0804 
G01 X30.3915 Y48.2673 
G00 Z0.5080 
G00 X27.8515 Y48.2673 
G01 Z-0.2540 F254.00 
G01 X27.8515 Y49.8804 
G01 X27.8143 Y50.0673 
G01 X27.7413 Y50.2435 
G01 X27.6354 Y50.4019 
G01 X27.5006 Y50.5367 
G01 X27.3421 Y50.6427 
G01 X27.1660 Y50.7156 
G01 X26.9791 Y50.7528 
G01 X26.7884 Y50.7528 
G01 X26.6015 Y50.7156 
G01 X26.4254 Y50.6427 
G01 X26.2669 Y50.5367 
G01 X26.1321 Y50.4019 
G01 X26.0262 Y50.2435 
G01 X25.9532 Y50.0673 
G01 X25.9160 Y49.8804 
G01 X25.9160 Y48.2673 
G01 X25.9532 Y48.0804 
G01 X26.0262 Y47.9043 
G01 X26.1321 Y47.7458 
G01 X26.2669 Y47.6110 
G01 X26.4254 Y47.5051 
G01 X26.6015 Y47.4321 
G01 X26.7884 Y47.3949 
G01 X26.9791 Y47.3949 
G01 X27.1660 Y47.4321 
G01 X27.3421 Y47.5051 
G01 X27.5006 Y47.6110 
G01 X27.6354 Y47.7458 
G01 X27.7413 Y47.9043 
G01 X27.8143 Y48.0804 
G01 X27.8515 Y48.2673 
G00 Z0.5080 
G00 X22.7715 Y48.2673 
G01 Z-0.2540 F254.00 
G01 X22.7715 Y49.8804 
G01 X22.7343 Y50.0673 
G01 X22.6613 Y50.2435 
G01 X22.5554 Y50.4019 
G01 X22.4206 Y50.5367 
G01 X22.2621 Y50.6427 
G01 X22.0860 Y50.7156 
G01 X21.8991 Y50.7528 
G01 X21.7084 Y50.7528 
G01 X21.5215 Y50.7156 
G01 X21.3453 Y50.6427 
G01 X21.1868 Y50.5367 
G01 X21.0521 Y50.4019 
G01 X20.9461 Y50.2435 
G01 X20.8732 Y50.0673 
G01 X20.8360 Y49.8804 
G01 X20.8360 Y48.2673 
G01 X20.8732 Y48.0804 
G01 X20.9461 Y47.9043 
G01 X21.0521 Y47.7458 
G01 X21.1868 Y47.6110 
G01 X21.3453 Y47.5051 
G01 X21.5215 Y47.4321 
G01 X21.7084 Y47.3949 
G01 X21.8991 Y47.3949 
G01 X22.0860 Y47.4321 
G01 X22.2621 Y47.5051 
G01 X22.4206 Y47.6110 
G01 X22.5554 Y47.7458 
G01 X22.6613 Y47.9043 
G01 X22.7343 Y48.0804 
G01 X22.7715 Y48.2673 
G00 Z0.5080 
G00 X25.3115 Y48.2673 
G01 Z-0.2540 F254.00 
G01 X25.3115 Y49.8804 
G01 X25.2743 Y50.0673 
G01 X25.2013 Y50.2435 
G01 X25.0954 Y50.4019 
G01 X24.9606 Y50.5367 
G01 X24.8021 Y50.6427 
G01 X24.6260 Y50.7156 
G01 X24.4391 Y50.7528 
G01 X24.2484 Y50.7528 
G01 X24.0615 Y50.7156 
G01 X23.8854 Y50.6427 
G01 X23.7269 Y50.5367 
G01 X23.5921 Y50.4019 
G01 X23.4862 Y50.2435 
G01 X23.4132 Y50.0673 
G01 X23.3760 Y49.8804 
G01 X23.3760 Y48.2673 
G01 X23.4132 Y48.0804 
G01 X23.4862 Y47.9043 
G01 X23.5921 Y47.7458 
G01 X23.7269 Y47.6110 
G01 X23.8854 Y47.5051 
G01 X24.0615 Y47.4321 
G01 X24.2484 Y47.3949 
G01 X24.4391 Y47.3949 
G01 X24.6260 Y47.4321 
G01 X24.8021 Y47.5051 
G01 X24.9606 Y47.6110 
G01 X25.0954 Y47.7458 
G01 X25.2013 Y47.9043 
G01 X25.2743 Y48.0804 
G01 X25.3115 Y48.2673 
G00 Z0.5080 
G00 X17.6915 Y48.2673 
G01 Z-0.2540 F254.00 
G01 X17.6915 Y49.8804 
G01 X17.6543 Y50.0673 
G01 X17.5813 Y50.2435 
G01 X17.4754 Y50.4019 
G01 X17.3406 Y50.5367 
G01 X17.1821 Y50.6427 
G01 X17.0060 Y50.7156 
G01 X16.8191 Y50.7528 
G01 X16.6284 Y50.7528 
G01 X16.4415 Y50.7156 
G01 X16.2654 Y50.6427 
G01 X16.1069 Y50.5367 
G01 X15.9721 Y50.4019 
G01 X15.8662 Y50.2435 
G01 X15.7932 Y50.0673 
G01 X15.7560 Y49.8804 
G01 X15.7560 Y48.2673 
G01 X15.7932 Y48.0804 
G01 X15.8662 Y47.9043 
G01 X15.9721 Y47.7458 
G01 X16.1069 Y47.6110 
G01 X16.2654 Y47.5051 
G01 X16.4415 Y47.4321 
G01 X16.6284 Y47.3949 
G01 X16.8191 Y47.3949 
G01 X17.0060 Y47.4321 
G01 X17.1821 Y47.5051 
G01 X17.3406 Y47.6110 
G01 X17.4754 Y47.7458 
G01 X17.5813 Y47.9043 
G01 X17.6543 Y48.0804 
G01 X17.6915 Y48.2673 
G00 Z0.5080 
G00 X20.2315 Y48.2673 
G01 Z-0.2540 F254.00 
G01 X20.2315 Y49.8804 
G01 X20.1943 Y50.0673 
G01 X20.1213 Y50.2435 
G01 X20.0154 Y50.4019 
G01 X19.8806 Y50.5367 
G01 X19.7221 Y50.6427 
G01 X19.5460 Y50.7156 
G01 X19.3591 Y50.7528 
G01 X19.1684 Y50.7528 
G01 X18.9815 Y50.7156 
G01 X18.8054 Y50.6427 
G01 X18.6469 Y50.5367 
G01 X18.5121 Y50.4019 
G01 X18.4062 Y50.2435 
G01 X18.3332 Y50.0673 
G01 X18.2960 Y49.8804 
G01 X18.2960 Y48.2673 
G01 X18.3332 Y48.0804 
G01 X18.4062 Y47.9043 
G01 X18.5121 Y47.7458 
G01 X18.6469 Y47.6110 
G01 X18.8054 Y47.5051 
G01 X18.9815 Y47.4321 
G01 X19.1684 Y47.3949 
G01 X19.3591 Y47.3949 
G01 X19.5460 Y47.4321 
G01 X19.7221 Y47.5051 
G01 X19.8806 Y47.6110 
G01 X20.0154 Y47.7458 
G01 X20.1213 Y47.9043 
G01 X20.1943 Y48.0804 
G01 X20.2315 Y48.2673 
G00 Z0.5080 
G00 X37.5948 Y44.4036 
G01 Z-0.2540 F254.00 
G01 X37.5948 Y45.9050 
G01 X37.5596 Y46.0822 
G01 X37.4905 Y46.2490 
G01 X37.3901 Y46.3992 
G01 X37.2624 Y46.5269 
G01 X37.1122 Y46.6273 
G01 X36.9454 Y46.6964 
G01 X36.7682 Y46.7316 
G01 X36.5876 Y46.7316 
G01 X36.4104 Y46.6964 
G01 X36.2436 Y46.6273 
G01 X36.0934 Y46.5269 
G01 X35.9657 Y46.3992 
G01 X35.8653 Y46.2490 
G01 X35.7962 Y46.0822 
G01 X35.7610 Y45.9050 
G01 X35.7610 Y44.4036 
G01 X35.7962 Y44.2264 
G01 X35.8653 Y44.0596 
G01 X35.9657 Y43.9094 
G01 X36.0934 Y43.7817 
G01 X36.2436 Y43.6813 
G01 X36.4104 Y43.6122 
G01 X36.5876 Y43.5770 
G01 X36.7682 Y43.5770 
G01 X36.9454 Y43.6122 
G01 X37.1122 Y43.6813 
G01 X37.2624 Y43.7817 
G01 X37.3901 Y43.9094 
G01 X37.4905 Y44.0596 
G01 X37.5596 Y44.2264 
G01 X37.5948 Y44.4036 
G00 Z0.5080 
G00 X35.0548 Y44.4036 
G01 Z-0.2540 F254.00 
G01 X35.0548 Y45.9050 
G01 X35.0196 Y46.0822 
G01 X34.9505 Y46.2490 
G01 X34.8501 Y46.3992 
G01 X34.7224 Y46.5269 
G01 X34.5722 Y46.6273 
G01 X34.4053 Y46.6964 
G01 X34.2282 Y46.7316 
G01 X34.0476 Y46.7316 
G01 X33.8704 Y46.6964 
G01 X33.7036 Y46.6273 
G01 X33.5534 Y46.5269 
G01 X33.4257 Y46.3992 
G01 X33.3253 Y46.2490 
G01 X33.2562 Y46.0822 
G01 X33.2210 Y45.9050 
G01 X33.2210 Y44.4036 
G01 X33.2562 Y44.2264 
G01 X33.3253 Y44.0596 
G01 X33.4257 Y43.9094 
G01 X33.5534 Y43.7817 
G01 X33.7036 Y43.6813 
G01 X33.8704 Y43.6122 
G01 X34.0476 Y43.5770 
G01 X34.2282 Y43.5770 
G01 X34.4053 Y43.6122 
G01 X34.5722 Y43.6813 
G01 X34.7224 Y43.7817 
G01 X34.8501 Y43.9094 
G01 X34.9505 Y44.0596 
G01 X35.0196 Y44.2264 
G01 X35.0548 Y44.4036 
G00 Z0.5080 
G00 X22.3548 Y44.4036 
G01 Z-0.2540 F254.00 
G01 X22.3548 Y45.9050 
G01 X22.3196 Y46.0822 
G01 X22.2505 Y46.2490 
G01 X22.1501 Y46.3992 
G01 X22.0224 Y46.5269 
G01 X21.8722 Y46.6273 
G01 X21.7054 Y46.6964 
G01 X21.5282 Y46.7316 
G01 X21.3476 Y46.7316 
G01 X21.1704 Y46.6964 
G01 X21.0036 Y46.6273 
G01 X20.8534 Y46.5269 
G01 X20.7257 Y46.3992 
G01 X20.6253 Y46.2490 
G01 X20.5562 Y46.0822 
G01 X20.5210 Y45.9050 
G01 X20.5210 Y44.4036 
G01 X20.5562 Y44.2264 
G01 X20.6253 Y44.0596 
G01 X20.7257 Y43.9094 
G01 X20.8534 Y43.7817 
G01 X21.0036 Y43.6813 
G01 X21.1704 Y43.6122 
G01 X21.3476 Y43.5770 
G01 X21.5282 Y43.5770 
G01 X21.7054 Y43.6122 
G01 X21.8722 Y43.6813 
G01 X22.0224 Y43.7817 
G01 X22.1501 Y43.9094 
G01 X22.2505 Y44.0596 
G01 X22.3196 Y44.2264 
G01 X22.3548 Y44.4036 
G00 Z0.5080 
G00 X19.8148 Y44.4036 
G01 Z-0.2540 F254.00 
G01 X19.8148 Y45.9050 
G01 X19.7796 Y46.0822 
G01 X19.7105 Y46.2490 
G01 X19.6101 Y46.3992 
G01 X19.4824 Y46.5269 
G01 X19.3322 Y46.6273 
G01 X19.1654 Y46.6964 
G01 X18.9882 Y46.7316 
G01 X18.8076 Y46.7316 
G01 X18.6304 Y46.6964 
G01 X18.4636 Y46.6273 
G01 X18.3134 Y46.5269 
G01 X18.1857 Y46.3992 
G01 X18.0853 Y46.2490 
G01 X18.0162 Y46.0822 
G01 X17.9809 Y45.9050 
G01 X17.9809 Y44.4036 
G01 X18.0162 Y44.2264 
G01 X18.0853 Y44.0596 
G01 X18.1857 Y43.9094 
G01 X18.3134 Y43.7817 
G01 X18.4636 Y43.6813 
G01 X18.6304 Y43.6122 
G01 X18.8076 Y43.5770 
G01 X18.9882 Y43.5770 
G01 X19.1654 Y43.6122 
G01 X19.3322 Y43.6813 
G01 X19.4824 Y43.7817 
G01 X19.6101 Y43.9094 
G01 X19.7105 Y44.0596 
G01 X19.7796 Y44.2264 
G01 X19.8148 Y44.4036 
G00 Z0.5080 
G00 X32.5148 Y44.4036 
G01 Z-0.2540 F254.00 
G01 X32.5148 Y45.9050 
G01 X32.4796 Y46.0822 
G01 X32.4105 Y46.2490 
G01 X32.3101 Y46.3992 
G01 X32.1824 Y46.5269 
G01 X32.0322 Y46.6273 
G01 X31.8654 Y46.6964 
G01 X31.6882 Y46.7316 
G01 X31.5076 Y46.7316 
G01 X31.3304 Y46.6964 
G01 X31.1636 Y46.6273 
G01 X31.0134 Y46.5269 
G01 X30.8857 Y46.3992 
G01 X30.7853 Y46.2490 
G01 X30.7162 Y46.0822 
G01 X30.6810 Y45.9050 
G01 X30.6810 Y44.4036 
G01 X30.7162 Y44.2264 
G01 X30.7853 Y44.0596 
G01 X30.8857 Y43.9094 
G01 X31.0134 Y43.7817 
G01 X31.1636 Y43.6813 
G01 X31.3304 Y43.6122 
G01 X31.5076 Y43.5770 
G01 X31.6882 Y43.5770 
G01 X31.8654 Y43.6122 
G01 X32.0322 Y43.6813 
G01 X32.1824 Y43.7817 
G01 X32.3101 Y43.9094 
G01 X32.4105 Y44.0596 
G01 X32.4796 Y44.2264 
G01 X32.5148 Y44.4036 
G00 Z0.5080 
G00 X29.9748 Y44.4036 
G01 Z-0.2540 F254.00 
G01 X29.9748 Y45.9050 
G01 X29.9396 Y46.0822 
G01 X29.8705 Y46.2490 
G01 X29.7701 Y46.3992 
G01 X29.6424 Y46.5269 
G01 X29.4922 Y46.6273 
G01 X29.3254 Y46.6964 
G01 X29.1482 Y46.7316 
G01 X28.9676 Y46.7316 
G01 X28.7904 Y46.6964 
G01 X28.6236 Y46.6273 
G01 X28.4734 Y46.5269 
G01 X28.3457 Y46.3992 
G01 X28.2453 Y46.2490 
G01 X28.1762 Y46.0822 
G01 X28.1410 Y45.9050 
G01 X28.1410 Y44.4036 
G01 X28.1762 Y44.2264 
G01 X28.2453 Y44.0596 
G01 X28.3457 Y43.9094 
G01 X28.4734 Y43.7817 
G01 X28.6236 Y43.6813 
G01 X28.7904 Y43.6122 
G01 X28.9676 Y43.5770 
G01 X29.1482 Y43.5770 
G01 X29.3254 Y43.6122 
G01 X29.4922 Y43.6813 
G01 X29.6424 Y43.7817 
G01 X29.7701 Y43.9094 
G01 X29.8705 Y44.0596 
G01 X29.9396 Y44.2264 
G01 X29.9748 Y44.4036 
G00 Z0.5080 
G00 X24.8948 Y44.4036 
G01 Z-0.2540 F254.00 
G01 X24.8948 Y45.9050 
G01 X24.8596 Y46.0822 
G01 X24.7905 Y46.2490 
G01 X24.6901 Y46.3992 
G01 X24.5624 Y46.5269 
G01 X24.4122 Y46.6273 
G01 X24.2454 Y46.6964 
G01 X24.0682 Y46.7316 
G01 X23.8876 Y46.7316 
G01 X23.7104 Y46.6964 
G01 X23.5436 Y46.6273 
G01 X23.3934 Y46.5269 
G01 X23.2657 Y46.3992 
G01 X23.1653 Y46.2490 
G01 X23.0962 Y46.0822 
G01 X23.0610 Y45.9050 
G01 X23.0610 Y44.4036 
G01 X23.0962 Y44.2264 
G01 X23.1653 Y44.0596 
G01 X23.2657 Y43.9094 
G01 X23.3934 Y43.7817 
G01 X23.5436 Y43.6813 
G01 X23.7104 Y43.6122 
G01 X23.8876 Y43.5770 
G01 X24.0682 Y43.5770 
G01 X24.2454 Y43.6122 
G01 X24.4122 Y43.6813 
G01 X24.5624 Y43.7817 
G01 X24.6901 Y43.9094 
G01 X24.7905 Y44.0596 
G01 X24.8596 Y44.2264 
G01 X24.8948 Y44.4036 
G00 Z0.5080 
G00 X27.4348 Y44.4036 
G01 Z-0.2540 F254.00 
G01 X27.4348 Y45.9050 
G01 X27.3996 Y46.0822 
G01 X27.3305 Y46.2490 
G01 X27.2301 Y46.3992 
G01 X27.1024 Y46.5269 
G01 X26.9522 Y46.6273 
G01 X26.7854 Y46.6964 
G01 X26.6082 Y46.7316 
G01 X26.4276 Y46.7316 
G01 X26.2504 Y46.6964 
G01 X26.0836 Y46.6273 
G01 X25.9334 Y46.5269 
G01 X25.8057 Y46.3992 
G01 X25.7053 Y46.2490 
G01 X25.6362 Y46.0822 
G01 X25.6010 Y45.9050 
G01 X25.6010 Y44.4036 
G01 X25.6362 Y44.2264 
G01 X25.7053 Y44.0596 
G01 X25.8057 Y43.9094 
G01 X25.9334 Y43.7817 
G01 X26.0836 Y43.6813 
G01 X26.2504 Y43.6122 
G01 X26.4276 Y43.5770 
G01 X26.6082 Y43.5770 
G01 X26.7854 Y43.6122 
G01 X26.9522 Y43.6813 
G01 X27.1024 Y43.7817 
G01 X27.2301 Y43.9094 
G01 X27.3305 Y44.0596 
G01 X27.3996 Y44.2264 
G01 X27.4348 Y44.4036 
G00 Z0.5080 
G00 X17.2748 Y44.4036 
G01 Z-0.2540 F254.00 
G01 X17.2748 Y45.9050 
G01 X17.2396 Y46.0822 
G01 X17.1705 Y46.2490 
G01 X17.0701 Y46.3992 
G01 X16.9424 Y46.5269 
G01 X16.7922 Y46.6273 
G01 X16.6254 Y46.6964 
G01 X16.4482 Y46.7316 
G01 X16.2676 Y46.7316 
G01 X16.0904 Y46.6964 
G01 X15.9236 Y46.6273 
G01 X15.7734 Y46.5269 
G01 X15.6457 Y46.3992 
G01 X15.5453 Y46.2490 
G01 X15.4762 Y46.0822 
G01 X15.4410 Y45.9050 
G01 X15.4410 Y44.4036 
G01 X15.4762 Y44.2264 
G01 X15.5453 Y44.0596 
G01 X15.6457 Y43.9094 
G01 X15.7734 Y43.7817 
G01 X15.9236 Y43.6813 
G01 X16.0904 Y43.6122 
G01 X16.2676 Y43.5770 
G01 X16.4482 Y43.5770 
G01 X16.6254 Y43.6122 
G01 X16.7922 Y43.6813 
G01 X16.9424 Y43.7817 
G01 X17.0701 Y43.9094 
G01 X17.1705 Y44.0596 
G01 X17.2396 Y44.2264 
G01 X17.2748 Y44.4036 
G00 Z0.5080 
G00 X17.2748 Y36.7836 
G01 Z-0.2540 F254.00 
G01 X17.2748 Y38.2850 
G01 X17.2396 Y38.4622 
G01 X17.1705 Y38.6290 
G01 X17.0701 Y38.7792 
G01 X16.9424 Y38.9069 
G01 X16.7922 Y39.0073 
G01 X16.6254 Y39.0764 
G01 X16.4482 Y39.1116 
G01 X16.2676 Y39.1116 
G01 X16.0904 Y39.0764 
G01 X15.9236 Y39.0073 
G01 X15.7734 Y38.9069 
G01 X15.6457 Y38.7792 
G01 X15.5453 Y38.6290 
G01 X15.4762 Y38.4622 
G01 X15.4410 Y38.2850 
G01 X15.4410 Y36.7836 
G01 X15.4762 Y36.6064 
G01 X15.5453 Y36.4396 
G01 X15.6457 Y36.2894 
G01 X15.7734 Y36.1617 
G01 X15.9236 Y36.0613 
G01 X16.0904 Y35.9922 
G01 X16.2676 Y35.9569 
G01 X16.4482 Y35.9569 
G01 X16.6254 Y35.9922 
G01 X16.7922 Y36.0613 
G01 X16.9424 Y36.1617 
G01 X17.0701 Y36.2894 
G01 X17.1705 Y36.4396 
G01 X17.2396 Y36.6064 
G01 X17.2748 Y36.7836 
G00 Z0.5080 
G00 X19.8148 Y36.7836 
G01 Z-0.2540 F254.00 
G01 X19.8148 Y38.2850 
G01 X19.7796 Y38.4622 
G01 X19.7105 Y38.6290 
G01 X19.6101 Y38.7792 
G01 X19.4824 Y38.9069 
G01 X19.3322 Y39.0073 
G01 X19.1654 Y39.0764 
G01 X18.9882 Y39.1116 
G01 X18.8076 Y39.1116 
G01 X18.6304 Y39.0764 
G01 X18.4636 Y39.0073 
G01 X18.3134 Y38.9069 
G01 X18.1857 Y38.7792 
G01 X18.0853 Y38.6290 
G01 X18.0162 Y38.4622 
G01 X17.9809 Y38.2850 
G01 X17.9809 Y36.7836 
G01 X18.0162 Y36.6064 
G01 X18.0853 Y36.4396 
G01 X18.1857 Y36.2894 
G01 X18.3134 Y36.1617 
G01 X18.4636 Y36.0613 
G01 X18.6304 Y35.9922 
G01 X18.8076 Y35.9569 
G01 X18.9882 Y35.9569 
G01 X19.1654 Y35.9922 
G01 X19.3322 Y36.0613 
G01 X19.4824 Y36.1617 
G01 X19.6101 Y36.2894 
G01 X19.7105 Y36.4396 
G01 X19.7796 Y36.6064 
G01 X19.8148 Y36.7836 
G00 Z0.5080 
G00 X22.3548 Y36.7836 
G01 Z-0.2540 F254.00 
G01 X22.3548 Y38.2850 
G01 X22.3196 Y38.4622 
G01 X22.2505 Y38.6290 
G01 X22.1501 Y38.7792 
G01 X22.0224 Y38.9069 
G01 X21.8722 Y39.0073 
G01 X21.7054 Y39.0764 
G01 X21.5282 Y39.1116 
G01 X21.3476 Y39.1116 
G01 X21.1704 Y39.0764 
G01 X21.0036 Y39.0073 
G01 X20.8534 Y38.9069 
G01 X20.7257 Y38.7792 
G01 X20.6253 Y38.6290 
G01 X20.5562 Y38.4622 
G01 X20.5210 Y38.2850 
G01 X20.5210 Y36.7836 
G01 X20.5562 Y36.6064 
G01 X20.6253 Y36.4396 
G01 X20.7257 Y36.2894 
G01 X20.8534 Y36.1617 
G01 X21.0036 Y36.0613 
G01 X21.1704 Y35.9922 
G01 X21.3476 Y35.9569 
G01 X21.5282 Y35.9569 
G01 X21.7054 Y35.9922 
G01 X21.8722 Y36.0613 
G01 X22.0224 Y36.1617 
G01 X22.1501 Y36.2894 
G01 X22.2505 Y36.4396 
G01 X22.3196 Y36.6064 
G01 X22.3548 Y36.7836 
G00 Z0.5080 
G00 X24.8948 Y36.7836 
G01 Z-0.2540 F254.00 
G01 X24.8948 Y38.2850 
G01 X24.8596 Y38.4622 
G01 X24.7905 Y38.6290 
G01 X24.6901 Y38.7792 
G01 X24.5624 Y38.9069 
G01 X24.4122 Y39.0073 
G01 X24.2454 Y39.0764 
G01 X24.0682 Y39.1116 
G01 X23.8876 Y39.1116 
G01 X23.7104 Y39.0764 
G01 X23.5436 Y39.0073 
G01 X23.3934 Y38.9069 
G01 X23.2657 Y38.7792 
G01 X23.1653 Y38.6290 
G01 X23.0962 Y38.4622 
G01 X23.0610 Y38.2850 
G01 X23.0610 Y36.7836 
G01 X23.0962 Y36.6064 
G01 X23.1653 Y36.4396 
G01 X23.2657 Y36.2894 
G01 X23.3934 Y36.1617 
G01 X23.5436 Y36.0613 
G01 X23.7104 Y35.9922 
G01 X23.8876 Y35.9569 
G01 X24.0682 Y35.9569 
G01 X24.2454 Y35.9922 
G01 X24.4122 Y36.0613 
G01 X24.5624 Y36.1617 
G01 X24.6901 Y36.2894 
G01 X24.7905 Y36.4396 
G01 X24.8596 Y36.6064 
G01 X24.8948 Y36.7836 
G00 Z0.5080 
G00 X27.4348 Y36.7836 
G01 Z-0.2540 F254.00 
G01 X27.4348 Y38.2850 
G01 X27.3996 Y38.4622 
G01 X27.3305 Y38.6290 
G01 X27.2301 Y38.7792 
G01 X27.1024 Y38.9069 
G01 X26.9522 Y39.0073 
G01 X26.7854 Y39.0764 
G01 X26.6082 Y39.1116 
G01 X26.4276 Y39.1116 
G01 X26.2504 Y39.0764 
G01 X26.0836 Y39.0073 
G01 X25.9334 Y38.9069 
G01 X25.8057 Y38.7792 
G01 X25.7053 Y38.6290 
G01 X25.6362 Y38.4622 
G01 X25.6010 Y38.2850 
G01 X25.6010 Y36.7836 
G01 X25.6362 Y36.6064 
G01 X25.7053 Y36.4396 
G01 X25.8057 Y36.2894 
G01 X25.9334 Y36.1617 
G01 X26.0836 Y36.0613 
G01 X26.2504 Y35.9922 
G01 X26.4276 Y35.9569 
G01 X26.6082 Y35.9569 
G01 X26.7854 Y35.9922 
G01 X26.9522 Y36.0613 
G01 X27.1024 Y36.1617 
G01 X27.2301 Y36.2894 
G01 X27.3305 Y36.4396 
G01 X27.3996 Y36.6064 
G01 X27.4348 Y36.7836 
G00 Z0.5080 
G00 X29.9748 Y36.7836 
G01 Z-0.2540 F254.00 
G01 X29.9748 Y38.2850 
G01 X29.9396 Y38.4622 
G01 X29.8705 Y38.6290 
G01 X29.7701 Y38.7792 
G01 X29.6424 Y38.9069 
G01 X29.4922 Y39.0073 
G01 X29.3254 Y39.0764 
G01 X29.1482 Y39.1116 
G01 X28.9676 Y39.1116 
G01 X28.7904 Y39.0764 
G01 X28.6236 Y39.0073 
G01 X28.4734 Y38.9069 
G01 X28.3457 Y38.7792 
G01 X28.2453 Y38.6290 
G01 X28.1762 Y38.4622 
G01 X28.1410 Y38.2850 
G01 X28.1410 Y36.7836 
G01 X28.1762 Y36.6064 
G01 X28.2453 Y36.4396 
G01 X28.3457 Y36.2894 
G01 X28.4734 Y36.1617 
G01 X28.6236 Y36.0613 
G01 X28.7904 Y35.9922 
G01 X28.9676 Y35.9569 
G01 X29.1482 Y35.9569 
G01 X29.3254 Y35.9922 
G01 X29.4922 Y36.0613 
G01 X29.6424 Y36.1617 
G01 X29.7701 Y36.2894 
G01 X29.8705 Y36.4396 
G01 X29.9396 Y36.6064 
G01 X29.9748 Y36.7836 
G00 Z0.5080 
G00 X32.5148 Y36.7836 
G01 Z-0.2540 F254.00 
G01 X32.5148 Y38.2850 
G01 X32.4796 Y38.4622 
G01 X32.4105 Y38.6290 
G01 X32.3101 Y38.7792 
G01 X32.1824 Y38.9069 
G01 X32.0322 Y39.0073 
G01 X31.8654 Y39.0764 
G01 X31.6882 Y39.1116 
G01 X31.5076 Y39.1116 
G01 X31.3304 Y39.0764 
G01 X31.1636 Y39.0073 
G01 X31.0134 Y38.9069 
G01 X30.8857 Y38.7792 
G01 X30.7853 Y38.6290 
G01 X30.7162 Y38.4622 
G01 X30.6810 Y38.2850 
G01 X30.6810 Y36.7836 
G01 X30.7162 Y36.6064 
G01 X30.7853 Y36.4396 
G01 X30.8857 Y36.2894 
G01 X31.0134 Y36.1617 
G01 X31.1636 Y36.0613 
G01 X31.3304 Y35.9922 
G01 X31.5076 Y35.9569 
G01 X31.6882 Y35.9569 
G01 X31.8654 Y35.9922 
G01 X32.0322 Y36.0613 
G01 X32.1824 Y36.1617 
G01 X32.3101 Y36.2894 
G01 X32.4105 Y36.4396 
G01 X32.4796 Y36.6064 
G01 X32.5148 Y36.7836 
G00 Z0.5080 
G00 X35.0548 Y36.7836 
G01 Z-0.2540 F254.00 
G01 X35.0548 Y38.2850 
G01 X35.0196 Y38.4622 
G01 X34.9505 Y38.6290 
G01 X34.8501 Y38.7792 
G01 X34.7224 Y38.9069 
G01 X34.5722 Y39.0073 
G01 X34.4053 Y39.0764 
G01 X34.2282 Y39.1116 
G01 X34.0476 Y39.1116 
G01 X33.8704 Y39.0764 
G01 X33.7036 Y39.0073 
G01 X33.5534 Y38.9069 
G01 X33.4257 Y38.7792 
G01 X33.3253 Y38.6290 
G01 X33.2562 Y38.4622 
G01 X33.2210 Y38.2850 
G01 X33.2210 Y36.7836 
G01 X33.2562 Y36.6064 
G01 X33.3253 Y36.4396 
G01 X33.4257 Y36.2894 
G01 X33.5534 Y36.1617 
G01 X33.7036 Y36.0613 
G01 X33.8704 Y35.9922 
G01 X34.0476 Y35.9569 
G01 X34.2282 Y35.9569 
G01 X34.4053 Y35.9922 
G01 X34.5722 Y36.0613 
G01 X34.7224 Y36.1617 
G01 X34.8501 Y36.2894 
G01 X34.9505 Y36.4396 
G01 X35.0196 Y36.6064 
G01 X35.0548 Y36.7836 
G00 Z0.5080 
G00 X37.5948 Y36.7836 
G01 Z-0.2540 F254.00 
G01 X37.5948 Y38.2850 
G01 X37.5596 Y38.4622 
G01 X37.4905 Y38.6290 
G01 X37.3901 Y38.7792 
G01 X37.2624 Y38.9069 
G01 X37.1122 Y39.0073 
G01 X36.9454 Y39.0764 
G01 X36.7682 Y39.1116 
G01 X36.5876 Y39.1116 
G01 X36.4104 Y39.0764 
G01 X36.2436 Y39.0073 
G01 X36.0934 Y38.9069 
G01 X35.9657 Y38.7792 
G01 X35.8653 Y38.6290 
G01 X35.7962 Y38.4622 
G01 X35.7610 Y38.2850 
G01 X35.7610 Y36.7836 
G01 X35.7962 Y36.6064 
G01 X35.8653 Y36.4396 
G01 X35.9657 Y36.2894 
G01 X36.0934 Y36.1617 
G01 X36.2436 Y36.0613 
G01 X36.4104 Y35.9922 
G01 X36.5876 Y35.9569 
G01 X36.7682 Y35.9569 
G01 X36.9454 Y35.9922 
G01 X37.1122 Y36.0613 
G01 X37.2624 Y36.1617 
G01 X37.3901 Y36.2894 
G01 X37.4905 Y36.4396 
G01 X37.5596 Y36.6064 
G01 X37.5948 Y36.7836 
G00 Z0.5080 
G00 X7.9926 Y47.5145 
G01 Z-0.2540 F254.00 
G01 X7.9926 Y48.3162 
G01 X7.4257 Y48.8831 
G01 X6.6240 Y48.8831 
G01 X6.0571 Y48.3162 
G01 X6.0571 Y47.5145 
G01 X6.6240 Y46.9476 
G01 X7.4257 Y46.9476 
G01 X7.9926 Y47.5145 
G00 Z0.5080 
G00 X5.9606 Y47.8200 
G01 Z-0.2540 F254.00 
G01 X5.9606 Y48.0107 
G01 X5.9234 Y48.1976 
G01 X5.8504 Y48.3737 
G01 X5.7445 Y48.5322 
G01 X5.6097 Y48.6670 
G01 X5.4512 Y48.7729 
G01 X5.2751 Y48.8459 
G01 X5.0882 Y48.8831 
G01 X4.8975 Y48.8831 
G01 X4.7106 Y48.8459 
G01 X4.5344 Y48.7729 
G01 X4.3759 Y48.6670 
G01 X4.2411 Y48.5322 
G01 X4.1352 Y48.3737 
G01 X4.0623 Y48.1976 
G01 X4.0251 Y48.0107 
G01 X4.0251 Y47.8200 
G01 X4.0623 Y47.6331 
G01 X4.1352 Y47.4569 
G01 X4.2411 Y47.2984 
G01 X4.3759 Y47.1636 
G01 X4.5344 Y47.0577 
G01 X4.7106 Y46.9848 
G01 X4.8975 Y46.9476 
G01 X5.0882 Y46.9476 
G01 X5.2751 Y46.9848 
G01 X5.4512 Y47.0577 
G01 X5.6097 Y47.1636 
G01 X5.7445 Y47.2984 
G01 X5.8504 Y47.4569 
G01 X5.9234 Y47.6331 
G01 X5.9606 Y47.8200 
G00 Z0.5080 
G00 X15.3079 Y47.7144 
G01 Z-0.2540 F254.00 
G01 X15.3079 Y48.5161 
G01 X14.7411 Y49.0830 
G01 X13.9394 Y49.0830 
G01 X13.3725 Y48.5161 
G01 X13.3725 Y47.7144 
G01 X13.9394 Y47.1475 
G01 X14.7411 Y47.1475 
G01 X15.3079 Y47.7144 
G00 Z0.5080 
G00 X13.2759 Y48.0200 
G01 Z-0.2540 F254.00 
G01 X13.2759 Y48.2106 
G01 X13.2388 Y48.3976 
G01 X13.1658 Y48.5737 
G01 X13.0599 Y48.7322 
G01 X12.9251 Y48.8670 
G01 X12.7666 Y48.9729 
G01 X12.5905 Y49.0458 
G01 X12.4035 Y49.0830 
G01 X12.2129 Y49.0830 
G01 X12.0259 Y49.0458 
G01 X11.8498 Y48.9729 
G01 X11.6913 Y48.8670 
G01 X11.5565 Y48.7322 
G01 X11.4506 Y48.5737 
G01 X11.3777 Y48.3976 
G01 X11.3405 Y48.2106 
G01 X11.3405 Y48.0200 
G01 X11.3777 Y47.8330 
G01 X11.4506 Y47.6569 
G01 X11.5565 Y47.4984 
G01 X11.6913 Y47.3636 
G01 X11.8498 Y47.2577 
G01 X12.0259 Y47.1847 
G01 X12.2129 Y47.1475 
G01 X12.4035 Y47.1475 
G01 X12.5905 Y47.1847 
G01 X12.7666 Y47.2577 
G01 X12.9251 Y47.3636 
G01 X13.0599 Y47.4984 
G01 X13.1658 Y47.6569 
G01 X13.2388 Y47.8330 
G01 X13.2759 Y48.0200 
G00 Z0.5080 
G00 X37.7377 Y32.8595 
G01 Z-0.2540 F254.00 
G01 X37.7377 Y34.4725 
G01 X37.7005 Y34.6595 
G01 X37.6276 Y34.8356 
G01 X37.5217 Y34.9941 
G01 X37.3869 Y35.1289 
G01 X37.2284 Y35.2348 
G01 X37.0522 Y35.3077 
G01 X36.8653 Y35.3449 
G01 X36.6746 Y35.3449 
G01 X36.4877 Y35.3077 
G01 X36.3116 Y35.2348 
G01 X36.1531 Y35.1289 
G01 X36.0183 Y34.9941 
G01 X35.9124 Y34.8356 
G01 X35.8394 Y34.6595 
G01 X35.8022 Y34.4725 
G01 X35.8022 Y32.8595 
G01 X35.8394 Y32.6725 
G01 X35.9124 Y32.4964 
G01 X36.0183 Y32.3379 
G01 X36.1531 Y32.2031 
G01 X36.3116 Y32.0972 
G01 X36.4877 Y32.0242 
G01 X36.6746 Y31.9871 
G01 X36.8653 Y31.9871 
G01 X37.0522 Y32.0242 
G01 X37.2284 Y32.0972 
G01 X37.3869 Y32.2031 
G01 X37.5217 Y32.3379 
G01 X37.6276 Y32.4964 
G01 X37.7005 Y32.6725 
G01 X37.7377 Y32.8595 
G00 Z0.5080 
G00 X35.1977 Y32.8595 
G01 Z-0.2540 F254.00 
G01 X35.1977 Y34.4725 
G01 X35.1605 Y34.6595 
G01 X35.0876 Y34.8356 
G01 X34.9817 Y34.9941 
G01 X34.8469 Y35.1289 
G01 X34.6884 Y35.2348 
G01 X34.5122 Y35.3077 
G01 X34.3253 Y35.3449 
G01 X34.1347 Y35.3449 
G01 X33.9477 Y35.3077 
G01 X33.7716 Y35.2348 
G01 X33.6131 Y35.1289 
G01 X33.4783 Y34.9941 
G01 X33.3724 Y34.8356 
G01 X33.2994 Y34.6595 
G01 X33.2622 Y34.4725 
G01 X33.2622 Y32.8595 
G01 X33.2994 Y32.6725 
G01 X33.3724 Y32.4964 
G01 X33.4783 Y32.3379 
G01 X33.6131 Y32.2031 
G01 X33.7716 Y32.0972 
G01 X33.9477 Y32.0242 
G01 X34.1347 Y31.9871 
G01 X34.3253 Y31.9871 
G01 X34.5122 Y32.0242 
G01 X34.6884 Y32.0972 
G01 X34.8469 Y32.2031 
G01 X34.9817 Y32.3379 
G01 X35.0876 Y32.4964 
G01 X35.1605 Y32.6725 
G01 X35.1977 Y32.8595 
G00 Z0.5080 
G00 X32.6577 Y32.8595 
G01 Z-0.2540 F254.00 
G01 X32.6577 Y34.4725 
G01 X32.6205 Y34.6595 
G01 X32.5476 Y34.8356 
G01 X32.4417 Y34.9941 
G01 X32.3069 Y35.1289 
G01 X32.1484 Y35.2348 
G01 X31.9722 Y35.3077 
G01 X31.7853 Y35.3449 
G01 X31.5947 Y35.3449 
G01 X31.4077 Y35.3077 
G01 X31.2316 Y35.2348 
G01 X31.0731 Y35.1289 
G01 X30.9383 Y34.9941 
G01 X30.8324 Y34.8356 
G01 X30.7594 Y34.6595 
G01 X30.7222 Y34.4725 
G01 X30.7222 Y32.8595 
G01 X30.7594 Y32.6725 
G01 X30.8324 Y32.4964 
G01 X30.9383 Y32.3379 
G01 X31.0731 Y32.2031 
G01 X31.2316 Y32.0972 
G01 X31.4077 Y32.0242 
G01 X31.5947 Y31.9871 
G01 X31.7853 Y31.9871 
G01 X31.9722 Y32.0242 
G01 X32.1484 Y32.0972 
G01 X32.3069 Y32.2031 
G01 X32.4417 Y32.3379 
G01 X32.5476 Y32.4964 
G01 X32.6205 Y32.6725 
G01 X32.6577 Y32.8595 
G00 Z0.5080 
G00 X30.1177 Y32.8595 
G01 Z-0.2540 F254.00 
G01 X30.1177 Y34.4725 
G01 X30.0805 Y34.6595 
G01 X30.0076 Y34.8356 
G01 X29.9017 Y34.9941 
G01 X29.7669 Y35.1289 
G01 X29.6084 Y35.2348 
G01 X29.4322 Y35.3077 
G01 X29.2453 Y35.3449 
G01 X29.0547 Y35.3449 
G01 X28.8677 Y35.3077 
G01 X28.6916 Y35.2348 
G01 X28.5331 Y35.1289 
G01 X28.3983 Y34.9941 
G01 X28.2924 Y34.8356 
G01 X28.2194 Y34.6595 
G01 X28.1822 Y34.4725 
G01 X28.1822 Y32.8595 
G01 X28.2194 Y32.6725 
G01 X28.2924 Y32.4964 
G01 X28.3983 Y32.3379 
G01 X28.5331 Y32.2031 
G01 X28.6916 Y32.0972 
G01 X28.8677 Y32.0242 
G01 X29.0547 Y31.9871 
G01 X29.2453 Y31.9871 
G01 X29.4322 Y32.0242 
G01 X29.6084 Y32.0972 
G01 X29.7669 Y32.2031 
G01 X29.9017 Y32.3379 
G01 X30.0076 Y32.4964 
G01 X30.0805 Y32.6725 
G01 X30.1177 Y32.8595 
G00 Z0.5080 
G00 X27.5777 Y32.8595 
G01 Z-0.2540 F254.00 
G01 X27.5777 Y34.4725 
G01 X27.5405 Y34.6595 
G01 X27.4676 Y34.8356 
G01 X27.3617 Y34.9941 
G01 X27.2269 Y35.1289 
G01 X27.0684 Y35.2348 
G01 X26.8922 Y35.3077 
G01 X26.7053 Y35.3449 
G01 X26.5146 Y35.3449 
G01 X26.3277 Y35.3077 
G01 X26.1516 Y35.2348 
G01 X25.9931 Y35.1289 
G01 X25.8583 Y34.9941 
G01 X25.7524 Y34.8356 
G01 X25.6794 Y34.6595 
G01 X25.6422 Y34.4725 
G01 X25.6422 Y32.8595 
G01 X25.6794 Y32.6725 
G01 X25.7524 Y32.4964 
G01 X25.8583 Y32.3379 
G01 X25.9931 Y32.2031 
G01 X26.1516 Y32.0972 
G01 X26.3277 Y32.0242 
G01 X26.5146 Y31.9871 
G01 X26.7053 Y31.9871 
G01 X26.8922 Y32.0242 
G01 X27.0684 Y32.0972 
G01 X27.2269 Y32.2031 
G01 X27.3617 Y32.3379 
G01 X27.4676 Y32.4964 
G01 X27.5405 Y32.6725 
G01 X27.5777 Y32.8595 
G00 Z0.5080 
G00 X22.4977 Y32.8595 
G01 Z-0.2540 F254.00 
G01 X22.4977 Y34.4725 
G01 X22.4605 Y34.6595 
G01 X22.3876 Y34.8356 
G01 X22.2817 Y34.9941 
G01 X22.1469 Y35.1289 
G01 X21.9884 Y35.2348 
G01 X21.8122 Y35.3077 
G01 X21.6253 Y35.3449 
G01 X21.4347 Y35.3449 
G01 X21.2477 Y35.3077 
G01 X21.0716 Y35.2348 
G01 X20.9131 Y35.1289 
G01 X20.7783 Y34.9941 
G01 X20.6724 Y34.8356 
G01 X20.5994 Y34.6595 
G01 X20.5622 Y34.4725 
G01 X20.5622 Y32.8595 
G01 X20.5994 Y32.6725 
G01 X20.6724 Y32.4964 
G01 X20.7783 Y32.3379 
G01 X20.9131 Y32.2031 
G01 X21.0716 Y32.0972 
G01 X21.2477 Y32.0242 
G01 X21.4347 Y31.9871 
G01 X21.6253 Y31.9871 
G01 X21.8122 Y32.0242 
G01 X21.9884 Y32.0972 
G01 X22.1469 Y32.2031 
G01 X22.2817 Y32.3379 
G01 X22.3876 Y32.4964 
G01 X22.4605 Y32.6725 
G01 X22.4977 Y32.8595 
G00 Z0.5080 
G00 X25.0377 Y32.8595 
G01 Z-0.2540 F254.00 
G01 X25.0377 Y34.4725 
G01 X25.0005 Y34.6595 
G01 X24.9276 Y34.8356 
G01 X24.8217 Y34.9941 
G01 X24.6869 Y35.1289 
G01 X24.5284 Y35.2348 
G01 X24.3522 Y35.3077 
G01 X24.1653 Y35.3449 
G01 X23.9747 Y35.3449 
G01 X23.7877 Y35.3077 
G01 X23.6116 Y35.2348 
G01 X23.4531 Y35.1289 
G01 X23.3183 Y34.9941 
G01 X23.2124 Y34.8356 
G01 X23.1394 Y34.6595 
G01 X23.1022 Y34.4725 
G01 X23.1022 Y32.8595 
G01 X23.1394 Y32.6725 
G01 X23.2124 Y32.4964 
G01 X23.3183 Y32.3379 
G01 X23.4531 Y32.2031 
G01 X23.6116 Y32.0972 
G01 X23.7877 Y32.0242 
G01 X23.9747 Y31.9871 
G01 X24.1653 Y31.9871 
G01 X24.3522 Y32.0242 
G01 X24.5284 Y32.0972 
G01 X24.6869 Y32.2031 
G01 X24.8217 Y32.3379 
G01 X24.9276 Y32.4964 
G01 X25.0005 Y32.6725 
G01 X25.0377 Y32.8595 
G00 Z0.5080 
G00 X19.9577 Y32.8595 
G01 Z-0.2540 F254.00 
G01 X19.9577 Y34.4725 
G01 X19.9205 Y34.6595 
G01 X19.8476 Y34.8356 
G01 X19.7417 Y34.9941 
G01 X19.6069 Y35.1289 
G01 X19.4484 Y35.2348 
G01 X19.2722 Y35.3077 
G01 X19.0853 Y35.3449 
G01 X18.8947 Y35.3449 
G01 X18.7077 Y35.3077 
G01 X18.5316 Y35.2348 
G01 X18.3731 Y35.1289 
G01 X18.2383 Y34.9941 
G01 X18.1324 Y34.8356 
G01 X18.0594 Y34.6595 
G01 X18.0222 Y34.4725 
G01 X18.0222 Y32.8595 
G01 X18.0594 Y32.6725 
G01 X18.1324 Y32.4964 
G01 X18.2383 Y32.3379 
G01 X18.3731 Y32.2031 
G01 X18.5316 Y32.0972 
G01 X18.7077 Y32.0242 
G01 X18.8947 Y31.9871 
G01 X19.0853 Y31.9871 
G01 X19.2722 Y32.0242 
G01 X19.4484 Y32.0972 
G01 X19.6069 Y32.2031 
G01 X19.7417 Y32.3379 
G01 X19.8476 Y32.4964 
G01 X19.9205 Y32.6725 
G01 X19.9577 Y32.8595 
G00 Z0.5080 
G00 X3.9305 Y43.0717 
G01 Z-0.2540 F254.00 
G01 X3.9305 Y41.4587 
G01 X3.9677 Y41.2717 
G01 X4.0407 Y41.0956 
G01 X4.1466 Y40.9371 
G01 X4.2814 Y40.8023 
G01 X4.4399 Y40.6964 
G01 X4.6160 Y40.6234 
G01 X4.8029 Y40.5862 
G01 X4.9936 Y40.5862 
G01 X5.1805 Y40.6234 
G01 X5.3567 Y40.6964 
G01 X5.5152 Y40.8023 
G01 X5.6499 Y40.9371 
G01 X5.7559 Y41.0956 
G01 X5.8288 Y41.2717 
G01 X5.8660 Y41.4587 
G01 X5.8660 Y43.0717 
G01 X5.8288 Y43.2587 
G01 X5.7559 Y43.4348 
G01 X5.6499 Y43.5933 
G01 X5.5152 Y43.7281 
G01 X5.3567 Y43.8340 
G01 X5.1805 Y43.9069 
G01 X4.9936 Y43.9441 
G01 X4.8029 Y43.9441 
G01 X4.6160 Y43.9069 
G01 X4.4399 Y43.8340 
G01 X4.2814 Y43.7281 
G01 X4.1466 Y43.5933 
G01 X4.0407 Y43.4348 
G01 X3.9677 Y43.2587 
G01 X3.9305 Y43.0717 
G00 Z0.5080 
G00 X6.4705 Y43.0717 
G01 Z-0.2540 F254.00 
G01 X6.4705 Y41.4587 
G01 X6.5077 Y41.2717 
G01 X6.5807 Y41.0956 
G01 X6.6866 Y40.9371 
G01 X6.8214 Y40.8023 
G01 X6.9799 Y40.6964 
G01 X7.1560 Y40.6234 
G01 X7.3429 Y40.5862 
G01 X7.5336 Y40.5862 
G01 X7.7205 Y40.6234 
G01 X7.8967 Y40.6964 
G01 X8.0552 Y40.8023 
G01 X8.1899 Y40.9371 
G01 X8.2959 Y41.0956 
G01 X8.3688 Y41.2717 
G01 X8.4060 Y41.4587 
G01 X8.4060 Y43.0717 
G01 X8.3688 Y43.2587 
G01 X8.2959 Y43.4348 
G01 X8.1899 Y43.5933 
G01 X8.0552 Y43.7281 
G01 X7.8967 Y43.8340 
G01 X7.7205 Y43.9069 
G01 X7.5336 Y43.9441 
G01 X7.3429 Y43.9441 
G01 X7.1560 Y43.9069 
G01 X6.9799 Y43.8340 
G01 X6.8214 Y43.7281 
G01 X6.6866 Y43.5933 
G01 X6.5807 Y43.4348 
G01 X6.5077 Y43.2587 
G01 X6.4705 Y43.0717 
G00 Z0.5080 
G00 X43.5054 Y48.3078 
G01 Z-0.2540 F254.00 
G01 X43.5054 Y49.9208 
G01 X43.4682 Y50.1078 
G01 X43.3953 Y50.2839 
G01 X43.2893 Y50.4424 
G01 X43.1546 Y50.5772 
G01 X42.9961 Y50.6831 
G01 X42.8199 Y50.7561 
G01 X42.6330 Y50.7933 
G01 X42.4423 Y50.7933 
G01 X42.2554 Y50.7561 
G01 X42.0793 Y50.6831 
G01 X41.9208 Y50.5772 
G01 X41.7860 Y50.4424 
G01 X41.6801 Y50.2839 
G01 X41.6071 Y50.1078 
G01 X41.5699 Y49.9208 
G01 X41.5699 Y48.3078 
G01 X41.6071 Y48.1208 
G01 X41.6801 Y47.9447 
G01 X41.7860 Y47.7862 
G01 X41.9208 Y47.6514 
G01 X42.0793 Y47.5455 
G01 X42.2554 Y47.4726 
G01 X42.4423 Y47.4354 
G01 X42.6330 Y47.4354 
G01 X42.8199 Y47.4726 
G01 X42.9961 Y47.5455 
G01 X43.1546 Y47.6514 
G01 X43.2893 Y47.7862 
G01 X43.3953 Y47.9447 
G01 X43.4682 Y48.1208 
G01 X43.5054 Y48.3078 
G00 Z0.5080 
G00 X40.9654 Y48.3078 
G01 Z-0.2540 F254.00 
G01 X40.9654 Y49.9208 
G01 X40.9282 Y50.1078 
G01 X40.8553 Y50.2839 
G01 X40.7493 Y50.4424 
G01 X40.6146 Y50.5772 
G01 X40.4561 Y50.6831 
