( This gcode generated by /Users/marcosfernandocosta/Applications/EAGLE-9.0.0/ulp/pcb-gcode.ulp )
( Copyright 2005 by John Johnson. See readme.txt for licensing terms. )

( This file generated from the board /Users/marcosfernandocosta/Documents/eagle/ESP-Coffe/ESP-Coffee/schematic.brd )
( This file generated 06/07/18 18:40 )

G21

G90
G00 Z0.1016 
G00 X0 Y0
M03
G04 P3.000000
G00 Z0.5080 
G00 X-5.1026 Y30.9050 
G01 Z-0.2540 F254.00 
G01 X-4.7124 Y30.7434 
G01 X-4.2902 Y30.7434 
G01 X-3.9000 Y30.9050 
G01 X-3.6014 Y31.2036 
G01 X-3.4398 Y31.5937 
G01 X-3.4398 Y32.0160 
G01 X-3.6014 Y32.4061 
G01 X-3.9000 Y32.7047 
G01 X-4.2902 Y32.8663 
G01 X-4.7124 Y32.8663 
G01 X-5.1026 Y32.7047 
G01 X-5.4012 Y32.4061 
G01 X-5.5628 Y32.0160 
G01 X-5.5628 Y31.5937 
G01 X-5.4012 Y31.2036 
G01 X-5.1026 Y30.9050 
G00 Z0.5080 
G00 X-45.2666 Y74.5412 
G01 Z-0.2540 F254.00 
G01 X-44.8765 Y74.3796 
G01 X-44.4542 Y74.3796 
G01 X-44.0641 Y74.5412 
G01 X-43.7655 Y74.8398 
G01 X-43.6039 Y75.2299 
G01 X-43.6039 Y75.6522 
G01 X-43.7655 Y76.0423 
G01 X-44.0641 Y76.3409 
G01 X-44.4542 Y76.5025 
G01 X-44.8765 Y76.5025 
G01 X-45.2666 Y76.3409 
G01 X-45.5652 Y76.0423 
G01 X-45.7268 Y75.6522 
G01 X-45.7268 Y75.2299 
G01 X-45.5652 Y74.8398 
G01 X-45.2666 Y74.5412 
G00 Z0.5080 
G00 X-5.3877 Y75.2575 
G01 Z-0.2540 F254.00 
G01 X-4.9976 Y75.0959 
G01 X-4.5753 Y75.0959 
G01 X-4.1852 Y75.2575 
G01 X-3.8866 Y75.5561 
G01 X-3.7250 Y75.9462 
G01 X-3.7250 Y76.3685 
G01 X-3.8866 Y76.7587 
G01 X-4.1852 Y77.0572 
G01 X-4.5753 Y77.2188 
G01 X-4.9976 Y77.2188 
G01 X-5.3877 Y77.0572 
G01 X-5.6863 Y76.7587 
G01 X-5.8479 Y76.3685 
G01 X-5.8479 Y75.9462 
G01 X-5.6863 Y75.5561 
G01 X-5.3877 Y75.2575 
G00 Z0.5080 
G00 X-17.1478 Y45.8925 
G01 Z-0.2540 F254.00 
G01 X-17.1175 Y46.0451 
G01 X-17.0579 Y46.1889 
G01 X-16.9715 Y46.3182 
G01 X-16.8614 Y46.4283 
G01 X-16.7321 Y46.5147 
G01 X-16.5883 Y46.5743 
G01 X-16.4357 Y46.6046 
G01 X-16.2801 Y46.6046 
G01 X-16.1275 Y46.5743 
G01 X-16.0670 Y46.5492 
G01 X-16.0812 Y46.5635 
G01 X-16.1066 Y46.5854 
G01 X-16.1100 Y46.5923 
G01 X-16.1154 Y46.5977 
G01 X-16.1283 Y46.6286 
G01 X-16.1433 Y46.6585 
G01 X-16.1438 Y46.6662 
G01 X-16.1468 Y46.6733 
G01 X-16.1468 Y46.7068 
G01 X-16.1492 Y46.7402 
G01 X-16.1468 Y46.7475 
G01 X-16.1468 Y46.7552 
G01 X-16.1340 Y46.7861 
G01 X-16.1234 Y46.8179 
G01 X-16.1184 Y46.8237 
G01 X-16.1154 Y46.8308 
G01 X-16.0918 Y46.8544 
G01 X-15.8178 Y47.1712 
G01 X-15.8020 Y47.1948 
G01 X-15.7913 Y47.2019 
G01 X-15.7829 Y47.2116 
G01 X-15.7575 Y47.2244 
G01 X-15.7346 Y47.2396 
G01 X-15.6733 Y47.3308 
G01 X-15.6692 Y47.3430 
G01 X-15.6507 Y47.3645 
G01 X-15.6348 Y47.3881 
G01 X-15.6241 Y47.3952 
G01 X-15.5523 Y47.4783 
G01 X-15.5436 Y47.5044 
G01 X-15.5380 Y47.5323 
G01 X-15.5308 Y47.5429 
G01 X-15.5268 Y47.5551 
G01 X-15.5082 Y47.5766 
G01 X-15.4928 Y47.5994 
G01 X-15.4911 Y47.6082 
G01 X-15.4911 Y47.6286 
G01 X-15.4831 Y47.6479 
G01 X-15.4790 Y47.6684 
G01 X-15.4676 Y47.6853 
G01 X-15.4598 Y47.7042 
G01 X-15.4450 Y47.7190 
G01 X-15.4333 Y47.7363 
G01 X-15.4163 Y47.7476 
G01 X-15.4019 Y47.7621 
G01 X-15.3826 Y47.7701 
G01 X-15.3651 Y47.7816 
G01 X-15.3451 Y47.7856 
G01 X-15.3263 Y47.7934 
G01 X-15.3054 Y47.7934 
G01 X-15.2848 Y47.7974 
G01 X-15.2648 Y47.7934 
G01 X-15.2444 Y47.7934 
G01 X-15.2251 Y47.7854 
G01 X-15.2046 Y47.7813 
G01 X-15.1876 Y47.7699 
G01 X-15.1809 Y47.7671 
G01 X-15.1809 Y48.4635 
G01 X-15.0193 Y48.6252 
G01 X-15.0826 Y48.5989 
G01 X-15.1645 Y48.5989 
G01 X-15.2379 Y48.6294 
G01 X-15.2401 Y48.6303 
G01 X-15.2980 Y48.6881 
G01 X-15.3293 Y48.7638 
G01 X-15.3293 Y50.0624 
G01 X-15.5414 Y50.5746 
G01 X-15.5680 Y50.6014 
G01 X-15.5966 Y50.6300 
G01 X-15.5968 Y50.6303 
G01 X-15.5970 Y50.6306 
G01 X-15.6125 Y50.6683 
G01 X-15.6279 Y50.7056 
G01 X-15.6279 Y50.7060 
G01 X-15.6281 Y50.7064 
G01 X-15.6279 Y50.7472 
G01 X-15.6279 Y50.7874 
G01 X-15.6278 Y50.7878 
G01 X-15.6201 Y52.8739 
G01 X-15.6238 Y52.8887 
G01 X-15.6200 Y52.9144 
G01 X-15.6199 Y52.9404 
G01 X-15.6140 Y52.9545 
G01 X-15.6117 Y52.9697 
G01 X-15.5983 Y52.9919 
G01 X-15.5883 Y53.0159 
G01 X-15.5774 Y53.0267 
G01 X-15.5695 Y53.0398 
G01 X-15.5487 Y53.0553 
G01 X-15.5302 Y53.0736 
G01 X-15.5160 Y53.0794 
G01 X-14.1814 Y54.0665 
G01 X-14.1633 Y54.0846 
G01 X-14.1488 Y54.0906 
G01 X-14.1362 Y54.0999 
G01 X-14.1113 Y54.1061 
G01 X-14.0877 Y54.1159 
G01 X-14.0720 Y54.1159 
G01 X-14.0568 Y54.1197 
G01 X-14.0314 Y54.1159 
G01 X-14.0058 Y54.1159 
G01 X-13.9913 Y54.1099 
G01 X-13.9758 Y54.1076 
G01 X-13.9539 Y54.0944 
G01 X-13.9302 Y54.0846 
G01 X-13.9191 Y54.0735 
G01 X-13.9057 Y54.0654 
G01 X-13.8904 Y54.0448 
G01 X-13.8723 Y54.0267 
G01 X-13.8663 Y54.0122 
G01 X-13.8570 Y53.9996 
G01 X-13.8508 Y53.9748 
G01 X-13.8410 Y53.9511 
G01 X-13.8410 Y53.9354 
G01 X-13.8372 Y53.9202 
G01 X-13.8410 Y53.8949 
G01 X-13.8410 Y52.6887 
G01 X-13.4562 Y52.3040 
G01 X-13.4555 Y52.3036 
G01 X-13.4271 Y52.2749 
G01 X-13.3989 Y52.2466 
G01 X-13.3986 Y52.2459 
G01 X-13.3980 Y52.2453 
G01 X-13.3829 Y52.2081 
G01 X-13.3676 Y52.1710 
G01 X-13.3676 Y52.1702 
G01 X-13.3673 Y52.1695 
G01 X-13.3676 Y52.1293 
G01 X-13.3676 Y52.0892 
G01 X-13.3679 Y52.0884 
G01 X-13.3905 Y49.0895 
G01 X-13.3905 Y49.0493 
G01 X-13.3908 Y49.0485 
G01 X-13.3909 Y49.0477 
G01 X-13.4065 Y49.0108 
G01 X-13.4219 Y48.9737 
G01 X-13.4224 Y48.9731 
G01 X-13.4227 Y48.9724 
G01 X-13.4515 Y48.9440 
G01 X-13.4904 Y48.9052 
G01 X-13.4910 Y48.9036 
G01 X-13.4910 Y48.9036 
G01 X-13.5216 Y48.8299 
G01 X-13.5223 Y48.8280 
G01 X-13.5802 Y48.7702 
G01 X-13.6558 Y48.7388 
G01 X-13.7377 Y48.7388 
G01 X-13.8010 Y48.7651 
G01 X-13.4995 Y48.4635 
G01 X-13.4995 Y47.7670 
G01 X-13.8010 Y47.4655 
G01 X-13.7377 Y47.4917 
G01 X-13.6558 Y47.4917 
G01 X-13.6537 Y47.4908 
G01 X-13.5802 Y47.4604 
G01 X-13.5232 Y47.4034 
G01 X-13.5223 Y47.4025 
G01 X-13.4910 Y47.3269 
G01 X-13.4910 Y47.3269 
G01 X-13.4904 Y47.3254 
G01 X-13.4887 Y47.3237 
G01 X-13.4886 Y47.3237 
G01 X-13.4601 Y47.2951 
G01 X-13.4310 Y47.2660 
G01 X-13.4309 Y47.2658 
G01 X-13.4308 Y47.2657 
G01 X-13.4152 Y47.2279 
G01 X-13.3997 Y47.1904 
G01 X-13.3997 Y47.1902 
G01 X-13.3996 Y47.1900 
G01 X-13.3997 Y47.1485 
G01 X-13.3997 Y47.1085 
G01 X-13.3998 Y47.1084 
G01 X-13.4072 Y43.1673 
G01 X-13.4038 Y43.1388 
G01 X-13.4072 Y43.1268 
G01 X-13.4073 Y43.1143 
G01 X-13.4183 Y43.0877 
G01 X-13.4253 Y43.0631 
G01 X-13.4124 Y42.9521 
G01 X-13.4076 Y42.9405 
G01 X-13.4077 Y42.9118 
G01 X-13.4043 Y42.8832 
G01 X-13.4077 Y42.8712 
G01 X-13.4079 Y42.7594 
G01 X-13.3982 Y42.7358 
G01 X-13.3842 Y42.7107 
G01 X-13.3827 Y42.6983 
G01 X-13.3780 Y42.6867 
G01 X-13.3780 Y42.6579 
G01 X-13.3751 Y42.6325 
G01 X-13.3206 Y42.5349 
G01 X-13.3118 Y42.5261 
G01 X-13.3008 Y42.4995 
G01 X-13.2868 Y42.4744 
G01 X-13.2854 Y42.4620 
G01 X-13.2428 Y42.3586 
G01 X-13.2247 Y42.3405 
G01 X-13.2022 Y42.3227 
G01 X-13.1961 Y42.3118 
G01 X-13.1873 Y42.3029 
G01 X-13.1763 Y42.2763 
G01 X-13.1639 Y42.2540 
G01 X-13.0762 Y42.1846 
G01 X-13.0647 Y42.1798 
G01 X-13.0444 Y42.1594 
G01 X-13.0218 Y42.1416 
G01 X-13.0157 Y42.1307 
G01 X-12.9369 Y42.0515 
G01 X-12.9132 Y42.0417 
G01 X-12.8856 Y42.0338 
G01 X-12.8758 Y42.0261 
G01 X-12.8642 Y42.0213 
G01 X-12.8439 Y42.0009 
G01 X-10.0861 Y39.8196 
G01 X-10.0678 Y39.8103 
G01 X-10.0543 Y39.7944 
G01 X-10.0380 Y39.7815 
G01 X-10.0280 Y39.7636 
G01 X-10.0147 Y39.7480 
G01 X-10.0082 Y39.7282 
G01 X-9.9981 Y39.7100 
G01 X-9.9957 Y39.6897 
G01 X-9.9894 Y39.6702 
G01 X-9.9910 Y39.6494 
G01 X-9.9886 Y39.6287 
G01 X-9.9942 Y39.6090 
G01 X-9.9958 Y39.5886 
G01 X-10.0053 Y39.5700 
G01 X-10.0110 Y39.5500 
G01 X-10.0237 Y39.5339 
G01 X-10.0330 Y39.5156 
G01 X-10.0488 Y39.5021 
G01 X-10.0617 Y39.4858 
G01 X-10.0796 Y39.4758 
G01 X-10.0913 Y39.4658 
G01 X-9.9798 Y39.4880 
G01 X-9.8041 Y39.4880 
G01 X-9.6319 Y39.4537 
G01 X-9.4696 Y39.3865 
G01 X-9.3236 Y39.2890 
G01 X-9.1994 Y39.1648 
G01 X-9.1019 Y39.0188 
G01 X-9.0347 Y38.8565 
G01 X-9.0004 Y38.6843 
G01 X-9.0004 Y36.9847 
G01 X-9.0347 Y36.8124 
G01 X-9.0816 Y36.6991 
G01 X-9.0667 Y36.7118 
G01 X-9.0435 Y36.7350 
G01 X-9.0358 Y36.7382 
G01 X-9.0294 Y36.7436 
G01 X-8.9982 Y36.7538 
G01 X-8.9679 Y36.7663 
G01 X-8.9595 Y36.7663 
G01 X-8.9516 Y36.7689 
G01 X-8.9189 Y36.7663 
G01 X-8.8860 Y36.7663 
G01 X-8.8783 Y36.7632 
G01 X-8.8700 Y36.7625 
G01 X-8.8407 Y36.7476 
G01 X-8.8104 Y36.7350 
G01 X-8.8045 Y36.7291 
G01 X-8.7971 Y36.7253 
G01 X-8.7757 Y36.7004 
G01 X-8.7525 Y36.6771 
G01 X-8.7493 Y36.6694 
G01 X-8.7439 Y36.6631 
G01 X-8.7338 Y36.6319 
G01 X-8.5772 Y36.2538 
G01 X-8.1706 Y35.8472 
G01 X-7.6394 Y35.6272 
G01 X-7.0645 Y35.6272 
G01 X-6.5333 Y35.8472 
G01 X-6.2564 Y36.1241 
G01 X-6.2564 Y36.1241 
G01 X-6.2045 Y36.1760 
G01 X-6.1985 Y36.1820 
G01 X-6.1229 Y36.2133 
G01 X-6.0410 Y36.2133 
G01 X-5.9676 Y36.1829 
G01 X-5.9654 Y36.1820 
G01 X-5.9075 Y36.1241 
G01 X-5.6306 Y35.8472 
G01 X-5.0994 Y35.6272 
G01 X-4.5245 Y35.6272 
G01 X-3.9933 Y35.8472 
G01 X-3.5867 Y36.2538 
G01 X-3.3667 Y36.7850 
G01 X-3.3667 Y38.8839 
G01 X-3.5867 Y39.4151 
G01 X-3.6962 Y39.5246 
G01 X-3.7242 Y39.5516 
G01 X-3.7250 Y39.5535 
G01 X-3.7265 Y39.5549 
G01 X-3.7414 Y39.5910 
G01 X-3.7570 Y39.6266 
G01 X-3.7570 Y39.6286 
G01 X-3.7578 Y39.6305 
G01 X-3.7578 Y39.6695 
G01 X-3.7755 Y40.5758 
G01 X-3.7763 Y40.5778 
G01 X-3.7763 Y40.6166 
G01 X-3.7770 Y40.6556 
G01 X-3.7763 Y40.6575 
G01 X-3.7763 Y40.6596 
G01 X-3.7614 Y40.6955 
G01 X-3.7472 Y40.7318 
G01 X-3.7457 Y40.7333 
G01 X-3.7449 Y40.7352 
G01 X-3.7174 Y40.7627 
G01 X-3.7160 Y40.7642 
G01 X-3.5038 Y41.2766 
G01 X-3.5038 Y43.2538 
G01 X-3.7161 Y43.7663 
G01 X-3.7755 Y43.8257 
G01 X-3.8037 Y43.8529 
G01 X-3.8044 Y43.8546 
G01 X-3.8057 Y43.8559 
G01 X-3.8207 Y43.8920 
G01 X-3.8363 Y43.9280 
G01 X-3.8363 Y43.9298 
G01 X-3.8370 Y43.9315 
G01 X-3.8370 Y43.9706 
G01 X-3.8864 Y46.9212 
G01 X-3.8871 Y46.9229 
G01 X-3.8871 Y46.9621 
G01 X-3.8877 Y47.0013 
G01 X-3.8871 Y47.0030 
G01 X-3.8871 Y47.0048 
G01 X-3.8721 Y47.0410 
G01 X-3.8577 Y47.0774 
G01 X-3.8564 Y47.0787 
G01 X-3.8557 Y47.0804 
G01 X-3.8280 Y47.1081 
G01 X-3.8102 Y47.1265 
G01 X-3.5984 Y47.6380 
G01 X-3.5984 Y48.1927 
G01 X-3.8107 Y48.7052 
G01 X-3.8585 Y48.7531 
G01 X-3.8867 Y48.7803 
G01 X-3.8874 Y48.7820 
G01 X-3.8887 Y48.7833 
G01 X-3.9037 Y48.8194 
G01 X-3.9193 Y48.8554 
G01 X-3.9193 Y48.8572 
G01 X-3.9201 Y48.8589 
G01 X-3.9201 Y48.8981 
G01 X-3.9402 Y50.0582 
G01 X-3.9409 Y50.0599 
G01 X-3.9409 Y50.0991 
G01 X-3.9416 Y50.1382 
G01 X-3.9409 Y50.1399 
G01 X-3.9409 Y50.1418 
G01 X-3.9259 Y50.1779 
G01 X-3.9116 Y50.2143 
G01 X-3.9103 Y50.2157 
G01 X-3.9096 Y50.2174 
G01 X-3.8819 Y50.2450 
G01 X-3.8547 Y50.2732 
G01 X-3.8530 Y50.2739 
G01 X-3.6559 Y50.4711 
G01 X-3.4049 Y51.0769 
G01 X-3.4049 Y51.7327 
G01 X-3.6559 Y52.3386 
G01 X-4.1196 Y52.8023 
G01 X-4.7255 Y53.0533 
G01 X-5.3813 Y53.0533 
G01 X-5.9871 Y52.8023 
G01 X-6.4509 Y52.3386 
G01 X-6.7018 Y51.7327 
G01 X-6.7018 Y51.0769 
G01 X-6.4509 Y50.4711 
G01 X-6.1813 Y50.2015 
G01 X-6.1532 Y50.1743 
G01 X-6.1524 Y50.1726 
G01 X-6.1511 Y50.1713 
G01 X-6.1361 Y50.1351 
G01 X-6.1205 Y50.0993 
G01 X-6.1205 Y50.0974 
G01 X-6.1198 Y50.0957 
G01 X-6.1198 Y50.0566 
G01 X-6.0999 Y48.9089 
G01 X-6.0992 Y48.9072 
G01 X-6.0992 Y48.8680 
G01 X-6.0985 Y48.8289 
G01 X-6.0992 Y48.8272 
G01 X-6.0992 Y48.8253 
G01 X-6.1142 Y48.7891 
G01 X-6.1285 Y48.7528 
G01 X-6.1298 Y48.7514 
G01 X-6.1305 Y48.7497 
G01 X-6.1582 Y48.7220 
G01 X-6.1754 Y48.7042 
G01 X-6.1756 Y48.7037 
G01 X-6.1756 Y48.7037 
G01 X-6.1995 Y48.6462 
G01 X-6.2069 Y48.6281 
G01 X-6.2070 Y48.6281 
G01 X-6.2070 Y48.6281 
G01 X-6.2639 Y48.5711 
G01 X-6.2648 Y48.5702 
G01 X-6.2648 Y48.5702 
G01 X-6.2955 Y48.5575 
G01 X-6.3404 Y48.5389 
G01 X-6.4223 Y48.5389 
G01 X-6.4840 Y48.5645 
G01 X-6.4856 Y48.5651 
G01 X-6.1841 Y48.2636 
G01 X-6.1841 Y47.5671 
G01 X-6.4857 Y47.2655 
G01 X-6.4223 Y47.2918 
G01 X-6.3404 Y47.2918 
G01 X-6.2968 Y47.2737 
G01 X-6.2648 Y47.2605 
G01 X-6.2070 Y47.2026 
G01 X-6.2070 Y47.2026 
G01 X-6.2069 Y47.2026 
G01 X-6.2004 Y47.1868 
G01 X-6.1756 Y47.1270 
G01 X-6.1756 Y47.1270 
G01 X-6.1750 Y47.1254 
G01 X-6.1277 Y47.0781 
G01 X-6.0995 Y47.0509 
G01 X-6.0988 Y47.0492 
G01 X-6.0975 Y47.0480 
G01 X-6.0825 Y47.0118 
G01 X-6.0669 Y46.9758 
G01 X-6.0669 Y46.9740 
G01 X-6.0662 Y46.9724 
G01 X-6.0662 Y46.9332 
G01 X-6.0164 Y43.9588 
G01 X-6.0157 Y43.9571 
G01 X-6.0157 Y43.9179 
G01 X-6.0151 Y43.8787 
G01 X-6.0157 Y43.8770 
G01 X-6.0157 Y43.8752 
G01 X-6.0307 Y43.8391 
G01 X-6.0451 Y43.8026 
G01 X-6.0464 Y43.8013 
G01 X-6.0471 Y43.7996 
G01 X-6.0748 Y43.7719 
G01 X-6.0806 Y43.7659 
G01 X-6.2669 Y43.3161 
G01 X-6.2676 Y43.3077 
G01 X-6.2825 Y43.2785 
G01 X-6.2950 Y43.2482 
G01 X-6.3009 Y43.2423 
G01 X-6.3047 Y43.2348 
G01 X-6.3297 Y43.2135 
G01 X-6.3529 Y43.1903 
G01 X-6.3606 Y43.1871 
G01 X-6.3670 Y43.1817 
G01 X-6.3982 Y43.1715 
G01 X-6.4285 Y43.1590 
G01 X-6.4369 Y43.1590 
G01 X-6.4448 Y43.1564 
G01 X-6.4775 Y43.1590 
G01 X-6.5104 Y43.1590 
G01 X-6.5181 Y43.1622 
G01 X-6.5264 Y43.1628 
G01 X-6.5557 Y43.1777 
G01 X-6.5860 Y43.1903 
G01 X-6.5919 Y43.1962 
G01 X-6.5993 Y43.2000 
G01 X-6.6207 Y43.2250 
G01 X-6.6387 Y43.2430 
G01 X-6.6298 Y43.2216 
G01 X-6.5975 Y43.0592 
G01 X-6.5975 Y41.4712 
G01 X-6.6298 Y41.3087 
G01 X-6.6932 Y41.1557 
G01 X-6.7852 Y41.0180 
G01 X-6.9023 Y40.9009 
G01 X-7.0400 Y40.8089 
G01 X-7.1930 Y40.7456 
G01 X-7.3554 Y40.7132 
G01 X-7.5211 Y40.7132 
G01 X-7.6835 Y40.7456 
G01 X-7.8365 Y40.8089 
G01 X-7.9742 Y40.9009 
G01 X-8.0913 Y41.0180 
G01 X-8.1833 Y41.1557 
G01 X-8.2467 Y41.3087 
G01 X-8.2790 Y41.4712 
G01 X-8.2790 Y41.5367 
G01 X-8.2850 Y41.5222 
G01 X-8.2929 Y41.4943 
G01 X-8.3005 Y41.4847 
G01 X-8.3052 Y41.4733 
G01 X-8.3257 Y41.4528 
G01 X-8.3437 Y41.4301 
G01 X-8.3544 Y41.4241 
G01 X-8.3631 Y41.4154 
G01 X-8.3899 Y41.4044 
G01 X-8.4152 Y41.3903 
G01 X-8.4274 Y41.3888 
G01 X-8.4387 Y41.3841 
G01 X-8.4677 Y41.3841 
G01 X-8.4965 Y41.3808 
G01 X-8.5083 Y41.3841 
G01 X-8.5206 Y41.3841 
G01 X-8.5473 Y41.3952 
G01 X-8.5752 Y41.4031 
G01 X-8.5848 Y41.4107 
G01 X-8.5962 Y41.4154 
G01 X-8.6167 Y41.4359 
G01 X-11.1266 Y43.4212 
G01 X-11.1382 Y43.4260 
G01 X-11.1585 Y43.4464 
G01 X-11.1810 Y43.4642 
G01 X-11.1871 Y43.4752 
G01 X-11.1959 Y43.4840 
G01 X-11.2069 Y43.5106 
G01 X-11.2209 Y43.5357 
G01 X-11.2224 Y43.5481 
G01 X-11.2271 Y43.5597 
G01 X-11.2271 Y43.5885 
G01 X-11.2304 Y43.6170 
G01 X-11.2270 Y43.6290 
G01 X-11.2204 Y47.1456 
G01 X-11.2204 Y47.1868 
G01 X-11.2203 Y47.1869 
G01 X-11.2203 Y47.1871 
G01 X-11.2047 Y47.2247 
G01 X-11.1890 Y47.2624 
G01 X-11.1889 Y47.2625 
G01 X-11.1888 Y47.2627 
G01 X-11.1596 Y47.2918 
G01 X-11.1260 Y47.3254 
G01 X-10.9137 Y47.8379 
G01 X-10.9137 Y48.3927 
G01 X-11.1258 Y48.9045 
G01 X-11.1515 Y48.9307 
G01 X-11.1799 Y48.9591 
G01 X-11.1802 Y48.9598 
G01 X-11.1808 Y48.9604 
G01 X-11.1958 Y48.9974 
G01 X-11.2113 Y49.0347 
G01 X-11.2113 Y49.0355 
G01 X-11.2116 Y49.0362 
G01 X-11.2113 Y49.0764 
G01 X-11.2113 Y49.1165 
G01 X-11.2110 Y49.1173 
G01 X-11.1883 Y52.1122 
G01 X-11.1883 Y52.1526 
G01 X-11.1880 Y52.1534 
G01 X-11.1880 Y52.1542 
G01 X-11.1724 Y52.1911 
G01 X-11.1570 Y52.2282 
G01 X-11.1564 Y52.2288 
G01 X-11.1561 Y52.2295 
G01 X-11.1276 Y52.2576 
G01 X-11.0888 Y52.2964 
G01 X-11.0673 Y52.3215 
G01 X-11.0600 Y52.3252 
G01 X-11.0543 Y52.3310 
G01 X-11.0238 Y52.3436 
G01 X-10.9943 Y52.3585 
G01 X-10.9862 Y52.3592 
G01 X-10.9786 Y52.3623 
G01 X-10.9456 Y52.3623 
G01 X-9.7274 Y52.4562 
G01 X-9.7004 Y52.4619 
G01 X-9.6870 Y52.4594 
G01 X-9.6734 Y52.4604 
G01 X-9.6471 Y52.4518 
G01 X-9.6159 Y52.4459 
G01 X-9.5124 Y52.4676 
G01 X-9.5003 Y52.4737 
G01 X-9.4727 Y52.4759 
G01 X-9.4457 Y52.4815 
G01 X-9.4322 Y52.4790 
G01 X-9.3268 Y52.4871 
G01 X-9.2985 Y52.5015 
G01 X-9.2757 Y52.5170 
G01 X-9.2624 Y52.5198 
G01 X-9.2502 Y52.5260 
G01 X-9.2226 Y52.5281 
G01 X-9.1916 Y52.5346 
G01 X-9.1043 Y52.5942 
G01 X-9.0954 Y52.6046 
G01 X-9.0707 Y52.6171 
G01 X-9.0479 Y52.6327 
G01 X-9.0346 Y52.6354 
G01 X-8.9402 Y52.6833 
G01 X-8.9196 Y52.7074 
G01 X-8.9045 Y52.7305 
G01 X-8.8932 Y52.7382 
G01 X-8.8844 Y52.7485 
G01 X-8.8597 Y52.7610 
G01 X-8.8335 Y52.7789 
G01 X-8.7756 Y52.8674 
G01 X-8.7714 Y52.8804 
G01 X-8.7534 Y52.9014 
G01 X-8.7383 Y52.9245 
G01 X-8.7270 Y52.9322 
G01 X-8.6582 Y53.0125 
G01 X-8.6483 Y53.0426 
G01 X-8.6432 Y53.0698 
G01 X-8.6357 Y53.0812 
G01 X-8.6315 Y53.0941 
G01 X-8.6135 Y53.1151 
G01 X-8.1593 Y53.8094 
G01 X-8.1510 Y53.8294 
G01 X-8.1371 Y53.8433 
G01 X-8.1263 Y53.8598 
G01 X-8.1084 Y53.8720 
G01 X-8.0931 Y53.8873 
G01 X-8.0749 Y53.8948 
G01 X-8.0587 Y53.9059 
G01 X-8.0375 Y53.9103 
G01 X-8.0175 Y53.9186 
G01 X-7.9978 Y53.9186 
G01 X-7.9786 Y53.9226 
G01 X-7.9573 Y53.9186 
G01 X-7.4890 Y53.9186 
G01 X-6.9765 Y54.1309 
G01 X-6.5842 Y54.5232 
G01 X-6.3719 Y55.0357 
G01 X-6.3719 Y55.5905 
G01 X-6.5842 Y56.1030 
G01 X-6.8899 Y56.4087 
G01 X-6.8899 Y56.4087 
G01 X-6.9413 Y56.4600 
G01 X-6.9478 Y56.4665 
G01 X-6.9791 Y56.5422 
G01 X-6.9791 Y56.6240 
G01 X-6.9487 Y56.6975 
G01 X-6.9478 Y56.6996 
G01 X-6.8899 Y56.7575 
G01 X-6.5842 Y57.0632 
G01 X-6.3719 Y57.5757 
G01 X-6.3719 Y58.1305 
G01 X-6.5842 Y58.6430 
G01 X-6.9765 Y59.0352 
G01 X-7.4890 Y59.2475 
G01 X-8.0256 Y59.2475 
G01 X-8.0407 Y59.2438 
G01 X-8.0661 Y59.2475 
G01 X-8.0918 Y59.2475 
G01 X-8.1062 Y59.2535 
G01 X-8.1217 Y59.2558 
G01 X-8.1437 Y59.2690 
G01 X-8.1674 Y59.2789 
G01 X-8.1784 Y59.2899 
G01 X-8.1918 Y59.2979 
G01 X-8.2071 Y59.3186 
G01 X-8.2253 Y59.3367 
G01 X-8.2313 Y59.3512 
G01 X-8.4350 Y59.6261 
G01 X-8.4531 Y59.6443 
G01 X-8.4591 Y59.6587 
G01 X-8.4684 Y59.6712 
G01 X-8.4746 Y59.6962 
G01 X-8.4845 Y59.7199 
G01 X-8.4845 Y59.7355 
G01 X-8.4882 Y59.7506 
G01 X-8.4845 Y59.7761 
G01 X-8.4845 Y63.1691 
G01 X-8.4853 Y63.1713 
G01 X-8.4845 Y63.2099 
G01 X-8.4845 Y63.2485 
G01 X-8.4835 Y63.2507 
G01 X-8.4799 Y63.4128 
G01 X-8.4845 Y63.4238 
G01 X-8.4845 Y63.4262 
G01 X-8.4853 Y63.4284 
G01 X-8.4851 Y63.4403 
G01 X-8.5471 Y63.5901 
G01 X-8.5488 Y63.5918 
G01 X-8.5627 Y63.6278 
G01 X-8.5775 Y63.6635 
G01 X-8.5775 Y63.6659 
G01 X-8.6362 Y63.8170 
G01 X-8.6446 Y63.8254 
G01 X-8.6455 Y63.8276 
G01 X-8.6472 Y63.8294 
G01 X-8.6515 Y63.8404 
G01 X-8.7661 Y63.9551 
G01 X-8.7683 Y63.9560 
G01 X-8.7949 Y63.9839 
G01 X-8.8223 Y64.0112 
G01 X-8.8232 Y64.0134 
G01 X-10.6379 Y65.9112 
G01 X-10.6652 Y65.9385 
G01 X-10.6661 Y65.9407 
G01 X-10.6677 Y65.9424 
G01 X-10.6817 Y65.9784 
G01 X-10.6965 Y66.0141 
G01 X-10.6965 Y66.0165 
G01 X-10.6973 Y66.0187 
G01 X-10.6965 Y66.0573 
G01 X-10.6965 Y66.6912 
G01 X-11.1987 Y67.1935 
G01 X-11.2300 Y67.2691 
G01 X-11.2300 Y67.3509 
G01 X-11.1987 Y67.4265 
G01 X-11.1408 Y67.4844 
G01 X-11.1408 Y67.4844 
G01 X-10.6965 Y67.9287 
G01 X-10.6965 Y69.2312 
G01 X-10.8804 Y69.4152 
G01 X-10.8804 Y69.4152 
G01 X-10.9113 Y69.4461 
G01 X-10.9383 Y69.4731 
G01 X-10.9696 Y69.5487 
G01 X-10.9696 Y69.6305 
G01 X-10.9383 Y69.7062 
G01 X-10.8005 Y69.8440 
G01 X-10.6965 Y70.0951 
G01 X-10.6965 Y72.1449 
G01 X-10.8005 Y72.3960 
G01 X-10.9927 Y72.5882 
G01 X-11.2438 Y72.6923 
G01 X-13.2937 Y72.6923 
G01 X-13.5448 Y72.5882 
G01 X-13.7370 Y72.3960 
G01 X-13.8410 Y72.1449 
G01 X-13.8410 Y70.0975 
G01 X-13.8393 Y70.0911 
G01 X-13.8292 Y70.0666 
G01 X-13.8292 Y70.0518 
G01 X-13.8255 Y70.0376 
G01 X-13.8292 Y70.0113 
G01 X-13.8292 Y69.9847 
G01 X-13.8348 Y69.9711 
G01 X-13.8369 Y69.9565 
G01 X-13.8503 Y69.9336 
G01 X-13.8605 Y69.9091 
G01 X-13.8709 Y69.8987 
G01 X-13.8784 Y69.8860 
G01 X-13.8996 Y69.8700 
G01 X-13.9184 Y69.8512 
G01 X-13.9320 Y69.8456 
G01 X-13.9438 Y69.8367 
G01 X-13.9695 Y69.8301 
G01 X-13.9940 Y69.8199 
G01 X-14.0063 Y69.8199 
G01 X-14.0296 Y69.8123 
G01 X-14.0361 Y69.8128 
G01 X-14.0423 Y69.8112 
G01 X-14.0710 Y69.8153 
G01 X-14.2061 Y69.7714 
G01 X-14.2113 Y69.7675 
G01 X-14.2449 Y69.7588 
G01 X-14.2779 Y69.7481 
G01 X-14.2843 Y69.7487 
G01 X-14.4218 Y69.7131 
G01 X-14.4438 Y69.6943 
G01 X-14.4500 Y69.6923 
G01 X-14.4551 Y69.6884 
G01 X-14.4832 Y69.6812 
G01 X-14.5912 Y69.5889 
G01 X-14.5945 Y69.5834 
G01 X-14.6222 Y69.5625 
G01 X-14.6486 Y69.5400 
G01 X-14.6547 Y69.5380 
G01 X-27.4246 Y59.9161 
G01 X-27.4432 Y59.8974 
G01 X-27.4570 Y59.8917 
G01 X-27.4691 Y59.8826 
G01 X-27.4945 Y59.8760 
G01 X-27.5306 Y59.8610 
G01 X-27.6000 Y59.7911 
G01 X-27.6076 Y59.7782 
G01 X-27.6286 Y59.7624 
G01 X-27.6471 Y59.7438 
G01 X-27.6610 Y59.7380 
G01 X-27.7396 Y59.6787 
G01 X-27.7595 Y59.6450 
G01 X-27.7695 Y59.6207 
G01 X-27.7801 Y59.6101 
G01 X-27.7877 Y59.5971 
G01 X-27.8087 Y59.5813 
G01 X-27.8363 Y59.5536 
G01 X-27.8737 Y59.4625 
G01 X-27.8758 Y59.4476 
G01 X-27.8891 Y59.4250 
G01 X-27.8991 Y59.4007 
G01 X-27.9097 Y59.3901 
G01 X-27.9486 Y59.3240 
G01 X-27.9518 Y59.3119 
G01 X-27.9692 Y59.2890 
G01 X-27.9839 Y59.2642 
G01 X-27.9938 Y59.2567 
G01 X-28.0013 Y59.2468 
G01 X-28.0262 Y59.2322 
G01 X-28.0492 Y59.2149 
G01 X-28.0613 Y59.2118 
G01 X-28.0720 Y59.2055 
G01 X-28.1006 Y59.2016 
G01 X-28.1285 Y59.1944 
G01 X-28.1408 Y59.1961 
G01 X-28.1531 Y59.1945 
G01 X-28.1810 Y59.2018 
G01 X-28.2095 Y59.2058 
G01 X-28.2202 Y59.2121 
G01 X-28.2323 Y59.2153 
G01 X-28.2552 Y59.2327 
G01 X-28.2800 Y59.2474 
G01 X-28.2875 Y59.2573 
G01 X-28.2974 Y59.2648 
G01 X-28.3120 Y59.2897 
G01 X-28.3293 Y59.3127 
G01 X-28.3324 Y59.3248 
G01 X-28.3387 Y59.3355 
G01 X-28.3426 Y59.3641 
G01 X-28.3498 Y59.3920 
G01 X-28.3481 Y59.4043 
G01 X-28.3497 Y59.4165 
G01 X-28.4006 Y59.5036 
G01 X-28.4109 Y59.5140 
G01 X-28.4210 Y59.5387 
G01 X-28.4345 Y59.5617 
G01 X-28.4365 Y59.5762 
G01 X-28.4749 Y59.6695 
G01 X-28.5007 Y59.6955 
G01 X-28.5220 Y59.7116 
G01 X-28.5293 Y59.7242 
G01 X-28.5396 Y59.7346 
G01 X-28.5498 Y59.7593 
G01 X-28.5682 Y59.7909 
G01 X-28.6486 Y59.8520 
G01 X-28.6620 Y59.8576 
G01 X-28.6809 Y59.8765 
G01 X-28.7021 Y59.8927 
G01 X-28.7095 Y59.9052 
G01 X-28.7807 Y59.9768 
G01 X-28.8145 Y59.9909 
G01 X-28.8403 Y59.9976 
G01 X-28.8519 Y60.0065 
G01 X-28.8654 Y60.0121 
G01 X-28.8842 Y60.0310 
G01 X-37.6546 Y66.6957 
G01 X-37.6738 Y66.7051 
G01 X-37.6869 Y66.7202 
G01 X-37.7028 Y66.7322 
G01 X-37.7135 Y66.7507 
G01 X-37.7564 Y66.7997 
G01 X-37.8215 Y66.8320 
G01 X-37.8408 Y66.8371 
G01 X-37.8578 Y66.8500 
G01 X-37.8769 Y66.8595 
G01 X-37.8901 Y66.8746 
G01 X-37.9479 Y66.9185 
G01 X-38.0109 Y66.9351 
G01 X-38.0322 Y66.9365 
G01 X-38.0501 Y66.9454 
G01 X-38.0694 Y66.9505 
G01 X-38.0864 Y66.9634 
G01 X-38.1447 Y66.9923 
G01 X-38.2173 Y66.9972 
G01 X-38.2370 Y66.9945 
G01 X-38.2577 Y67.0000 
G01 X-38.2790 Y67.0014 
G01 X-38.2969 Y67.0103 
G01 X-38.3672 Y67.0288 
G01 X-38.4317 Y67.0200 
G01 X-38.4519 Y67.0131 
G01 X-38.4718 Y67.0145 
G01 X-38.4916 Y67.0118 
G01 X-38.5123 Y67.0172 
G01 X-38.9112 Y67.0443 
G01 X-38.9452 Y67.0443 
G01 X-38.9518 Y67.0470 
G01 X-38.9590 Y67.0475 
G01 X-38.9894 Y67.0626 
G01 X-39.0208 Y67.0756 
G01 X-39.0259 Y67.0807 
G01 X-39.0323 Y67.0838 
G01 X-39.0547 Y67.1094 
G01 X-39.1387 Y67.1935 
G01 X-39.1574 Y67.2387 
G01 X-39.1700 Y67.2691 
G01 X-39.1700 Y67.3509 
G01 X-39.1472 Y67.4059 
G01 X-39.1387 Y67.4265 
G01 X-39.1387 Y67.4265 
G01 X-39.1387 Y67.4265 
G01 X-39.0808 Y67.4844 
G01 X-39.0808 Y67.4844 
G01 X-38.6365 Y67.9287 
G01 X-38.6365 Y69.2312 
G01 X-38.8204 Y69.4152 
G01 X-38.8204 Y69.4152 
G01 X-38.8513 Y69.4461 
G01 X-38.8783 Y69.4731 
G01 X-38.9096 Y69.5487 
G01 X-38.9096 Y69.6305 
G01 X-38.8783 Y69.7062 
G01 X-38.7405 Y69.8440 
G01 X-38.6365 Y70.0951 
G01 X-38.6365 Y72.1449 
G01 X-38.7405 Y72.3960 
G01 X-38.9327 Y72.5882 
G01 X-39.1838 Y72.6923 
G01 X-41.2337 Y72.6923 
G01 X-41.4848 Y72.5882 
G01 X-41.6504 Y72.4226 
G01 X-41.6504 Y72.4226 
G01 X-41.7039 Y72.3691 
G01 X-41.7083 Y72.3648 
G01 X-41.7839 Y72.3334 
G01 X-41.8657 Y72.3334 
G01 X-42.4220 Y72.5639 
G01 X-44.3991 Y72.5639 
G01 X-44.9117 Y72.3516 
G01 X-45.3039 Y71.9593 
G01 X-45.5162 Y71.4468 
G01 X-45.5162 Y70.8920 
G01 X-45.3039 Y70.3795 
G01 X-44.9982 Y70.0738 
G01 X-44.9982 Y70.0738 
G01 X-44.9469 Y70.0224 
G01 X-44.9404 Y70.0159 
G01 X-44.9090 Y69.9403 
G01 X-44.9090 Y69.8585 
G01 X-44.9395 Y69.7850 
G01 X-44.9404 Y69.7829 
G01 X-44.9982 Y69.7250 
G01 X-45.3039 Y69.4193 
G01 X-45.5162 Y68.9068 
G01 X-45.5162 Y68.3520 
G01 X-45.3039 Y67.8395 
G01 X-44.9117 Y67.4472 
G01 X-44.4615 Y67.2607 
G01 X-44.4531 Y67.2601 
G01 X-44.4239 Y67.2452 
G01 X-44.3936 Y67.2326 
G01 X-44.3877 Y67.2267 
G01 X-44.3802 Y67.2229 
G01 X-44.3589 Y67.1979 
G01 X-44.3357 Y67.1747 
G01 X-44.3325 Y67.1670 
G01 X-44.3271 Y67.1607 
G01 X-44.3169 Y67.1294 
G01 X-44.3044 Y67.0991 
G01 X-44.3044 Y67.0908 
G01 X-44.3018 Y67.0828 
G01 X-44.3044 Y67.0501 
G01 X-44.3044 Y67.0173 
G01 X-44.3076 Y67.0096 
G01 X-44.3082 Y67.0012 
G01 X-44.3231 Y66.9720 
G01 X-44.3357 Y66.9417 
G01 X-44.3416 Y66.9358 
G01 X-44.3454 Y66.9283 
G01 X-44.3704 Y66.9070 
G01 X-44.3884 Y66.8890 
G01 X-44.3670 Y66.8978 
G01 X-44.2046 Y66.9301 
G01 X-42.6166 Y66.9301 
G01 X-42.4541 Y66.8978 
G01 X-42.3011 Y66.8345 
G01 X-42.1634 Y66.7424 
G01 X-42.0463 Y66.6253 
G01 X-41.9543 Y66.4876 
G01 X-41.8909 Y66.3346 
G01 X-41.8586 Y66.1722 
G01 X-41.8586 Y66.0066 
G01 X-41.8909 Y65.8442 
G01 X-41.9543 Y65.6912 
G01 X-42.0463 Y65.5535 
G01 X-42.0910 Y65.5087 
G01 X-42.0469 Y65.5270 
G01 X-42.0277 Y65.5350 
G01 X-42.0277 Y65.5350 
G01 X-42.0277 Y65.5350 
G01 X-41.9872 Y65.5350 
G01 X-41.9458 Y65.5350 
G01 X-41.9458 Y65.5350 
G01 X-41.9458 Y65.5350 
G01 X-41.9335 Y65.5299 
G01 X-41.8702 Y65.5037 
G01 X-41.8123 Y65.4458 
G01 X-41.8123 Y65.4458 
G01 X-41.8123 Y65.4458 
G01 X-41.7941 Y65.4019 
G01 X-41.3367 Y64.9444 
G01 X-41.2879 Y64.8957 
G01 X-41.2788 Y64.8865 
G01 X-41.2475 Y64.8109 
G01 X-41.2475 Y64.7291 
G01 X-41.2779 Y64.6556 
G01 X-41.2788 Y64.6535 
G01 X-41.3367 Y64.5956 
G01 X-41.7810 Y64.1512 
G01 X-41.7810 Y63.2277 
G01 X-41.8123 Y63.1521 
G01 X-41.8702 Y63.0942 
G01 X-41.9458 Y63.0629 
G01 X-42.0277 Y63.0629 
G01 X-42.0489 Y63.0717 
G01 X-42.1219 Y63.1019 
G01 X-42.6767 Y63.1019 
G01 X-43.1892 Y62.8896 
G01 X-43.5815 Y62.4974 
G01 X-43.7680 Y62.0471 
G01 X-43.7686 Y62.0388 
G01 X-43.7835 Y62.0096 
G01 X-43.7961 Y61.9793 
G01 X-43.8020 Y61.9733 
G01 X-43.8058 Y61.9659 
G01 X-43.8308 Y61.9446 
G01 X-43.8540 Y61.9214 
G01 X-43.8617 Y61.9182 
G01 X-43.8680 Y61.9128 
G01 X-43.8992 Y61.9026 
G01 X-43.9296 Y61.8901 
G01 X-43.9379 Y61.8901 
G01 X-43.9459 Y61.8875 
G01 X-43.9786 Y61.8901 
G01 X-44.0114 Y61.8901 
G01 X-44.0192 Y61.8933 
G01 X-44.0275 Y61.8939 
G01 X-44.0567 Y61.9088 
G01 X-44.0870 Y61.9214 
G01 X-44.0930 Y61.9273 
G01 X-44.1004 Y61.9311 
G01 X-44.1217 Y61.9561 
G01 X-44.1397 Y61.9741 
G01 X-44.1309 Y61.9527 
G01 X-44.0986 Y61.7903 
G01 X-44.0986 Y60.2023 
G01 X-44.1309 Y60.0398 
G01 X-44.1397 Y60.0184 
G01 X-44.1217 Y60.0365 
G01 X-44.1004 Y60.0614 
G01 X-44.0930 Y60.0652 
G01 X-44.0870 Y60.0712 
G01 X-44.0567 Y60.0837 
G01 X-44.0275 Y60.0986 
G01 X-44.0192 Y60.0993 
G01 X-44.0114 Y60.1025 
G01 X-43.9786 Y60.1025 
G01 X-43.9459 Y60.1051 
G01 X-43.9379 Y60.1025 
G01 X-43.9296 Y60.1025 
G01 X-43.8992 Y60.0899 
G01 X-43.8680 Y60.0798 
G01 X-43.8617 Y60.0744 
G01 X-43.8540 Y60.0712 
G01 X-43.8308 Y60.0479 
G01 X-43.8058 Y60.0266 
G01 X-43.8020 Y60.0192 
G01 X-43.7961 Y60.0133 
G01 X-43.7835 Y59.9830 
G01 X-43.7686 Y59.9537 
G01 X-43.7680 Y59.9454 
G01 X-43.5815 Y59.4952 
G01 X-43.1892 Y59.1029 
G01 X-42.6767 Y58.8906 
G01 X-42.1219 Y58.8906 
G01 X-42.0277 Y58.9297 
G01 X-41.9458 Y58.9297 
G01 X-41.8724 Y58.8992 
G01 X-41.8702 Y58.8983 
G01 X-41.8123 Y58.8405 
G01 X-41.7810 Y58.7648 
G01 X-41.7810 Y57.7687 
G01 X-41.3367 Y57.3244 
G01 X-41.3367 Y57.3244 
G01 X-41.2879 Y57.2757 
G01 X-41.2788 Y57.2665 
G01 X-41.2475 Y57.1909 
G01 X-41.2475 Y57.1091 
G01 X-41.2779 Y57.0356 
G01 X-41.2788 Y57.0335 
G01 X-41.3367 Y56.9756 
G01 X-41.3367 Y56.9756 
G01 X-41.7810 Y56.5312 
G01 X-41.7810 Y55.2287 
G01 X-40.9415 Y54.3893 
G01 X-40.8989 Y54.3466 
G01 X-40.8837 Y54.3314 
G01 X-40.8523 Y54.2558 
G01 X-40.8523 Y54.1739 
G01 X-40.8786 Y54.1106 
G01 X-40.6306 Y54.3585 
G01 X-39.7869 Y54.3585 
G01 X-39.2216 Y53.7932 
G01 X-39.2287 Y53.8105 
G01 X-39.2435 Y53.8389 
G01 X-39.2443 Y53.8480 
G01 X-39.2478 Y53.8566 
G01 X-39.2478 Y53.8886 
G01 X-39.2506 Y53.9204 
G01 X-39.2478 Y53.9292 
G01 X-39.2478 Y53.9384 
G01 X-39.2356 Y53.9680 
G01 X-39.2259 Y53.9984 
G01 X-39.2200 Y54.0055 
G01 X-39.2165 Y54.0140 
G01 X-39.1939 Y54.0366 
G01 X-39.1733 Y54.0611 
G01 X-39.1651 Y54.0654 
G01 X-39.1586 Y54.0719 
G01 X-39.1291 Y54.0842 
G01 X-39.1007 Y54.0989 
G01 X-39.0915 Y54.0997 
G01 X-39.0830 Y54.1033 
G01 X-39.0510 Y54.1033 
G01 X-39.0192 Y54.1060 
G01 X-39.0104 Y54.1033 
G01 X-39.0011 Y54.1033 
G01 X-38.9716 Y54.0910 
G01 X-38.9411 Y54.0814 
G01 X-38.9340 Y54.0755 
G01 X-38.9255 Y54.0719 
G01 X-38.9029 Y54.0493 
G01 X-38.2191 Y53.4753 
G01 X-38.2103 Y53.4716 
G01 X-38.1880 Y53.4492 
G01 X-38.1637 Y53.4288 
G01 X-38.1593 Y53.4204 
G01 X-38.1526 Y53.4136 
G01 X-38.1406 Y53.3843 
G01 X-38.1260 Y53.3562 
G01 X-38.1251 Y53.3467 
G01 X-38.1215 Y53.3379 
G01 X-38.1216 Y53.3062 
G01 X-38.1188 Y53.2747 
G01 X-38.1217 Y53.2656 
G01 X-38.1287 Y50.7573 
G01 X-38.1287 Y50.7164 
G01 X-38.1288 Y50.7162 
G01 X-38.1288 Y50.7159 
G01 X-38.1445 Y50.6783 
G01 X-38.1600 Y50.6408 
G01 X-38.1602 Y50.6406 
G01 X-38.1604 Y50.6403 
G01 X-38.1895 Y50.6113 
G01 X-38.2259 Y50.5750 
G01 X-38.4382 Y50.0624 
G01 X-38.4382 Y48.0853 
G01 X-38.2259 Y47.5728 
G01 X-38.0381 Y47.3849 
G01 X-38.0381 Y47.3849 
G01 X-37.9849 Y47.3317 
G01 X-37.9802 Y47.3271 
G01 X-37.9489 Y47.2514 
G01 X-37.9489 Y47.1696 
G01 X-37.9489 Y46.2574 
G01 X-37.9802 Y46.1818 
G01 X-38.0215 Y46.0820 
G01 X-38.0215 Y44.2266 
G01 X-37.8170 Y43.7328 
G01 X-37.4390 Y43.3548 
G01 X-36.9452 Y43.1502 
G01 X-36.4106 Y43.1502 
G01 X-35.9168 Y43.3548 
G01 X-35.5823 Y43.6892 
G01 X-35.5823 Y43.6893 
G01 X-35.5314 Y43.7402 
G01 X-35.5244 Y43.7471 
G01 X-35.4488 Y43.7784 
G01 X-35.3670 Y43.7784 
G01 X-35.2935 Y43.7480 
G01 X-35.2913 Y43.7471 
G01 X-35.2335 Y43.6893 
G01 X-34.8990 Y43.3548 
G01 X-34.4052 Y43.1502 
G01 X-33.8706 Y43.1502 
G01 X-33.3768 Y43.3548 
G01 X-32.9844 Y43.7471 
G01 X-32.9088 Y43.7784 
G01 X-32.8270 Y43.7784 
G01 X-32.7513 Y43.7471 
G01 X-32.6935 Y43.6893 
G01 X-32.6935 Y43.6892 
G01 X-32.3590 Y43.3548 
G01 X-31.8652 Y43.1502 
G01 X-31.3306 Y43.1502 
G01 X-30.8368 Y43.3548 
G01 X-30.5023 Y43.6892 
G01 X-30.5023 Y43.6893 
G01 X-30.4514 Y43.7402 
G01 X-30.4444 Y43.7471 
G01 X-30.3688 Y43.7784 
G01 X-30.2870 Y43.7784 
G01 X-30.2135 Y43.7480 
G01 X-30.2113 Y43.7471 
G01 X-30.1535 Y43.6893 
G01 X-29.8190 Y43.3548 
G01 X-29.3252 Y43.1502 
G01 X-28.7906 Y43.1502 
G01 X-28.2968 Y43.3548 
G01 X-27.9623 Y43.6892 
G01 X-27.9623 Y43.6893 
G01 X-27.9114 Y43.7402 
G01 X-27.9044 Y43.7471 
G01 X-27.8288 Y43.7784 
G01 X-27.7470 Y43.7784 
G01 X-27.6735 Y43.7480 
G01 X-27.6713 Y43.7471 
G01 X-27.6135 Y43.6893 
G01 X-27.2790 Y43.3548 
G01 X-26.7852 Y43.1502 
G01 X-26.2506 Y43.1502 
G01 X-25.7568 Y43.3548 
G01 X-25.3644 Y43.7471 
G01 X-25.2888 Y43.7784 
G01 X-25.2070 Y43.7784 
G01 X-25.1313 Y43.7471 
G01 X-25.0735 Y43.6893 
G01 X-25.0735 Y43.6892 
G01 X-24.7390 Y43.3548 
G01 X-24.2452 Y43.1502 
G01 X-23.7106 Y43.1502 
G01 X-23.2168 Y43.3548 
G01 X-22.8823 Y43.6893 
G01 X-22.8314 Y43.7402 
G01 X-22.8244 Y43.7471 
G01 X-22.7488 Y43.7784 
G01 X-22.6670 Y43.7784 
G01 X-22.5935 Y43.7480 
G01 X-22.5913 Y43.7471 
G01 X-22.5335 Y43.6893 
G01 X-22.1990 Y43.3548 
G01 X-21.7052 Y43.1502 
G01 X-21.1706 Y43.1502 
G01 X-20.6768 Y43.3548 
G01 X-20.2844 Y43.7471 
G01 X-20.2088 Y43.7784 
G01 X-20.1270 Y43.7784 
G01 X-20.0513 Y43.7471 
G01 X-19.9935 Y43.6893 
G01 X-19.9935 Y43.6892 
G01 X-19.6590 Y43.3548 
G01 X-19.1652 Y43.1502 
G01 X-18.6306 Y43.1502 
G01 X-18.1368 Y43.3548 
G01 X-17.7588 Y43.7328 
G01 X-17.5542 Y44.2266 
G01 X-17.5542 Y44.3761 
G01 X-17.5583 Y44.3963 
G01 X-17.5542 Y44.4166 
G01 X-17.5542 Y45.0794 
G01 X-17.5566 Y45.1128 
G01 X-17.5542 Y45.1201 
G01 X-17.5542 Y45.1277 
G01 X-17.5414 Y45.1587 
G01 X-17.5309 Y45.1905 
G01 X-17.5258 Y45.1963 
G01 X-17.5229 Y45.2034 
G01 X-17.4992 Y45.2270 
G01 X-17.4016 Y45.3399 
G01 X-17.3987 Y45.3470 
G01 X-17.3750 Y45.3707 
G01 X-17.3531 Y45.3960 
G01 X-17.3462 Y45.3995 
G01 X-17.3408 Y45.4049 
G01 X-17.3099 Y45.4177 
G01 X-17.2799 Y45.4327 
G01 X-17.2723 Y45.4333 
G01 X-17.2652 Y45.4362 
G01 X-17.2317 Y45.4362 
G01 X-17.1983 Y45.4386 
G01 X-17.1910 Y45.4362 
G01 X-17.1478 Y45.4362 
G01 X-17.1478 Y45.8925 
G00 Z0.5080 
G00 X-13.1489 Y48.0325 
G01 Z-0.2540 F254.00 
G01 X-13.1489 Y48.1981 
G01 X-13.1166 Y48.3605 
G01 X-13.0533 Y48.5135 
G01 X-12.9613 Y48.6512 
G01 X-12.8441 Y48.7683 
G01 X-12.8392 Y48.7716 
G01 X-12.8115 Y52.4423 
G01 X-13.2873 Y52.9181 
G01 X-13.2873 Y53.7619 
G01 X-12.6906 Y54.3585 
G01 X-11.8469 Y54.3585 
G01 X-11.4427 Y53.9544 
G01 X-9.9308 Y54.0710 
G01 X-9.5999 Y54.5766 
G01 X-9.7247 Y54.6600 
G01 X-9.8418 Y54.7771 
G01 X-9.9338 Y54.9148 
G01 X-9.9972 Y55.0678 
G01 X-10.0295 Y55.2303 
G01 X-10.0295 Y55.3959 
G01 X-9.9972 Y55.5583 
G01 X-9.9338 Y55.7113 
G01 X-9.8418 Y55.8490 
G01 X-9.7247 Y55.9661 
G01 X-9.5870 Y56.0581 
G01 X-9.4340 Y56.1215 
G01 X-9.2716 Y56.1538 
G01 X-7.6836 Y56.1538 
G01 X-7.5211 Y56.1215 
G01 X-7.3681 Y56.0581 
G01 X-7.2304 Y55.9661 
G01 X-7.1133 Y55.8490 
G01 X-7.0213 Y55.7113 
G01 X-6.9579 Y55.5583 
G01 X-6.9256 Y55.3959 
G01 X-6.9256 Y55.2303 
G01 X-6.9579 Y55.0678 
G01 X-7.0213 Y54.9148 
G01 X-7.1133 Y54.7771 
G01 X-7.2304 Y54.6600 
G01 X-7.3681 Y54.5680 
G01 X-7.5211 Y54.5047 
G01 X-7.6836 Y54.4723 
G01 X-8.3872 Y54.4723 
G01 X-9.1587 Y53.2933 
G01 X-9.1738 Y53.2618 
G01 X-9.1972 Y53.2345 
G01 X-9.2168 Y53.2044 
G01 X-9.2429 Y53.1811 
G01 X-9.2656 Y53.1546 
G01 X-9.2952 Y53.1343 
G01 X-9.3220 Y53.1103 
G01 X-9.3532 Y53.0946 
G01 X-9.3820 Y53.0749 
G01 X-9.4159 Y53.0629 
G01 X-9.4480 Y53.0467 
G01 X-9.4822 Y53.0396 
G01 X-9.5151 Y53.0280 
G01 X-9.5510 Y53.0252 
G01 X-9.5861 Y53.0179 
G01 X-9.6210 Y53.0198 
G01 X-11.2761 Y52.8922 
G01 X-11.7397 Y52.4286 
G01 X-11.7674 Y48.7634 
G01 X-11.6552 Y48.6512 
G01 X-11.5632 Y48.5135 
G01 X-11.4998 Y48.3605 
G01 X-11.4675 Y48.1981 
G01 X-11.4675 Y48.0325 
G01 X-11.4998 Y47.8700 
G01 X-11.5632 Y47.7170 
G01 X-11.6552 Y47.5793 
G01 X-11.7723 Y47.4622 
G01 X-11.7735 Y47.4614 
G01 X-11.7815 Y43.2332 
G01 X-7.0624 Y39.5005 
G01 X-7.0370 Y39.4862 
G01 X-7.0073 Y39.4570 
G01 X-6.9746 Y39.4311 
G01 X-6.9572 Y39.4077 
G01 X-6.9400 Y39.3908 
G01 X-6.9296 Y39.3865 
G01 X-6.7836 Y39.2890 
G01 X-6.6594 Y39.1648 
G01 X-6.5619 Y39.0188 
G01 X-6.4947 Y38.8565 
G01 X-6.4604 Y38.6843 
G01 X-6.4604 Y36.9847 
G01 X-6.4947 Y36.8124 
G01 X-6.5619 Y36.6502 
G01 X-6.6594 Y36.5041 
G01 X-6.7836 Y36.3800 
G01 X-6.9296 Y36.2824 
G01 X-7.0919 Y36.2152 
G01 X-7.2641 Y36.1809 
G01 X-7.4398 Y36.1809 
G01 X-7.6120 Y36.2152 
G01 X-7.7742 Y36.2824 
G01 X-7.9203 Y36.3800 
G01 X-8.0444 Y36.5041 
G01 X-8.1420 Y36.6502 
G01 X-8.2092 Y36.8124 
G01 X-8.2435 Y36.9847 
G01 X-8.2435 Y38.6843 
G01 X-8.2092 Y38.8565 
G01 X-8.1517 Y38.9955 
G01 X-12.6201 Y42.5299 
G01 X-12.6478 Y42.5459 
G01 X-12.6752 Y42.5734 
G01 X-12.7057 Y42.5976 
G01 X-12.7248 Y42.6232 
G01 X-12.7474 Y42.6459 
G01 X-12.7667 Y42.6796 
G01 X-12.7899 Y42.7108 
G01 X-12.8017 Y42.7405 
G01 X-12.8177 Y42.7682 
G01 X-12.8277 Y42.8058 
G01 X-12.8420 Y42.8419 
G01 X-12.8457 Y42.8737 
G01 X-12.8539 Y42.9046 
G01 X-12.8539 Y42.9435 
G01 X-12.8584 Y42.9821 
G01 X-12.8537 Y43.0137 
G01 X-12.8454 Y47.4635 
G01 X-12.9613 Y47.5793 
G01 X-13.0533 Y47.7170 
G01 X-13.1166 Y47.8700 
G01 X-13.1489 Y48.0325 
G00 Z0.5080 
G00 X-24.7678 Y44.4161 
G01 Z-0.2540 F254.00 
G01 X-24.7678 Y45.8925 
G01 X-24.7375 Y46.0451 
G01 X-24.6779 Y46.1889 
G01 X-24.5915 Y46.3182 
G01 X-24.4814 Y46.4283 
G01 X-24.3521 Y46.5147 
G01 X-24.2083 Y46.5743 
G01 X-24.0557 Y46.6046 
G01 X-23.9001 Y46.6046 
G01 X-23.7475 Y46.5743 
G01 X-23.6037 Y46.5147 
G01 X-23.5555 Y46.4825 
G01 X-22.3987 Y47.7686 
G01 X-22.4568 Y47.8267 
G01 X-22.5488 Y47.9644 
G01 X-22.6122 Y48.1174 
G01 X-22.6445 Y48.2798 
G01 X-22.6445 Y49.8679 
G01 X-22.6122 Y50.0303 
G01 X-22.5488 Y50.1833 
G01 X-22.4568 Y50.3210 
G01 X-22.3397 Y50.4381 
G01 X-22.3355 Y50.4409 
G01 X-22.3215 Y55.0236 
G01 X-22.3258 Y55.0663 
G01 X-22.3213 Y55.0939 
G01 X-22.3212 Y55.1217 
G01 X-22.3099 Y55.1632 
G01 X-22.3030 Y55.2056 
G01 X-22.2915 Y55.2310 
G01 X-22.2842 Y55.2579 
G01 X-22.2626 Y55.2951 
G01 X-22.2450 Y55.3342 
G01 X-22.2273 Y55.3558 
G01 X-22.2133 Y55.3799 
G01 X-22.1828 Y55.4102 
G01 X-22.1556 Y55.4435 
G01 X-22.1330 Y55.4597 
G01 X-22.1132 Y55.4794 
G01 X-22.0759 Y55.5008 
G01 X-14.1079 Y61.2299 
G01 X-14.1054 Y61.2329 
G01 X-14.0507 Y61.2711 
G01 X-13.9965 Y61.3100 
G01 X-13.9928 Y61.3114 
G01 X-13.9897 Y61.3136 
G01 X-13.9269 Y61.3363 
G01 X-13.8645 Y61.3600 
G01 X-13.8606 Y61.3603 
G01 X-13.8570 Y61.3617 
G01 X-13.7904 Y61.3674 
G01 X-13.7241 Y61.3740 
G01 X-13.7202 Y61.3734 
G01 X-13.2560 Y61.4132 
G01 X-12.6906 Y61.9785 
G01 X-11.8469 Y61.9785 
G01 X-11.2502 Y61.3819 
G01 X-11.2502 Y60.5381 
G01 X-11.8469 Y59.9415 
G01 X-12.6906 Y59.9415 
G01 X-13.1000 Y60.3508 
G01 X-13.5479 Y60.3124 
G01 X-21.2504 Y54.7742 
G01 X-21.2636 Y50.4339 
G01 X-21.1507 Y50.3210 
G01 X-21.0587 Y50.1833 
G01 X-20.9953 Y50.0303 
G01 X-20.9630 Y49.8679 
G01 X-20.9630 Y48.2798 
G01 X-20.9953 Y48.1174 
G01 X-21.0587 Y47.9644 
G01 X-21.0833 Y47.9276 
G01 X-21.0815 Y47.8930 
G01 X-21.0748 Y47.8493 
G01 X-21.0778 Y47.8228 
G01 X-21.0764 Y47.7961 
G01 X-21.0855 Y47.7529 
G01 X-21.0904 Y47.7091 
G01 X-21.1001 Y47.6842 
G01 X-21.1056 Y47.6581 
G01 X-21.1256 Y47.6187 
G01 X-21.1417 Y47.5776 
G01 X-21.1575 Y47.5561 
G01 X-21.1696 Y47.5323 
G01 X-21.1991 Y47.4995 
G01 X-21.2253 Y47.4639 
G01 X-21.2461 Y47.4472 
G01 X-23.1880 Y45.2883 
G01 X-23.1880 Y44.4161 
G01 X-23.2183 Y44.2635 
G01 X-23.2779 Y44.1197 
G01 X-23.3643 Y43.9903 
G01 X-23.4743 Y43.8803 
G01 X-23.6037 Y43.7939 
G01 X-23.7475 Y43.7343 
G01 X-23.9001 Y43.7039 
G01 X-24.0557 Y43.7039 
G01 X-24.2083 Y43.7343 
G01 X-24.3521 Y43.7939 
G01 X-24.4814 Y43.8803 
G01 X-24.5915 Y43.9903 
G01 X-24.6779 Y44.1197 
G01 X-24.7375 Y44.2635 
G01 X-24.7678 Y44.4161 
G00 Z0.5080 
G00 X-29.8478 Y44.4161 
G01 Z-0.2540 F254.00 
G01 X-29.8478 Y45.8925 
G01 X-29.8175 Y46.0451 
G01 X-29.7968 Y46.0950 
G01 X-29.7968 Y47.6072 
G01 X-29.8220 Y47.6176 
G01 X-29.9597 Y47.7096 
G01 X-30.0768 Y47.8267 
G01 X-30.1688 Y47.9644 
G01 X-30.2322 Y48.1174 
G01 X-30.2645 Y48.2798 
G01 X-30.2645 Y49.8679 
G01 X-30.2322 Y50.0303 
G01 X-30.1688 Y50.1833 
G01 X-30.0768 Y50.3210 
G01 X-29.9597 Y50.4381 
G01 X-29.9564 Y50.4403 
G01 X-29.9367 Y58.7891 
G01 X-38.6311 Y65.3960 
G01 X-39.3628 Y65.4455 
G01 X-39.7869 Y65.0215 
G01 X-40.6306 Y65.0215 
G01 X-41.2273 Y65.6181 
G01 X-41.2273 Y66.4619 
G01 X-40.6306 Y67.0585 
G01 X-39.7869 Y67.0585 
G01 X-39.2398 Y66.5115 
G01 X-38.4529 Y66.4582 
G01 X-38.4372 Y66.4604 
G01 X-38.3828 Y66.4535 
G01 X-38.3280 Y66.4498 
G01 X-38.3130 Y66.4446 
G01 X-38.2972 Y66.4426 
G01 X-38.2464 Y66.4219 
G01 X-38.1945 Y66.4041 
G01 X-38.1813 Y66.3952 
G01 X-38.1666 Y66.3892 
G01 X-38.1229 Y66.3560 
G01 X-38.0773 Y66.3255 
G01 X-38.0669 Y66.3135 
G01 X-29.1023 Y59.5013 
G01 X-29.0700 Y59.4825 
G01 X-29.0463 Y59.4588 
G01 X-29.0196 Y59.4385 
G01 X-28.9968 Y59.4090 
G01 X-28.9705 Y59.3825 
G01 X-28.9538 Y59.3535 
G01 X-28.9332 Y59.3269 
G01 X-28.9188 Y59.2925 
G01 X-28.9002 Y59.2601 
G01 X-28.8916 Y59.2277 
G01 X-28.8786 Y59.1968 
G01 X-28.8736 Y59.1598 
G01 X-28.8640 Y59.1237 
G01 X-28.8641 Y59.0902 
G01 X-28.8595 Y59.0570 
G01 X-28.8642 Y59.0200 
G01 X-28.8846 Y50.4349 
G01 X-28.7707 Y50.3210 
G01 X-28.6787 Y50.1833 
G01 X-28.6153 Y50.0303 
G01 X-28.5830 Y49.8679 
G01 X-28.5830 Y48.2798 
G01 X-28.6153 Y48.1174 
G01 X-28.6787 Y47.9644 
G01 X-28.7249 Y47.8952 
G01 X-28.7249 Y47.8734 
G01 X-28.7203 Y47.8383 
G01 X-28.7249 Y47.8032 
G01 X-28.7249 Y46.5318 
G01 X-28.6837 Y46.5147 
G01 X-28.5543 Y46.4283 
G01 X-28.4443 Y46.3182 
G01 X-28.3579 Y46.1889 
G01 X-28.2983 Y46.0451 
G01 X-28.2680 Y45.8925 
G01 X-28.2680 Y44.4161 
G01 X-28.2983 Y44.2635 
G01 X-28.3579 Y44.1197 
G01 X-28.4443 Y43.9903 
G01 X-28.5543 Y43.8803 
G01 X-28.6837 Y43.7939 
G01 X-28.8275 Y43.7343 
G01 X-28.9801 Y43.7039 
G01 X-29.1357 Y43.7039 
G01 X-29.2883 Y43.7343 
G01 X-29.4321 Y43.7939 
G01 X-29.5614 Y43.8803 
G01 X-29.6715 Y43.9903 
G01 X-29.7579 Y44.1197 
G01 X-29.8175 Y44.2635 
G01 X-29.8478 Y44.4161 
G00 Z0.5080 
G00 X-34.9278 Y44.4161 
G01 Z-0.2540 F254.00 
G01 X-34.9278 Y45.8925 
G01 X-34.8975 Y46.0451 
G01 X-34.8466 Y46.1678 
G01 X-34.8466 Y47.5947 
G01 X-34.9020 Y47.6176 
G01 X-35.0397 Y47.7096 
G01 X-35.1568 Y47.8267 
G01 X-35.2488 Y47.9644 
G01 X-35.3122 Y48.1174 
G01 X-35.3445 Y48.2798 
G01 X-35.3445 Y49.8679 
G01 X-35.3122 Y50.0303 
G01 X-35.2488 Y50.1833 
G01 X-35.1568 Y50.3210 
G01 X-35.0397 Y50.4381 
G01 X-35.0340 Y50.4419 
G01 X-35.0152 Y54.9945 
G01 X-38.7073 Y57.9903 
G01 X-39.2359 Y57.9524 
G01 X-39.7869 Y57.4015 
G01 X-40.6306 Y57.4015 
G01 X-41.2273 Y57.9981 
G01 X-41.2273 Y58.8419 
G01 X-40.6306 Y59.4385 
G01 X-39.7869 Y59.4385 
G01 X-39.3660 Y59.0177 
G01 X-38.5811 Y59.0739 
G01 X-38.5195 Y59.0804 
G01 X-38.5109 Y59.0790 
G01 X-38.5021 Y59.0796 
G01 X-38.4414 Y59.0679 
G01 X-38.3802 Y59.0581 
G01 X-38.3722 Y59.0546 
G01 X-38.3636 Y59.0529 
G01 X-38.3079 Y59.0259 
G01 X-38.2513 Y59.0006 
G01 X-38.2445 Y58.9951 
G01 X-38.2366 Y58.9913 
G01 X-38.1898 Y58.9507 
G01 X-34.1727 Y55.6912 
G01 X-34.1474 Y55.6765 
G01 X-34.1181 Y55.6469 
G01 X-34.0858 Y55.6207 
G01 X-34.0686 Y55.5970 
G01 X-34.0480 Y55.5763 
G01 X-34.0274 Y55.5401 
G01 X-34.0029 Y55.5065 
G01 X-33.9925 Y55.4792 
G01 X-33.9780 Y55.4538 
G01 X-33.9674 Y55.4135 
G01 X-33.9525 Y55.3747 
G01 X-33.9495 Y55.3456 
G01 X-33.9420 Y55.3173 
G01 X-33.9422 Y55.2757 
G01 X-33.9379 Y55.2343 
G01 X-33.9425 Y55.2054 
G01 X-33.9622 Y50.4325 
G01 X-33.8507 Y50.3210 
G01 X-33.7587 Y50.1833 
G01 X-33.6953 Y50.0303 
G01 X-33.6630 Y49.8679 
G01 X-33.6630 Y48.2798 
G01 X-33.6953 Y48.1174 
G01 X-33.7587 Y47.9644 
G01 X-33.8035 Y47.8974 
G01 X-33.7842 Y47.7551 
G01 X-33.7748 Y47.7199 
G01 X-33.7748 Y47.6855 
G01 X-33.7701 Y47.6514 
G01 X-33.7748 Y47.6152 
G01 X-33.7748 Y46.5193 
G01 X-33.7637 Y46.5147 
G01 X-33.6343 Y46.4283 
G01 X-33.5243 Y46.3182 
G01 X-33.4379 Y46.1889 
G01 X-33.3783 Y46.0451 
G01 X-33.3480 Y45.8925 
G01 X-33.3480 Y44.4161 
G01 X-33.3783 Y44.2635 
G01 X-33.4379 Y44.1197 
G01 X-33.5243 Y43.9903 
G01 X-33.6343 Y43.8803 
G01 X-33.7637 Y43.7939 
G01 X-33.9075 Y43.7343 
G01 X-34.0601 Y43.7039 
G01 X-34.2157 Y43.7039 
G01 X-34.3683 Y43.7343 
G01 X-34.5121 Y43.7939 
G01 X-34.6414 Y43.8803 
G01 X-34.7515 Y43.9903 
G01 X-34.8379 Y44.1197 
G01 X-34.8975 Y44.2635 
G01 X-34.9278 Y44.4161 
G00 Z0.5080 
G00 X-5.7035 Y36.9847 
G01 Z-0.2540 F254.00 
G01 X-5.7035 Y38.6843 
G01 X-5.6692 Y38.8565 
G01 X-5.6020 Y39.0188 
G01 X-5.5044 Y39.1648 
G01 X-5.3803 Y39.2890 
G01 X-5.3764 Y39.2916 
G01 X-5.4074 Y40.8830 
G01 X-5.4342 Y40.9009 
G01 X-5.5513 Y41.0180 
G01 X-5.6433 Y41.1557 
G01 X-5.7067 Y41.3087 
G01 X-5.7390 Y41.4712 
G01 X-5.7390 Y43.0592 
G01 X-5.7067 Y43.2216 
G01 X-5.6433 Y43.3746 
G01 X-5.5513 Y43.5123 
G01 X-5.4567 Y43.6069 
G01 X-5.5178 Y47.2550 
G01 X-5.5288 Y47.2623 
G01 X-5.6459 Y47.3794 
G01 X-5.7379 Y47.5171 
G01 X-5.8013 Y47.6701 
G01 X-5.8336 Y47.8325 
G01 X-5.8336 Y47.9981 
G01 X-5.8013 Y48.1606 
G01 X-5.7379 Y48.3136 
G01 X-5.6459 Y48.4513 
G01 X-5.5400 Y48.5572 
G01 X-5.5727 Y50.4408 
G01 X-5.6271 Y50.4685 
G01 X-5.7665 Y50.5698 
G01 X-5.8884 Y50.6917 
G01 X-5.9897 Y50.8311 
G01 X-6.0679 Y50.9846 
G01 X-6.1212 Y51.1485 
G01 X-6.1481 Y51.3187 
G01 X-6.1481 Y51.4910 
G01 X-6.1212 Y51.6612 
G01 X-6.0679 Y51.8251 
G01 X-5.9897 Y51.9786 
G01 X-5.8884 Y52.1180 
G01 X-5.7665 Y52.2399 
G01 X-5.6271 Y52.3412 
G01 X-5.4736 Y52.4194 
G01 X-5.3097 Y52.4726 
G01 X-5.1395 Y52.4996 
G01 X-4.9672 Y52.4996 
G01 X-4.7970 Y52.4726 
G01 X-4.6331 Y52.4194 
G01 X-4.4796 Y52.3412 
G01 X-4.3402 Y52.2399 
G01 X-4.2183 Y52.1180 
G01 X-4.1171 Y51.9786 
G01 X-4.0388 Y51.8251 
G01 X-3.9856 Y51.6612 
G01 X-3.9586 Y51.4910 
G01 X-3.9586 Y51.3187 
G01 X-3.9856 Y51.1485 
G01 X-4.0388 Y50.9846 
G01 X-4.1171 Y50.8311 
G01 X-4.2183 Y50.6917 
G01 X-4.3402 Y50.5698 
G01 X-4.4796 Y50.4685 
G01 X-4.5009 Y50.4577 
G01 X-4.4683 Y48.5760 
G01 X-4.4569 Y48.5684 
G01 X-4.3398 Y48.4513 
G01 X-4.2478 Y48.3136 
G01 X-4.1844 Y48.1606 
G01 X-4.1521 Y47.9981 
G01 X-4.1521 Y47.8325 
G01 X-4.1844 Y47.6701 
G01 X-4.2478 Y47.5171 
G01 X-4.3398 Y47.3794 
G01 X-4.4461 Y47.2731 
G01 X-4.3853 Y43.6448 
G01 X-4.3623 Y43.6294 
G01 X-4.2452 Y43.5123 
G01 X-4.1532 Y43.3746 
G01 X-4.0898 Y43.2216 
G01 X-4.0575 Y43.0592 
G01 X-4.0575 Y41.4712 
G01 X-4.0898 Y41.3087 
G01 X-4.1532 Y41.1557 
G01 X-4.2452 Y41.0180 
G01 X-4.3361 Y40.9271 
G01 X-4.3050 Y39.3300 
G01 X-4.2436 Y39.2890 
G01 X-4.1194 Y39.1648 
G01 X-4.0219 Y39.0188 
G01 X-3.9547 Y38.8565 
G01 X-3.9204 Y38.6843 
G01 X-3.9204 Y36.9847 
G01 X-3.9547 Y36.8124 
G01 X-4.0219 Y36.6502 
G01 X-4.1194 Y36.5041 
G01 X-4.2436 Y36.3800 
G01 X-4.3896 Y36.2824 
G01 X-4.5519 Y36.2152 
G01 X-4.7241 Y36.1809 
G01 X-4.8998 Y36.1809 
G01 X-5.0720 Y36.2152 
G01 X-5.2342 Y36.2824 
G01 X-5.3803 Y36.3800 
G01 X-5.5044 Y36.5041 
G01 X-5.6020 Y36.6502 
G01 X-5.6692 Y36.8124 
G01 X-5.7035 Y36.9847 
G00 Z0.5080 
G00 X-41.2273 Y55.4581 
G01 Z-0.2540 F254.00 
G01 X-41.2273 Y56.3019 
G01 X-40.6306 Y56.8985 
G01 X-39.7869 Y56.8985 
G01 X-39.1902 Y56.3019 
G01 X-39.1902 Y56.2846 
G01 X-39.1486 Y56.2773 
G01 X-39.0894 Y56.2692 
G01 X-39.0793 Y56.2650 
G01 X-39.0685 Y56.2631 
G01 X-39.0144 Y56.2379 
G01 X-38.9592 Y56.2148 
G01 X-38.9506 Y56.2081 
G01 X-38.9407 Y56.2035 
G01 X-38.8949 Y56.1650 
G01 X-38.8476 Y56.1284 
G01 X-38.8409 Y56.1198 
G01 X-36.7211 Y54.3402 
G01 X-36.7000 Y54.3280 
G01 X-36.6672 Y54.2950 
G01 X-36.6316 Y54.2651 
G01 X-36.6177 Y54.2452 
G01 X-36.6005 Y54.2279 
G01 X-36.5774 Y54.1876 
G01 X-36.5507 Y54.1495 
G01 X-36.5424 Y54.1266 
G01 X-36.5303 Y54.1055 
G01 X-36.5184 Y54.0606 
G01 X-36.5025 Y54.0169 
G01 X-36.5004 Y53.9926 
G01 X-36.4941 Y53.9691 
G01 X-36.4943 Y53.9226 
G01 X-36.4902 Y53.8763 
G01 X-36.4945 Y53.8523 
G01 X-36.5040 Y50.4343 
G01 X-36.3907 Y50.3210 
G01 X-36.2987 Y50.1833 
G01 X-36.2353 Y50.0303 
G01 X-36.2030 Y49.8679 
G01 X-36.2030 Y48.2798 
G01 X-36.2353 Y48.1174 
G01 X-36.2987 Y47.9644 
G01 X-36.3349 Y47.9102 
G01 X-36.3333 Y47.8989 
G01 X-36.3233 Y47.8616 
G01 X-36.3233 Y47.8294 
G01 X-36.3187 Y47.7975 
G01 X-36.3233 Y47.7591 
G01 X-36.3233 Y46.5228 
G01 X-36.3037 Y46.5147 
G01 X-36.1743 Y46.4283 
G01 X-36.0643 Y46.3182 
G01 X-35.9779 Y46.1889 
G01 X-35.9183 Y46.0451 
G01 X-35.8880 Y45.8925 
G01 X-35.8880 Y44.4161 
G01 X-35.9183 Y44.2635 
G01 X-35.9779 Y44.1197 
G01 X-36.0643 Y43.9903 
G01 X-36.1743 Y43.8803 
G01 X-36.3037 Y43.7939 
G01 X-36.4475 Y43.7343 
G01 X-36.6001 Y43.7039 
G01 X-36.7557 Y43.7039 
G01 X-36.9083 Y43.7343 
G01 X-37.0521 Y43.7939 
G01 X-37.1814 Y43.8803 
G01 X-37.2915 Y43.9903 
G01 X-37.3779 Y44.1197 
G01 X-37.4375 Y44.2635 
G01 X-37.4678 Y44.4161 
G01 X-37.4678 Y45.8925 
G01 X-37.4375 Y46.0451 
G01 X-37.3952 Y46.1472 
G01 X-37.3952 Y47.5982 
G01 X-37.4420 Y47.6176 
G01 X-37.5797 Y47.7096 
G01 X-37.6968 Y47.8267 
G01 X-37.7888 Y47.9644 
G01 X-37.8522 Y48.1174 
G01 X-37.8845 Y48.2798 
G01 X-37.8845 Y49.8679 
G01 X-37.8522 Y50.0303 
G01 X-37.7888 Y50.1833 
G01 X-37.6968 Y50.3210 
G01 X-37.5797 Y50.4381 
G01 X-37.5759 Y50.4406 
G01 X-37.5669 Y53.6508 
G01 X-39.4319 Y55.2164 
G01 X-39.7869 Y54.8615 
G01 X-40.6306 Y54.8615 
G01 X-41.2273 Y55.4581 
G00 Z0.5080 
G00 X-40.6306 Y61.9785 
G01 Z-0.2540 F254.00 
G01 X-39.7869 Y61.9785 
G01 X-39.1902 Y61.3819 
G01 X-39.1902 Y60.5381 
G01 X-39.7869 Y59.9415 
G01 X-40.6306 Y59.9415 
G01 X-41.1284 Y60.4392 
G01 X-41.5586 Y60.4463 
G01 X-41.5586 Y60.2023 
G01 X-41.5909 Y60.0398 
G01 X-41.6543 Y59.8868 
G01 X-41.7463 Y59.7491 
G01 X-41.8634 Y59.6320 
G01 X-42.0011 Y59.5400 
G01 X-42.1541 Y59.4766 
G01 X-42.3165 Y59.4443 
G01 X-42.4821 Y59.4443 
G01 X-42.6445 Y59.4766 
G01 X-42.7976 Y59.5400 
G01 X-42.9353 Y59.6320 
G01 X-43.0524 Y59.7491 
G01 X-43.1444 Y59.8868 
G01 X-43.2077 Y60.0398 
G01 X-43.2401 Y60.2023 
G01 X-43.2401 Y61.7903 
G01 X-43.2077 Y61.9527 
G01 X-43.1444 Y62.1057 
G01 X-43.0524 Y62.2434 
G01 X-42.9353 Y62.3605 
G01 X-42.7976 Y62.4525 
G01 X-42.6445 Y62.5159 
G01 X-42.4821 Y62.5482 
G01 X-42.3165 Y62.5482 
G01 X-42.1541 Y62.5159 
G01 X-42.0011 Y62.4525 
G01 X-41.8634 Y62.3605 
G01 X-41.7463 Y62.2434 
G01 X-41.6543 Y62.1057 
G01 X-41.5909 Y61.9527 
G01 X-41.5586 Y61.7903 
G01 X-41.5586 Y61.5184 
G01 X-41.0984 Y61.5107 
G01 X-40.6306 Y61.9785 
G00 Z0.5080 
G00 X-41.2273 Y63.0781 
G01 Z-0.2540 F254.00 
G01 X-41.2273 Y63.9219 
G01 X-40.6306 Y64.5185 
G01 X-39.7869 Y64.5185 
G01 X-39.4237 Y64.1553 
G01 X-39.4177 Y64.1549 
G01 X-39.3873 Y64.1441 
G01 X-39.3557 Y64.1378 
G01 X-39.3211 Y64.1207 
G01 X-39.2847 Y64.1078 
G01 X-39.2581 Y64.0896 
G01 X-39.2292 Y64.0753 
G01 X-39.2002 Y64.0498 
G01 X-39.1684 Y64.0279 
G01 X-39.1474 Y64.0034 
G01 X-31.6273 Y57.3976 
G01 X-31.6115 Y57.3884 
G01 X-31.5745 Y57.3512 
G01 X-31.5350 Y57.3166 
G01 X-31.5249 Y57.3013 
G01 X-31.5120 Y57.2883 
G01 X-31.4859 Y57.2428 
G01 X-31.4567 Y57.1992 
G01 X-31.4509 Y57.1818 
G01 X-31.4418 Y57.1659 
G01 X-31.4283 Y57.1152 
G01 X-31.4115 Y57.0655 
G01 X-31.4103 Y57.0472 
G01 X-31.4056 Y57.0295 
G01 X-31.4058 Y56.9771 
G01 X-31.4024 Y56.9247 
G01 X-31.4060 Y56.9067 
G01 X-31.4240 Y50.4343 
G01 X-31.3107 Y50.3210 
G01 X-31.2187 Y50.1833 
G01 X-31.1553 Y50.0303 
G01 X-31.1230 Y49.8679 
G01 X-31.1230 Y48.2798 
G01 X-31.1553 Y48.1174 
G01 X-31.2187 Y47.9644 
G01 X-31.3107 Y47.8267 
G01 X-31.3579 Y47.7796 
G01 X-31.2918 Y46.5429 
G01 X-31.2237 Y46.5147 
G01 X-31.0943 Y46.4283 
G01 X-30.9843 Y46.3182 
G01 X-30.8979 Y46.1889 
G01 X-30.8383 Y46.0451 
G01 X-30.8080 Y45.8925 
G01 X-30.8080 Y44.4161 
G01 X-30.8383 Y44.2635 
G01 X-30.8979 Y44.1197 
G01 X-30.9843 Y43.9903 
G01 X-31.0943 Y43.8803 
G01 X-31.2237 Y43.7939 
G01 X-31.3675 Y43.7343 
G01 X-31.5201 Y43.7039 
G01 X-31.6757 Y43.7039 
G01 X-31.8283 Y43.7343 
G01 X-31.9721 Y43.7939 
G01 X-32.1014 Y43.8803 
G01 X-32.2115 Y43.9903 
G01 X-32.2979 Y44.1197 
G01 X-32.3575 Y44.2635 
G01 X-32.3878 Y44.4161 
G01 X-32.3878 Y45.8925 
G01 X-32.3575 Y46.0451 
G01 X-32.3406 Y46.0858 
G01 X-32.3408 Y46.0863 
G01 X-32.3423 Y46.1145 
G01 X-32.3482 Y46.1422 
G01 X-32.3460 Y46.1847 
G01 X-32.4249 Y47.6596 
G01 X-32.4997 Y47.7096 
G01 X-32.6168 Y47.8267 
G01 X-32.7088 Y47.9644 
G01 X-32.7722 Y48.1174 
G01 X-32.8045 Y48.2798 
G01 X-32.8045 Y49.8679 
G01 X-32.7722 Y50.0303 
G01 X-32.7088 Y50.1833 
G01 X-32.6168 Y50.3210 
G01 X-32.4997 Y50.4381 
G01 X-32.4959 Y50.4406 
G01 X-32.4784 Y56.7185 
G01 X-39.4371 Y62.8312 
G01 X-39.7869 Y62.4815 
G01 X-40.6306 Y62.4815 
G01 X-41.2273 Y63.0781 
G00 Z0.5080 
G00 X-40.6306 Y69.5985 
G01 Z-0.2540 F254.00 
G01 X-39.7869 Y69.5985 
G01 X-39.1902 Y69.0019 
G01 X-39.1902 Y68.1581 
G01 X-39.7869 Y67.5615 
G01 X-40.6306 Y67.5615 
G01 X-41.1273 Y68.0582 
G01 X-42.0671 Y68.0727 
G01 X-42.1634 Y67.9763 
G01 X-42.3011 Y67.8843 
G01 X-42.4541 Y67.8210 
G01 X-42.6166 Y67.7887 
G01 X-44.2046 Y67.7887 
G01 X-44.3670 Y67.8210 
G01 X-44.5200 Y67.8843 
G01 X-44.6577 Y67.9763 
G01 X-44.7748 Y68.0935 
G01 X-44.8668 Y68.2312 
G01 X-44.9302 Y68.3842 
G01 X-44.9625 Y68.5466 
G01 X-44.9625 Y68.7122 
G01 X-44.9302 Y68.8746 
G01 X-44.8668 Y69.0276 
G01 X-44.7748 Y69.1653 
G01 X-44.6577 Y69.2824 
G01 X-44.5200 Y69.3745 
G01 X-44.3670 Y69.4378 
G01 X-44.2046 Y69.4701 
G01 X-42.6166 Y69.4701 
G01 X-42.4541 Y69.4378 
G01 X-42.3011 Y69.3745 
G01 X-42.1634 Y69.2824 
G01 X-42.0463 Y69.1653 
G01 X-42.0322 Y69.1441 
G01 X-41.0994 Y69.1297 
G01 X-40.6306 Y69.5985 
G00 Z0.5080 
G00 X-12.6906 Y56.8985 
G01 Z-0.2540 F254.00 
G01 X-11.8469 Y56.8985 
G01 X-11.2502 Y56.3019 
G01 X-11.2502 Y55.4581 
G01 X-11.8469 Y54.8615 
G01 X-12.6906 Y54.8615 
G01 X-13.0966 Y55.2675 
G01 X-13.5431 Y55.2273 
G01 X-16.1724 Y53.2827 
G01 X-16.1828 Y50.4331 
G01 X-16.0707 Y50.3210 
G01 X-15.9787 Y50.1833 
G01 X-15.9153 Y50.0303 
G01 X-15.8830 Y49.8679 
G01 X-15.8830 Y48.2798 
G01 X-15.9153 Y48.1174 
G01 X-15.9787 Y47.9644 
G01 X-15.9861 Y47.9534 
G01 X-15.9883 Y47.9204 
G01 X-15.9990 Y47.8892 
G01 X-16.0052 Y47.8569 
G01 X-16.0217 Y47.8228 
G01 X-16.0340 Y47.7869 
G01 X-16.0524 Y47.7595 
G01 X-16.0667 Y47.7299 
G01 X-16.0915 Y47.7012 
G01 X-16.1127 Y47.6697 
G01 X-16.1375 Y47.6481 
G01 X-18.1080 Y45.3697 
G01 X-18.1080 Y44.4161 
G01 X-18.1383 Y44.2635 
G01 X-18.1979 Y44.1197 
G01 X-18.2843 Y43.9903 
G01 X-18.3943 Y43.8803 
G01 X-18.5237 Y43.7939 
G01 X-18.6675 Y43.7343 
G01 X-18.8201 Y43.7039 
G01 X-18.9757 Y43.7039 
G01 X-19.1283 Y43.7343 
G01 X-19.2721 Y43.7939 
G01 X-19.4014 Y43.8803 
G01 X-19.5115 Y43.9903 
G01 X-19.5979 Y44.1197 
G01 X-19.6575 Y44.2635 
G01 X-19.6878 Y44.4161 
G01 X-19.6878 Y45.8925 
G01 X-19.6575 Y46.0451 
G01 X-19.5979 Y46.1889 
G01 X-19.5115 Y46.3182 
G01 X-19.4014 Y46.4283 
G01 X-19.2721 Y46.5147 
G01 X-19.1283 Y46.5743 
G01 X-18.9757 Y46.6046 
G01 X-18.8201 Y46.6046 
G01 X-18.6675 Y46.5743 
G01 X-18.5319 Y46.5181 
G01 X-17.3870 Y47.8419 
G01 X-17.4688 Y47.9644 
G01 X-17.5322 Y48.1174 
G01 X-17.5645 Y48.2798 
G01 X-17.5645 Y49.8679 
G01 X-17.5322 Y50.0303 
G01 X-17.4688 Y50.1833 
G01 X-17.3768 Y50.3210 
G01 X-17.2597 Y50.4381 
G01 X-17.2547 Y50.4414 
G01 X-17.2434 Y53.5242 
G01 X-17.2478 Y53.5632 
G01 X-17.2431 Y53.5945 
G01 X-17.2430 Y53.6261 
G01 X-17.2327 Y53.6640 
G01 X-17.2269 Y53.7027 
G01 X-17.2143 Y53.7318 
G01 X-17.2060 Y53.7623 
G01 X-17.1862 Y53.7962 
G01 X-17.1706 Y53.8321 
G01 X-17.1509 Y53.8569 
G01 X-17.1350 Y53.8843 
G01 X-17.1071 Y53.9119 
G01 X-17.0827 Y53.9425 
G01 X-17.0573 Y53.9614 
G01 X-17.0348 Y53.9837 
G01 X-17.0008 Y54.0032 
G01 X-14.1111 Y56.1404 
G01 X-14.1070 Y56.1453 
G01 X-14.0545 Y56.1822 
G01 X-14.0028 Y56.2205 
G01 X-13.9969 Y56.2228 
G01 X-13.9916 Y56.2265 
G01 X-13.9313 Y56.2486 
G01 X-13.8715 Y56.2722 
G01 X-13.8652 Y56.2729 
G01 X-13.8592 Y56.2751 
G01 X-13.7951 Y56.2808 
G01 X-13.7313 Y56.2881 
G01 X-13.7250 Y56.2871 
G01 X-13.2602 Y56.3289 
G01 X-12.6906 Y56.8985 
G00 Z0.5080 
G00 X-13.2873 Y58.8419 
G01 Z-0.2540 F254.00 
G01 X-12.6906 Y59.4385 
G01 X-11.8469 Y59.4385 
G01 X-11.2502 Y58.8419 
G01 X-11.2502 Y57.9981 
G01 X-11.8469 Y57.4015 
G01 X-12.6906 Y57.4015 
G01 X-13.0716 Y57.7824 
G01 X-13.5453 Y57.7247 
G01 X-18.7040 Y54.1688 
G01 X-18.7215 Y50.4317 
G01 X-18.6107 Y50.3210 
G01 X-18.5187 Y50.1833 
G01 X-18.4553 Y50.0303 
G01 X-18.4230 Y49.8679 
G01 X-18.4230 Y48.2798 
G01 X-18.4553 Y48.1174 
G01 X-18.5187 Y47.9644 
G01 X-18.5506 Y47.9167 
G01 X-18.5436 Y47.8695 
G01 X-18.5363 Y47.8478 
G01 X-18.5333 Y47.8000 
G01 X-18.5263 Y47.7525 
G01 X-18.5289 Y47.7298 
G01 X-18.5274 Y47.7070 
G01 X-18.5369 Y47.6600 
G01 X-18.5424 Y47.6123 
G01 X-18.5508 Y47.5911 
G01 X-18.5553 Y47.5686 
G01 X-18.5767 Y47.5257 
G01 X-18.5943 Y47.4811 
G01 X-18.6079 Y47.4627 
G01 X-18.6181 Y47.4423 
G01 X-18.6498 Y47.4063 
G01 X-18.6784 Y47.3678 
G01 X-18.6963 Y47.3536 
G01 X-20.6480 Y45.1403 
G01 X-20.6480 Y44.4161 
G01 X-20.6783 Y44.2635 
G01 X-20.7379 Y44.1197 
G01 X-20.8243 Y43.9903 
G01 X-20.9343 Y43.8803 
G01 X-21.0637 Y43.7939 
G01 X-21.2075 Y43.7343 
G01 X-21.3601 Y43.7039 
G01 X-21.5157 Y43.7039 
G01 X-21.6683 Y43.7343 
G01 X-21.8121 Y43.7939 
G01 X-21.9414 Y43.8803 
G01 X-22.0515 Y43.9903 
G01 X-22.1379 Y44.1197 
G01 X-22.1975 Y44.2635 
G01 X-22.2278 Y44.4161 
G01 X-22.2278 Y45.8925 
G01 X-22.1975 Y46.0451 
G01 X-22.1379 Y46.1889 
G01 X-22.0515 Y46.3182 
G01 X-21.9414 Y46.4283 
G01 X-21.8121 Y46.5147 
G01 X-21.6683 Y46.5743 
G01 X-21.5157 Y46.6046 
G01 X-21.3601 Y46.6046 
G01 X-21.2075 Y46.5743 
G01 X-21.0637 Y46.5147 
G01 X-20.9387 Y46.4312 
G01 X-19.8059 Y47.7159 
G01 X-19.9168 Y47.8267 
G01 X-20.0088 Y47.9644 
G01 X-20.0722 Y48.1174 
G01 X-20.1045 Y48.2798 
G01 X-20.1045 Y49.8679 
G01 X-20.0722 Y50.0303 
G01 X-20.0088 Y50.1833 
G01 X-19.9168 Y50.3210 
G01 X-19.7997 Y50.4381 
G01 X-19.7933 Y50.4424 
G01 X-19.7746 Y54.4310 
G01 X-19.7785 Y54.4787 
G01 X-19.7743 Y54.5013 
G01 X-19.7742 Y54.5242 
G01 X-19.7616 Y54.5704 
G01 X-19.7529 Y54.6175 
G01 X-19.7431 Y54.6382 
G01 X-19.7370 Y54.6604 
G01 X-19.7129 Y54.7017 
G01 X-19.6924 Y54.7450 
G01 X-19.6775 Y54.7624 
G01 X-19.6659 Y54.7822 
G01 X-19.6319 Y54.8159 
G01 X-19.6009 Y54.8524 
G01 X-19.5820 Y54.8654 
G01 X-19.5657 Y54.8816 
G01 X-19.5241 Y54.9053 
G01 X-14.0541 Y58.6758 
G01 X-14.0066 Y58.7116 
G01 X-13.9962 Y58.7157 
G01 X-13.9870 Y58.7221 
G01 X-13.9309 Y58.7421 
G01 X-13.8757 Y58.7643 
G01 X-13.8646 Y58.7656 
G01 X-13.8540 Y58.7694 
G01 X-13.7947 Y58.7741 
G01 X-13.2873 Y58.8359 
G01 X-13.2873 Y58.8419 
G00 Z0.5080 
G00 X-13.5143 Y64.0936 
G01 Z-0.2540 F254.00 
G01 X-13.5021 Y64.0987 
G01 X-13.4912 Y64.1063 
G01 X-13.4371 Y64.1258 
G01 X-13.3841 Y64.1479 
G01 X-13.3709 Y64.1497 
G01 X-13.3584 Y64.1542 
G01 X-13.3011 Y64.1590 
G01 X-13.2442 Y64.1666 
G01 X-13.2310 Y64.1649 
G01 X-13.2178 Y64.1661 
G01 X-13.1612 Y64.1559 
G01 X-13.0656 Y64.1435 
G01 X-12.6906 Y64.5185 
G01 X-11.8469 Y64.5185 
G01 X-11.2502 Y63.9219 
G01 X-11.2502 Y63.0781 
G01 X-11.8469 Y62.4815 
G01 X-12.6906 Y62.4815 
G01 X-13.2073 Y62.9981 
G01 X-23.8272 Y55.6098 
G01 X-23.8119 Y50.4408 
G01 X-23.8078 Y50.4381 
G01 X-23.6907 Y50.3210 
G01 X-23.5987 Y50.1833 
G01 X-23.5353 Y50.0303 
G01 X-23.5030 Y49.8679 
G01 X-23.5030 Y48.2798 
G01 X-23.5353 Y48.1174 
G01 X-23.5987 Y47.9644 
G01 X-23.6531 Y47.8830 
G01 X-23.6355 Y47.7437 
G01 X-23.6258 Y47.7016 
G01 X-23.6267 Y47.6739 
G01 X-23.6232 Y47.6465 
G01 X-23.6291 Y47.6037 
G01 X-23.6306 Y47.5605 
G01 X-23.6386 Y47.5341 
G01 X-23.6424 Y47.5067 
G01 X-23.6591 Y47.4669 
G01 X-23.6717 Y47.4255 
G01 X-23.6864 Y47.4021 
G01 X-23.6971 Y47.3766 
G01 X-23.7236 Y47.3425 
G01 X-23.7464 Y47.3058 
G01 X-23.7666 Y47.2870 
G01 X-23.7836 Y47.2651 
G01 X-23.8180 Y47.2390 
G01 X-25.7279 Y45.4552 
G01 X-25.7279 Y44.4161 
G01 X-25.7583 Y44.2635 
G01 X-25.8179 Y44.1197 
G01 X-25.9043 Y43.9903 
G01 X-26.0143 Y43.8803 
G01 X-26.1437 Y43.7939 
G01 X-26.2875 Y43.7343 
G01 X-26.4401 Y43.7039 
G01 X-26.5957 Y43.7039 
G01 X-26.7483 Y43.7343 
G01 X-26.8921 Y43.7939 
G01 X-27.0214 Y43.8803 
G01 X-27.1315 Y43.9903 
G01 X-27.2179 Y44.1197 
G01 X-27.2775 Y44.2635 
G01 X-27.3078 Y44.4161 
G01 X-27.3078 Y45.8925 
G01 X-27.2775 Y46.0451 
G01 X-27.2179 Y46.1889 
G01 X-27.1315 Y46.3182 
G01 X-27.0214 Y46.4283 
G01 X-26.8921 Y46.5147 
G01 X-26.7483 Y46.5743 
G01 X-26.5957 Y46.6046 
G01 X-26.4401 Y46.6046 
G01 X-26.2875 Y46.5743 
G01 X-26.1577 Y46.5205 
G01 X-24.8820 Y47.7119 
G01 X-24.9968 Y47.8267 
G01 X-25.0888 Y47.9644 
G01 X-25.1522 Y48.1174 
G01 X-25.1845 Y48.2798 
G01 X-25.1845 Y49.8679 
G01 X-25.1522 Y50.0303 
G01 X-25.0888 Y50.1833 
G01 X-24.9968 Y50.3210 
G01 X-24.8837 Y50.4341 
G01 X-24.8998 Y55.8659 
G01 X-24.9039 Y55.9145 
G01 X-24.9000 Y55.9362 
G01 X-24.9001 Y55.9583 
G01 X-24.8876 Y56.0054 
G01 X-24.8790 Y56.0534 
G01 X-24.8696 Y56.0734 
G01 X-24.8640 Y56.0947 
G01 X-24.8397 Y56.1370 
G01 X-24.8190 Y56.1811 
G01 X-24.8048 Y56.1980 
G01 X-24.7938 Y56.2171 
G01 X-24.7594 Y56.2517 
G01 X-24.7279 Y56.2889 
G01 X-24.7098 Y56.3015 
G01 X-24.6943 Y56.3172 
G01 X-24.6521 Y56.3417 
G01 X-13.5598 Y64.0586 
G01 X-13.5143 Y64.0936 
G00 Z0.5080 
G00 X-13.2873 Y65.6181 
G01 Z-0.2540 F254.00 
G01 X-13.2873 Y66.4619 
G01 X-12.6906 Y67.0585 
G01 X-11.8469 Y67.0585 
G01 X-11.2502 Y66.4619 
G01 X-11.2502 Y65.7503 
G01 X-9.1909 Y63.5968 
G01 X-9.1453 Y63.5512 
G01 X-9.1422 Y63.5459 
G01 X-9.1380 Y63.5415 
G01 X-9.1070 Y63.4848 
G01 X-9.0747 Y63.4289 
G01 X-9.0731 Y63.4231 
G01 X-9.0702 Y63.4177 
G01 X-9.0549 Y63.3550 
G01 X-9.0382 Y63.2926 
G01 X-9.0382 Y63.2865 
G01 X-9.0367 Y63.2806 
G01 X-9.0382 Y63.2161 
G01 X-9.0382 Y59.5102 
G01 X-8.4334 Y58.6938 
G01 X-7.6836 Y58.6938 
G01 X-7.5211 Y58.6615 
G01 X-7.3681 Y58.5981 
G01 X-7.2304 Y58.5061 
G01 X-7.1133 Y58.3890 
G01 X-7.0213 Y58.2513 
G01 X-6.9579 Y58.0983 
G01 X-6.9256 Y57.9359 
G01 X-6.9256 Y57.7703 
G01 X-6.9579 Y57.6078 
G01 X-7.0213 Y57.4548 
G01 X-7.1133 Y57.3171 
G01 X-7.2304 Y57.2000 
G01 X-7.3681 Y57.1080 
G01 X-7.5211 Y57.0447 
G01 X-7.6836 Y57.0123 
G01 X-9.2716 Y57.0123 
G01 X-9.4340 Y57.0447 
G01 X-9.5870 Y57.1080 
G01 X-9.7247 Y57.2000 
G01 X-9.8418 Y57.3171 
G01 X-9.9338 Y57.4548 
G01 X-9.9972 Y57.6078 
G01 X-10.0295 Y57.7703 
G01 X-10.0295 Y57.9359 
G01 X-9.9972 Y58.0983 
G01 X-9.9338 Y58.2513 
G01 X-9.8418 Y58.3890 
G01 X-9.7247 Y58.5061 
G01 X-9.6602 Y58.5492 
G01 X-9.9811 Y58.9824 
G01 X-10.0030 Y59.0042 
G01 X-10.0230 Y59.0388 
G01 X-10.0468 Y59.0709 
G01 X-10.0581 Y59.0997 
G01 X-10.0735 Y59.1264 
G01 X-10.0839 Y59.1650 
G01 X-10.0985 Y59.2022 
G01 X-10.1021 Y59.2329 
G01 X-10.1101 Y59.2627 
G01 X-10.1101 Y59.3027 
G01 X-10.1146 Y59.3424 
G01 X-10.1101 Y59.3730 
G01 X-10.1101 Y63.0071 
G01 X-12.0363 Y65.0215 
G01 X-12.6906 Y65.0215 
G01 X-13.2873 Y65.6181 
G00 Z0.5080 
G00 X-13.2873 Y70.2052 
G01 Z-0.2540 F254.00 
G01 X-13.2873 Y72.0348 
G01 X-13.2676 Y72.0824 
G01 X-13.2311 Y72.1188 
G01 X-13.1835 Y72.1385 
G01 X-11.3540 Y72.1385 
G01 X-11.3064 Y72.1188 
G01 X-11.2699 Y72.0824 
G01 X-11.2502 Y72.0348 
G01 X-11.2502 Y70.2052 
G01 X-11.2699 Y70.1576 
G01 X-11.3064 Y70.1212 
G01 X-11.3540 Y70.1015 
G01 X-13.1835 Y70.1015 
G01 X-13.2311 Y70.1212 
G01 X-13.2676 Y70.1576 
G01 X-13.2873 Y70.2052 
G00 Z0.5080 
G00 X-12.6906 Y69.5985 
G01 Z-0.2540 F254.00 
G01 X-11.8469 Y69.5985 
G01 X-11.2502 Y69.0019 
G01 X-11.2502 Y68.1581 
G01 X-11.8469 Y67.5615 
G01 X-12.6906 Y67.5615 
G01 X-13.2491 Y68.1199 
G01 X-13.7798 Y68.1619 
G01 X-26.3741 Y58.6722 
G01 X-26.3516 Y50.4406 
G01 X-26.3478 Y50.4381 
G01 X-26.2307 Y50.3210 
G01 X-26.1387 Y50.1833 
G01 X-26.0753 Y50.0303 
G01 X-26.0430 Y49.8679 
G01 X-26.0430 Y48.2798 
G01 X-26.0753 Y48.1174 
G01 X-26.1387 Y47.9644 
G01 X-26.2307 Y47.8267 
G01 X-26.3478 Y47.7096 
G01 X-26.4855 Y47.6176 
G01 X-26.6385 Y47.5542 
G01 X-26.8009 Y47.5219 
G01 X-26.9666 Y47.5219 
G01 X-27.1290 Y47.5542 
G01 X-27.2820 Y47.6176 
G01 X-27.4197 Y47.7096 
G01 X-27.5368 Y47.8267 
G01 X-27.6288 Y47.9644 
G01 X-27.6922 Y48.1174 
G01 X-27.7245 Y48.2798 
G01 X-27.7245 Y49.8679 
G01 X-27.6922 Y50.0303 
G01 X-27.6288 Y50.1833 
G01 X-27.5368 Y50.3210 
G01 X-27.4234 Y50.4344 
G01 X-27.4466 Y58.9054 
G01 X-27.4513 Y58.9436 
G01 X-27.4468 Y58.9757 
G01 X-27.4469 Y59.0080 
G01 X-27.4371 Y59.0452 
G01 X-27.4317 Y59.0834 
G01 X-27.4191 Y59.1131 
G01 X-27.4108 Y59.1444 
G01 X-27.3916 Y59.1778 
G01 X-27.3766 Y59.2133 
G01 X-27.3566 Y59.2388 
G01 X-27.3406 Y59.2668 
G01 X-27.3134 Y59.2941 
G01 X-27.2897 Y59.3245 
G01 X-27.2638 Y59.3439 
G01 X-27.2410 Y59.3668 
G01 X-27.2077 Y59.3862 
G01 X-14.2755 Y69.1304 
G01 X-14.2343 Y69.1657 
G01 X-14.2194 Y69.1727 
G01 X-14.2062 Y69.1827 
G01 X-14.1558 Y69.2030 
G01 X-14.1069 Y69.2264 
G01 X-14.0906 Y69.2293 
G01 X-14.0753 Y69.2355 
G01 X-14.0215 Y69.2421 
G01 X-13.9681 Y69.2520 
G01 X-13.9517 Y69.2507 
G01 X-13.9353 Y69.2527 
G01 X-13.8815 Y69.2452 
G01 X-13.1054 Y69.1838 
G01 X-12.6906 Y69.5985 
G00 Z0.5080 
G00 X-44.2046 Y72.0101 
G01 Z-0.2540 F254.00 
G01 X-42.6166 Y72.0101 
G01 X-42.4541 Y71.9778 
G01 X-42.3011 Y71.9145 
G01 X-42.1634 Y71.8224 
G01 X-42.0463 Y71.7053 
G01 X-41.9902 Y71.6214 
G01 X-41.2273 Y71.6362 
G01 X-41.2273 Y72.0348 
G01 X-41.2076 Y72.0824 
G01 X-41.1711 Y72.1188 
G01 X-41.1235 Y72.1385 
G01 X-39.2940 Y72.1385 
G01 X-39.2464 Y72.1188 
G01 X-39.2099 Y72.0824 
G01 X-39.1902 Y72.0348 
G01 X-39.1902 Y70.2052 
G01 X-39.2099 Y70.1576 
G01 X-39.2464 Y70.1212 
G01 X-39.2940 Y70.1015 
G01 X-41.1235 Y70.1015 
G01 X-41.1711 Y70.1212 
G01 X-41.2076 Y70.1576 
G01 X-41.2273 Y70.2052 
G01 X-41.2273 Y70.5641 
G01 X-42.1332 Y70.5465 
G01 X-42.1634 Y70.5164 
G01 X-42.3011 Y70.4243 
G01 X-42.4541 Y70.3610 
G01 X-42.6166 Y70.3287 
G01 X-44.2046 Y70.3287 
G01 X-44.3670 Y70.3610 
G01 X-44.5200 Y70.4243 
G01 X-44.6577 Y70.5164 
G01 X-44.7748 Y70.6335 
G01 X-44.8668 Y70.7712 
G01 X-44.9302 Y70.9242 
G01 X-44.9625 Y71.0866 
G01 X-44.9625 Y71.2522 
G01 X-44.9302 Y71.4146 
G01 X-44.8668 Y71.5676 
G01 X-44.7748 Y71.7053 
G01 X-44.6577 Y71.8224 
G01 X-44.5200 Y71.9145 
G01 X-44.3670 Y71.9778 
G01 X-44.2046 Y72.0101 
G00 Z0.5080 
G00 X-17.4535 Y38.9993 
G01 Z-0.2540 F254.00 
G01 X-17.5044 Y38.9484 
G01 X-17.5113 Y38.9415 
G01 X-17.5870 Y38.9101 
G01 X-17.6688 Y38.9101 
G01 X-17.7423 Y38.9406 
G01 X-17.7444 Y38.9415 
G01 X-17.8023 Y38.9993 
G01 X-18.1368 Y39.3338 
G01 X-18.6306 Y39.5383 
G01 X-19.1652 Y39.5383 
G01 X-19.6590 Y39.3338 
G01 X-19.9935 Y38.9993 
G01 X-20.0444 Y38.9484 
G01 X-20.0513 Y38.9415 
G01 X-20.1270 Y38.9101 
G01 X-20.2088 Y38.9101 
G01 X-20.2823 Y38.9406 
G01 X-20.2844 Y38.9415 
G01 X-20.3423 Y38.9993 
G01 X-20.6768 Y39.3338 
G01 X-21.1706 Y39.5383 
G01 X-21.7052 Y39.5383 
G01 X-22.1990 Y39.3338 
G01 X-22.5335 Y38.9993 
G01 X-22.5335 Y38.9993 
G01 X-22.5844 Y38.9484 
G01 X-22.5913 Y38.9415 
G01 X-22.6670 Y38.9101 
G01 X-22.7488 Y38.9101 
G01 X-22.8223 Y38.9406 
G01 X-22.8244 Y38.9415 
G01 X-22.8823 Y38.9993 
G01 X-23.2168 Y39.3338 
G01 X-23.7106 Y39.5383 
G01 X-24.2452 Y39.5383 
G01 X-24.7390 Y39.3338 
G01 X-25.0735 Y38.9993 
G01 X-25.0735 Y38.9993 
G01 X-25.1244 Y38.9484 
G01 X-25.1313 Y38.9415 
G01 X-25.2070 Y38.9101 
G01 X-25.2888 Y38.9101 
G01 X-25.3623 Y38.9406 
G01 X-25.3644 Y38.9415 
G01 X-25.4223 Y38.9993 
G01 X-25.7568 Y39.3338 
G01 X-26.2506 Y39.5383 
G01 X-26.7852 Y39.5383 
G01 X-27.2790 Y39.3338 
G01 X-27.6135 Y38.9993 
G01 X-27.6135 Y38.9993 
G01 X-27.6644 Y38.9484 
G01 X-27.6713 Y38.9415 
G01 X-27.7470 Y38.9101 
G01 X-27.8288 Y38.9101 
G01 X-27.9023 Y38.9406 
G01 X-27.9044 Y38.9415 
G01 X-27.9623 Y38.9993 
G01 X-28.2968 Y39.3338 
G01 X-28.7906 Y39.5383 
G01 X-29.3252 Y39.5383 
G01 X-29.8190 Y39.3338 
G01 X-30.1535 Y38.9993 
G01 X-30.1535 Y38.9993 
G01 X-30.2044 Y38.9484 
G01 X-30.2113 Y38.9415 
G01 X-30.2870 Y38.9101 
G01 X-30.3688 Y38.9101 
G01 X-30.4423 Y38.9406 
G01 X-30.4444 Y38.9415 
G01 X-30.5023 Y38.9993 
G01 X-30.8368 Y39.3338 
G01 X-31.3306 Y39.5383 
G01 X-31.8652 Y39.5383 
G01 X-32.3590 Y39.3338 
G01 X-32.6935 Y38.9993 
G01 X-32.6935 Y38.9993 
G01 X-32.7444 Y38.9484 
G01 X-32.7513 Y38.9415 
G01 X-32.8270 Y38.9101 
G01 X-32.9088 Y38.9101 
G01 X-32.9823 Y38.9406 
G01 X-32.9844 Y38.9415 
G01 X-33.0423 Y38.9993 
G01 X-33.3768 Y39.3338 
G01 X-33.8706 Y39.5383 
G01 X-34.4052 Y39.5383 
G01 X-34.8990 Y39.3338 
G01 X-35.2335 Y38.9993 
G01 X-35.2335 Y38.9993 
G01 X-35.2844 Y38.9484 
G01 X-35.2913 Y38.9415 
G01 X-35.3670 Y38.9101 
G01 X-35.4488 Y38.9101 
G01 X-35.5223 Y38.9406 
G01 X-35.5244 Y38.9415 
G01 X-35.5823 Y38.9993 
G01 X-35.9168 Y39.3338 
G01 X-36.4106 Y39.5383 
G01 X-36.9452 Y39.5383 
G01 X-37.4390 Y39.3338 
G01 X-37.8170 Y38.9558 
G01 X-38.0215 Y38.4620 
G01 X-38.0215 Y36.6066 
G01 X-37.8339 Y36.1535 
G01 X-37.8321 Y36.1516 
G01 X-37.8182 Y36.1157 
G01 X-37.8035 Y36.0802 
G01 X-37.8035 Y36.0777 
G01 X-37.8026 Y36.0753 
G01 X-37.8035 Y36.0368 
G01 X-37.8035 Y35.9984 
G01 X-37.8045 Y35.9960 
G01 X-37.8191 Y35.3829 
G01 X-37.8191 Y35.3444 
G01 X-37.8200 Y35.3421 
G01 X-37.8201 Y35.3396 
G01 X-37.8357 Y35.3044 
G01 X-37.8504 Y35.2688 
G01 X-37.8522 Y35.2670 
G01 X-37.8532 Y35.2647 
G01 X-37.8811 Y35.2381 
G01 X-37.9521 Y35.1671 
G01 X-38.1644 Y34.6546 
G01 X-38.1644 Y32.6774 
G01 X-37.9521 Y32.1649 
G01 X-37.5599 Y31.7726 
G01 X-37.0473 Y31.5603 
G01 X-36.4926 Y31.5603 
G01 X-35.9801 Y31.7726 
G01 X-35.6744 Y32.0783 
G01 X-35.6744 Y32.0783 
G01 X-35.6230 Y32.1297 
G01 X-35.6165 Y32.1362 
G01 X-35.5409 Y32.1675 
G01 X-35.4590 Y32.1675 
G01 X-35.3856 Y32.1371 
G01 X-35.3834 Y32.1362 
G01 X-35.3255 Y32.0783 
G01 X-35.0199 Y31.7726 
G01 X-34.5073 Y31.5603 
G01 X-33.9526 Y31.5603 
G01 X-33.4401 Y31.7726 
G01 X-33.1344 Y32.0783 
G01 X-33.1344 Y32.0783 
G01 X-33.0830 Y32.1297 
G01 X-33.0765 Y32.1362 
G01 X-33.0009 Y32.1675 
G01 X-32.9190 Y32.1675 
G01 X-32.8456 Y32.1371 
G01 X-32.8434 Y32.1362 
G01 X-32.7855 Y32.0783 
G01 X-32.4799 Y31.7726 
G01 X-31.9673 Y31.5603 
G01 X-31.4126 Y31.5603 
G01 X-30.9001 Y31.7726 
G01 X-30.5944 Y32.0783 
G01 X-30.5944 Y32.0783 
G01 X-30.5430 Y32.1297 
G01 X-30.5365 Y32.1362 
G01 X-30.4609 Y32.1675 
G01 X-30.3790 Y32.1675 
G01 X-30.3056 Y32.1371 
G01 X-30.3034 Y32.1362 
G01 X-30.2455 Y32.0783 
G01 X-29.9399 Y31.7726 
G01 X-29.4273 Y31.5603 
G01 X-28.8726 Y31.5603 
G01 X-28.3601 Y31.7726 
G01 X-28.0544 Y32.0783 
G01 X-28.0544 Y32.0783 
G01 X-28.0030 Y32.1297 
G01 X-27.9965 Y32.1362 
G01 X-27.9209 Y32.1675 
G01 X-27.8390 Y32.1675 
G01 X-27.7656 Y32.1371 
G01 X-27.7634 Y32.1362 
G01 X-27.7055 Y32.0783 
G01 X-27.3999 Y31.7726 
G01 X-26.8873 Y31.5603 
G01 X-26.3326 Y31.5603 
G01 X-25.8201 Y31.7726 
G01 X-25.4565 Y32.1362 
G01 X-25.3809 Y32.1675 
G01 X-25.2990 Y32.1675 
G01 X-25.2234 Y32.1362 
G01 X-25.1655 Y32.0783 
G01 X-25.1655 Y32.0783 
G01 X-24.8599 Y31.7726 
G01 X-24.3473 Y31.5603 
G01 X-23.7926 Y31.5603 
G01 X-23.2801 Y31.7726 
G01 X-22.9165 Y32.1362 
G01 X-22.8409 Y32.1675 
G01 X-22.7590 Y32.1675 
G01 X-22.6834 Y32.1362 
G01 X-22.6255 Y32.0783 
G01 X-22.6255 Y32.0783 
G01 X-22.3199 Y31.7726 
G01 X-21.8073 Y31.5603 
G01 X-21.2526 Y31.5603 
G01 X-20.7401 Y31.7726 
G01 X-20.4344 Y32.0783 
G01 X-20.4344 Y32.0783 
G01 X-20.3830 Y32.1297 
G01 X-20.3765 Y32.1362 
G01 X-20.3009 Y32.1675 
G01 X-20.2190 Y32.1675 
G01 X-20.1456 Y32.1371 
G01 X-20.1434 Y32.1362 
G01 X-20.0855 Y32.0783 
G01 X-19.7799 Y31.7726 
G01 X-19.2673 Y31.5603 
G01 X-18.7126 Y31.5603 
G01 X-18.2001 Y31.7726 
G01 X-17.8078 Y32.1649 
G01 X-17.5955 Y32.6774 
G01 X-17.5955 Y34.6546 
G01 X-17.8078 Y35.1671 
G01 X-17.8296 Y35.1889 
G01 X-17.8306 Y35.1912 
G01 X-17.8323 Y35.1931 
G01 X-17.8462 Y35.2290 
G01 X-17.8609 Y35.2645 
G01 X-17.8609 Y35.2670 
G01 X-17.8618 Y35.2694 
G01 X-17.8609 Y35.3079 
G01 X-17.8609 Y35.3463 
G01 X-17.8599 Y35.3487 
G01 X-17.8458 Y35.9430 
G01 X-17.8458 Y35.9815 
G01 X-17.8448 Y35.9838 
G01 X-17.8448 Y35.9863 
G01 X-17.8292 Y36.0216 
G01 X-17.8145 Y36.0571 
G01 X-17.8127 Y36.0589 
G01 X-17.8117 Y36.0612 
G01 X-17.7837 Y36.0878 
G01 X-17.7722 Y36.0993 
G01 X-17.7444 Y36.1271 
G01 X-17.7444 Y36.1271 
G01 X-17.7444 Y36.1271 
G01 X-17.6976 Y36.1465 
G01 X-17.6688 Y36.1584 
G01 X-17.6688 Y36.1584 
G01 X-17.6688 Y36.1585 
G01 X-17.6276 Y36.1584 
G01 X-17.5870 Y36.1584 
G01 X-17.5869 Y36.1584 
G01 X-17.5869 Y36.1584 
G01 X-17.5576 Y36.1463 
G01 X-17.5113 Y36.1271 
G01 X-17.5113 Y36.1271 
G01 X-17.5113 Y36.1271 
G01 X-17.4812 Y36.0970 
G01 X-17.1190 Y35.7348 
G01 X-16.6252 Y35.5302 
G01 X-16.0906 Y35.5302 
G01 X-15.5968 Y35.7348 
G01 X-15.2188 Y36.1128 
G01 X-15.0142 Y36.6066 
G01 X-15.0142 Y38.4620 
G01 X-15.2188 Y38.9558 
G01 X-15.5968 Y39.3338 
G01 X-16.0906 Y39.5383 
G01 X-16.6252 Y39.5383 
G01 X-17.1190 Y39.3338 
G01 X-17.4535 Y38.9993 
G01 X-17.4535 Y38.9993 
G00 Z0.5080 
G00 X-22.3707 Y32.8720 
G01 Z-0.2540 F254.00 
G01 X-22.3707 Y34.4600 
G01 X-22.3384 Y34.6224 
G01 X-22.2750 Y34.7754 
G01 X-22.1830 Y34.9131 
G01 X-22.0659 Y35.0302 
G01 X-22.0331 Y35.0522 
G01 X-22.0028 Y36.3217 
G01 X-22.0515 Y36.3703 
G01 X-22.1379 Y36.4997 
G01 X-22.1975 Y36.6435 
G01 X-22.2278 Y36.7961 
G01 X-22.2278 Y38.2725 
G01 X-22.1975 Y38.4251 
G01 X-22.1379 Y38.5689 
G01 X-22.0515 Y38.6982 
G01 X-21.9414 Y38.8083 
G01 X-21.8121 Y38.8947 
G01 X-21.6683 Y38.9543 
G01 X-21.5157 Y38.9846 
G01 X-21.3601 Y38.9846 
G01 X-21.2075 Y38.9543 
G01 X-21.0637 Y38.8947 
G01 X-20.9343 Y38.8083 
G01 X-20.8243 Y38.6982 
G01 X-20.7379 Y38.5689 
G01 X-20.6783 Y38.4251 
G01 X-20.6480 Y38.2725 
G01 X-20.6480 Y36.7961 
G01 X-20.6783 Y36.6435 
G01 X-20.7379 Y36.4997 
G01 X-20.8243 Y36.3703 
G01 X-20.9321 Y36.2626 
G01 X-20.9622 Y34.9984 
G01 X-20.8769 Y34.9131 
G01 X-20.7849 Y34.7754 
G01 X-20.7215 Y34.6224 
G01 X-20.6892 Y34.4600 
G01 X-20.6892 Y32.8720 
G01 X-20.7215 Y32.7096 
G01 X-20.7849 Y32.5566 
G01 X-20.8769 Y32.4189 
G01 X-20.9940 Y32.3017 
G01 X-21.1317 Y32.2097 
G01 X-21.2847 Y32.1464 
G01 X-21.4472 Y32.1141 
G01 X-21.6128 Y32.1141 
G01 X-21.7752 Y32.1464 
G01 X-21.9282 Y32.2097 
G01 X-22.0659 Y32.3017 
G01 X-22.1830 Y32.4189 
G01 X-22.2750 Y32.5566 
G01 X-22.3384 Y32.7096 
G01 X-22.3707 Y32.8720 
G00 Z0.5080 
G00 X-27.4507 Y32.8720 
G01 Z-0.2540 F254.00 
G01 X-27.4507 Y34.4600 
G01 X-27.4184 Y34.6224 
G01 X-27.3550 Y34.7754 
G01 X-27.2630 Y34.9131 
G01 X-27.1459 Y35.0302 
G01 X-27.1131 Y35.0522 
G01 X-27.0828 Y36.3217 
G01 X-27.1315 Y36.3703 
G01 X-27.2179 Y36.4997 
G01 X-27.2775 Y36.6435 
G01 X-27.3078 Y36.7961 
G01 X-27.3078 Y38.2725 
G01 X-27.2775 Y38.4251 
G01 X-27.2179 Y38.5689 
G01 X-27.1315 Y38.6982 
G01 X-27.0214 Y38.8083 
G01 X-26.8921 Y38.8947 
G01 X-26.7483 Y38.9543 
G01 X-26.5957 Y38.9846 
G01 X-26.4401 Y38.9846 
G01 X-26.2875 Y38.9543 
G01 X-26.1437 Y38.8947 
G01 X-26.0143 Y38.8083 
G01 X-25.9043 Y38.6982 
G01 X-25.8179 Y38.5689 
G01 X-25.7583 Y38.4251 
G01 X-25.7279 Y38.2725 
G01 X-25.7279 Y36.7961 
G01 X-25.7583 Y36.6435 
G01 X-25.8179 Y36.4997 
G01 X-25.9043 Y36.3703 
G01 X-26.0121 Y36.2626 
G01 X-26.0422 Y34.9984 
G01 X-25.9569 Y34.9131 
G01 X-25.8649 Y34.7754 
G01 X-25.8015 Y34.6224 
G01 X-25.7692 Y34.4600 
G01 X-25.7692 Y32.8720 
G01 X-25.8015 Y32.7096 
G01 X-25.8649 Y32.5566 
G01 X-25.9569 Y32.4189 
G01 X-26.0740 Y32.3017 
G01 X-26.2117 Y32.2097 
G01 X-26.3647 Y32.1464 
G01 X-26.5272 Y32.1141 
G01 X-26.6928 Y32.1141 
G01 X-26.8552 Y32.1464 
G01 X-27.0082 Y32.2097 
G01 X-27.1459 Y32.3017 
G01 X-27.2630 Y32.4189 
G01 X-27.3550 Y32.5566 
G01 X-27.4184 Y32.7096 
G01 X-27.4507 Y32.8720 
G00 Z0.5080 
G00 X-32.5307 Y32.8720 
G01 Z-0.2540 F254.00 
G01 X-32.5307 Y34.4600 
G01 X-32.4984 Y34.6224 
G01 X-32.4350 Y34.7754 
G01 X-32.3430 Y34.9131 
G01 X-32.2259 Y35.0302 
G01 X-32.1931 Y35.0522 
G01 X-32.1628 Y36.3217 
G01 X-32.2115 Y36.3703 
G01 X-32.2979 Y36.4997 
G01 X-32.3575 Y36.6435 
G01 X-32.3878 Y36.7961 
G01 X-32.3878 Y38.2725 
G01 X-32.3575 Y38.4251 
G01 X-32.2979 Y38.5689 
G01 X-32.2115 Y38.6982 
G01 X-32.1014 Y38.8083 
G01 X-31.9721 Y38.8947 
G01 X-31.8283 Y38.9543 
G01 X-31.6757 Y38.9846 
G01 X-31.5201 Y38.9846 
G01 X-31.3675 Y38.9543 
G01 X-31.2237 Y38.8947 
G01 X-31.0943 Y38.8083 
G01 X-30.9843 Y38.6982 
G01 X-30.8979 Y38.5689 
G01 X-30.8383 Y38.4251 
G01 X-30.8080 Y38.2725 
G01 X-30.8080 Y36.7961 
G01 X-30.8383 Y36.6435 
G01 X-30.8979 Y36.4997 
G01 X-30.9843 Y36.3703 
G01 X-31.0921 Y36.2626 
G01 X-31.1222 Y34.9984 
G01 X-31.0369 Y34.9131 
G01 X-30.9449 Y34.7754 
G01 X-30.8815 Y34.6224 
G01 X-30.8492 Y34.4600 
G01 X-30.8492 Y32.8720 
G01 X-30.8815 Y32.7096 
G01 X-30.9449 Y32.5566 
G01 X-31.0369 Y32.4189 
G01 X-31.1540 Y32.3017 
G01 X-31.2917 Y32.2097 
G01 X-31.4447 Y32.1464 
G01 X-31.6072 Y32.1141 
G01 X-31.7728 Y32.1141 
G01 X-31.9352 Y32.1464 
G01 X-32.0882 Y32.2097 
G01 X-32.2259 Y32.3017 
G01 X-32.3430 Y32.4189 
G01 X-32.4350 Y32.5566 
G01 X-32.4984 Y32.7096 
G01 X-32.5307 Y32.8720 
G00 Z0.5080 
G00 X-37.6107 Y32.8720 
G01 Z-0.2540 F254.00 
G01 X-37.6107 Y34.4600 
G01 X-37.5784 Y34.6224 
G01 X-37.5150 Y34.7754 
G01 X-37.4230 Y34.9131 
G01 X-37.3059 Y35.0302 
G01 X-37.2731 Y35.0522 
G01 X-37.2428 Y36.3217 
G01 X-37.2915 Y36.3703 
G01 X-37.3779 Y36.4997 
G01 X-37.4375 Y36.6435 
G01 X-37.4678 Y36.7961 
G01 X-37.4678 Y38.2725 
G01 X-37.4375 Y38.4251 
G01 X-37.3779 Y38.5689 
G01 X-37.2915 Y38.6982 
G01 X-37.1814 Y38.8083 
G01 X-37.0521 Y38.8947 
G01 X-36.9083 Y38.9543 
G01 X-36.7557 Y38.9846 
G01 X-36.6001 Y38.9846 
G01 X-36.4475 Y38.9543 
G01 X-36.3037 Y38.8947 
G01 X-36.1743 Y38.8083 
G01 X-36.0643 Y38.6982 
G01 X-35.9779 Y38.5689 
G01 X-35.9183 Y38.4251 
G01 X-35.8880 Y38.2725 
G01 X-35.8880 Y36.7961 
G01 X-35.9183 Y36.6435 
G01 X-35.9779 Y36.4997 
G01 X-36.0643 Y36.3703 
G01 X-36.1721 Y36.2626 
G01 X-36.2022 Y34.9984 
G01 X-36.1169 Y34.9131 
G01 X-36.0249 Y34.7754 
G01 X-35.9615 Y34.6224 
G01 X-35.9292 Y34.4600 
G01 X-35.9292 Y32.8720 
G01 X-35.9615 Y32.7096 
G01 X-36.0249 Y32.5566 
G01 X-36.1169 Y32.4189 
G01 X-36.2340 Y32.3017 
G01 X-36.3717 Y32.2097 
G01 X-36.5247 Y32.1464 
G01 X-36.6872 Y32.1141 
G01 X-36.8528 Y32.1141 
G01 X-37.0152 Y32.1464 
G01 X-37.1682 Y32.2097 
G01 X-37.3059 Y32.3017 
G01 X-37.4230 Y32.4189 
G01 X-37.5150 Y32.5566 
G01 X-37.5784 Y32.7096 
G01 X-37.6107 Y32.8720 
G00 Z0.5080 
G00 X-34.9278 Y36.7961 
G01 Z-0.2540 F254.00 
G01 X-34.9278 Y38.2725 
G01 X-34.8975 Y38.4251 
G01 X-34.8379 Y38.5689 
G01 X-34.7515 Y38.6982 
G01 X-34.6414 Y38.8083 
G01 X-34.5121 Y38.8947 
G01 X-34.3683 Y38.9543 
G01 X-34.2157 Y38.9846 
G01 X-34.0601 Y38.9846 
G01 X-33.9075 Y38.9543 
G01 X-33.7637 Y38.8947 
G01 X-33.6343 Y38.8083 
G01 X-33.5243 Y38.6982 
G01 X-33.4379 Y38.5689 
G01 X-33.3783 Y38.4251 
G01 X-33.3480 Y38.2725 
G01 X-33.3480 Y36.7961 
G01 X-33.3783 Y36.6435 
G01 X-33.4379 Y36.4997 
G01 X-33.5243 Y36.3703 
G01 X-33.6321 Y36.2626 
G01 X-33.6622 Y34.9984 
G01 X-33.5769 Y34.9131 
G01 X-33.4849 Y34.7754 
G01 X-33.4215 Y34.6224 
G01 X-33.3892 Y34.4600 
G01 X-33.3892 Y32.8720 
G01 X-33.4215 Y32.7096 
G01 X-33.4849 Y32.5566 
G01 X-33.5769 Y32.4189 
G01 X-33.6940 Y32.3017 
G01 X-33.8317 Y32.2097 
G01 X-33.9847 Y32.1464 
G01 X-34.1472 Y32.1141 
G01 X-34.3128 Y32.1141 
G01 X-34.4752 Y32.1464 
G01 X-34.6282 Y32.2097 
G01 X-34.7659 Y32.3017 
G01 X-34.8830 Y32.4189 
G01 X-34.9750 Y32.5566 
G01 X-35.0384 Y32.7096 
G01 X-35.0707 Y32.8720 
G01 X-35.0707 Y34.4600 
G01 X-35.0384 Y34.6224 
G01 X-34.9750 Y34.7754 
G01 X-34.8830 Y34.9131 
G01 X-34.7659 Y35.0302 
G01 X-34.7331 Y35.0522 
G01 X-34.7028 Y36.3217 
G01 X-34.7515 Y36.3703 
G01 X-34.8379 Y36.4997 
G01 X-34.8975 Y36.6435 
G01 X-34.9278 Y36.7961 
G00 Z0.5080 
G00 X-29.8478 Y36.7961 
G01 Z-0.2540 F254.00 
G01 X-29.8478 Y38.2725 
G01 X-29.8175 Y38.4251 
G01 X-29.7579 Y38.5689 
G01 X-29.6715 Y38.6982 
G01 X-29.5614 Y38.8083 
G01 X-29.4321 Y38.8947 
G01 X-29.2883 Y38.9543 
G01 X-29.1357 Y38.9846 
G01 X-28.9801 Y38.9846 
G01 X-28.8275 Y38.9543 
G01 X-28.6837 Y38.8947 
G01 X-28.5543 Y38.8083 
G01 X-28.4443 Y38.6982 
G01 X-28.3579 Y38.5689 
G01 X-28.2983 Y38.4251 
G01 X-28.2680 Y38.2725 
G01 X-28.2680 Y36.7961 
G01 X-28.2983 Y36.6435 
G01 X-28.3579 Y36.4997 
G01 X-28.4443 Y36.3703 
G01 X-28.5521 Y36.2626 
G01 X-28.5822 Y34.9984 
G01 X-28.4969 Y34.9131 
G01 X-28.4049 Y34.7754 
G01 X-28.3415 Y34.6224 
G01 X-28.3092 Y34.4600 
G01 X-28.3092 Y32.8720 
G01 X-28.3415 Y32.7096 
G01 X-28.4049 Y32.5566 
G01 X-28.4969 Y32.4189 
G01 X-28.6140 Y32.3017 
G01 X-28.7517 Y32.2097 
G01 X-28.9047 Y32.1464 
G01 X-29.0672 Y32.1141 
G01 X-29.2328 Y32.1141 
G01 X-29.3952 Y32.1464 
G01 X-29.5482 Y32.2097 
G01 X-29.6859 Y32.3017 
G01 X-29.8030 Y32.4189 
G01 X-29.8950 Y32.5566 
G01 X-29.9584 Y32.7096 
G01 X-29.9907 Y32.8720 
G01 X-29.9907 Y34.4600 
G01 X-29.9584 Y34.6224 
G01 X-29.8950 Y34.7754 
G01 X-29.8030 Y34.9131 
G01 X-29.6859 Y35.0302 
G01 X-29.6531 Y35.0522 
G01 X-29.6228 Y36.3217 
G01 X-29.6715 Y36.3703 
G01 X-29.7579 Y36.4997 
G01 X-29.8175 Y36.6435 
G01 X-29.8478 Y36.7961 
G00 Z0.5080 
G00 X-24.7678 Y36.7961 
G01 Z-0.2540 F254.00 
G01 X-24.7678 Y38.2725 
G01 X-24.7375 Y38.4251 
G01 X-24.6779 Y38.5689 
G01 X-24.5915 Y38.6982 
G01 X-24.4814 Y38.8083 
G01 X-24.3521 Y38.8947 
G01 X-24.2083 Y38.9543 
G01 X-24.0557 Y38.9846 
G01 X-23.9001 Y38.9846 
G01 X-23.7475 Y38.9543 
G01 X-23.6037 Y38.8947 
G01 X-23.4743 Y38.8083 
G01 X-23.3643 Y38.6982 
G01 X-23.2779 Y38.5689 
G01 X-23.2183 Y38.4251 
G01 X-23.1880 Y38.2725 
G01 X-23.1880 Y36.7961 
G01 X-23.2183 Y36.6435 
G01 X-23.2779 Y36.4997 
G01 X-23.3643 Y36.3703 
G01 X-23.4721 Y36.2626 
G01 X-23.5022 Y34.9984 
G01 X-23.4169 Y34.9131 
G01 X-23.3249 Y34.7754 
G01 X-23.2615 Y34.6224 
G01 X-23.2292 Y34.4600 
G01 X-23.2292 Y32.8720 
G01 X-23.2615 Y32.7096 
G01 X-23.3249 Y32.5566 
G01 X-23.4169 Y32.4189 
G01 X-23.5340 Y32.3017 
G01 X-23.6717 Y32.2097 
G01 X-23.8247 Y32.1464 
G01 X-23.9872 Y32.1141 
G01 X-24.1528 Y32.1141 
G01 X-24.3152 Y32.1464 
G01 X-24.4682 Y32.2097 
G01 X-24.6059 Y32.3017 
G01 X-24.7230 Y32.4189 
G01 X-24.8150 Y32.5566 
G01 X-24.8784 Y32.7096 
G01 X-24.9107 Y32.8720 
G01 X-24.9107 Y34.4600 
G01 X-24.8784 Y34.6224 
G01 X-24.8150 Y34.7754 
G01 X-24.7230 Y34.9131 
G01 X-24.6059 Y35.0302 
G01 X-24.5731 Y35.0522 
G01 X-24.5428 Y36.3217 
G01 X-24.5915 Y36.3703 
G01 X-24.6779 Y36.4997 
G01 X-24.7375 Y36.6435 
G01 X-24.7678 Y36.7961 
G00 Z0.5080 
G00 X-19.6878 Y36.7961 
G01 Z-0.2540 F254.00 
G01 X-19.6878 Y38.2725 
G01 X-19.6575 Y38.4251 
G01 X-19.5979 Y38.5689 
G01 X-19.5115 Y38.6982 
G01 X-19.4014 Y38.8083 
G01 X-19.2721 Y38.8947 
G01 X-19.1283 Y38.9543 
G01 X-18.9757 Y38.9846 
G01 X-18.8201 Y38.9846 
G01 X-18.6675 Y38.9543 
G01 X-18.5237 Y38.8947 
G01 X-18.3943 Y38.8083 
G01 X-18.2843 Y38.6982 
G01 X-18.1979 Y38.5689 
G01 X-18.1383 Y38.4251 
G01 X-18.1080 Y38.2725 
G01 X-18.1080 Y36.7961 
G01 X-18.1383 Y36.6435 
G01 X-18.1979 Y36.4997 
G01 X-18.2843 Y36.3703 
G01 X-18.3921 Y36.2626 
G01 X-18.4222 Y34.9984 
G01 X-18.3369 Y34.9131 
G01 X-18.2449 Y34.7754 
G01 X-18.1815 Y34.6224 
G01 X-18.1492 Y34.4600 
G01 X-18.1492 Y32.8720 
G01 X-18.1815 Y32.7096 
G01 X-18.2449 Y32.5566 
G01 X-18.3369 Y32.4189 
G01 X-18.4540 Y32.3017 
G01 X-18.5917 Y32.2097 
G01 X-18.7447 Y32.1464 
G01 X-18.9072 Y32.1141 
G01 X-19.0728 Y32.1141 
G01 X-19.2352 Y32.1464 
G01 X-19.3882 Y32.2097 
G01 X-19.5259 Y32.3017 
G01 X-19.6430 Y32.4189 
G01 X-19.7350 Y32.5566 
G01 X-19.7984 Y32.7096 
G01 X-19.8307 Y32.8720 
G01 X-19.8307 Y34.4600 
G01 X-19.7984 Y34.6224 
G01 X-19.7350 Y34.7754 
G01 X-19.6430 Y34.9131 
G01 X-19.5259 Y35.0302 
G01 X-19.4931 Y35.0522 
G01 X-19.4628 Y36.3217 
G01 X-19.5115 Y36.3703 
G01 X-19.5979 Y36.4997 
G01 X-19.6575 Y36.6435 
G01 X-19.6878 Y36.7961 
G00 Z0.5080 
G00 X-17.1478 Y36.7961 
G01 Z-0.2540 F254.00 
G01 X-17.1478 Y38.2725 
G01 X-17.1175 Y38.4251 
G01 X-17.0579 Y38.5689 
G01 X-16.9715 Y38.6982 
G01 X-16.8614 Y38.8083 
G01 X-16.7321 Y38.8947 
G01 X-16.5883 Y38.9543 
G01 X-16.4357 Y38.9846 
G01 X-16.2801 Y38.9846 
G01 X-16.1275 Y38.9543 
G01 X-15.9837 Y38.8947 
G01 X-15.8543 Y38.8083 
G01 X-15.7443 Y38.6982 
G01 X-15.6579 Y38.5689 
G01 X-15.5983 Y38.4251 
G01 X-15.5680 Y38.2725 
G01 X-15.5680 Y36.7961 
G01 X-15.5983 Y36.6435 
G01 X-15.6579 Y36.4997 
G01 X-15.7443 Y36.3703 
G01 X-15.8543 Y36.2603 
G01 X-15.9837 Y36.1739 
G01 X-16.1275 Y36.1143 
G01 X-16.2801 Y36.0840 
G01 X-16.4357 Y36.0840 
G01 X-16.5883 Y36.1143 
G01 X-16.7321 Y36.1739 
G01 X-16.8614 Y36.2603 
G01 X-16.9715 Y36.3703 
G01 X-17.0579 Y36.4997 
G01 X-17.1175 Y36.6435 
G01 X-17.1478 Y36.7961 
G00 Z0.5080 
G00 X-44.9618 Y31.1464 
G01 Z-0.2540 F254.00 
G01 X-44.5716 Y30.9848 
G01 X-44.1494 Y30.9848 
G01 X-43.7592 Y31.1464 
G01 X-43.4606 Y31.4450 
G01 X-43.2990 Y31.8351 
G01 X-43.2990 Y32.2574 
G01 X-43.4606 Y32.6475 
G01 X-43.7592 Y32.9461 
G01 X-44.1494 Y33.1077 
G01 X-44.5716 Y33.1077 
G01 X-44.9618 Y32.9461 
G01 X-45.2604 Y32.6475 
G01 X-45.4220 Y32.2574 
G01 X-45.4220 Y31.8351 
G01 X-45.2604 Y31.4450 
G01 X-44.9618 Y31.1464 
G00 Z0.5080 
G00 X-5.9871 Y60.1674 
G01 Z-0.2540 F254.00 
G01 X-5.3813 Y59.9164 
G01 X-4.7255 Y59.9164 
G01 X-4.1196 Y60.1674 
G01 X-3.6559 Y60.6311 
G01 X-3.4049 Y61.2369 
G01 X-3.4049 Y61.8927 
G01 X-3.6559 Y62.4986 
G01 X-4.1196 Y62.9623 
G01 X-4.5961 Y63.1597 
G01 X-4.6264 Y63.1692 
G01 X-4.6336 Y63.1753 
G01 X-4.6423 Y63.1789 
G01 X-4.6648 Y63.2014 
G01 X-4.6892 Y63.2218 
G01 X-4.6935 Y63.2301 
G01 X-4.7002 Y63.2367 
G01 X-4.7123 Y63.2661 
G01 X-5.3443 Y64.4766 
G01 X-5.3514 Y64.4837 
G01 X-5.3631 Y64.5126 
G01 X-5.3775 Y64.5402 
G01 X-5.3784 Y64.5502 
G01 X-5.3822 Y64.5595 
G01 X-5.3820 Y64.5907 
G01 X-5.3847 Y64.6217 
G01 X-5.3817 Y64.6313 
G01 X-5.3776 Y65.2674 
G01 X-5.3776 Y65.3075 
G01 X-5.3773 Y65.3081 
G01 X-5.3773 Y65.3088 
G01 X-5.3616 Y65.3461 
G01 X-5.3463 Y65.3831 
G01 X-5.3458 Y65.3836 
G01 X-5.3455 Y65.3842 
G01 X-5.3167 Y65.4126 
G01 X-5.2884 Y65.4410 
G01 X-5.2878 Y65.4412 
G01 X-5.2873 Y65.4417 
G01 X-5.2499 Y65.4569 
G01 X-5.2128 Y65.4723 
G01 X-5.2121 Y65.4723 
G01 X-5.2114 Y65.4725 
G01 X-5.1710 Y65.4723 
G01 X-5.1315 Y65.4723 
G01 X-4.5163 Y65.7271 
G01 X-4.0454 Y66.1980 
G01 X-3.7906 Y66.8132 
G01 X-3.7906 Y67.4791 
G01 X-4.0454 Y68.0943 
G01 X-4.5163 Y68.5652 
G01 X-5.1315 Y68.8200 
G01 X-7.7786 Y68.8200 
G01 X-8.3938 Y68.5652 
G01 X-8.8647 Y68.0943 
G01 X-9.1195 Y67.4791 
G01 X-9.1195 Y66.8132 
G01 X-8.8647 Y66.1980 
G01 X-8.3938 Y65.7271 
G01 X-7.7789 Y65.4724 
G01 X-7.7619 Y65.4723 
G01 X-7.7218 Y65.4723 
G01 X-7.7211 Y65.4720 
G01 X-7.7204 Y65.4720 
G01 X-7.6832 Y65.4563 
G01 X-7.6462 Y65.4410 
G01 X-7.6457 Y65.4405 
G01 X-7.6450 Y65.4402 
G01 X-7.6166 Y65.4114 
G01 X-7.5883 Y65.3831 
G01 X-7.5880 Y65.3824 
G01 X-7.5875 Y65.3819 
G01 X-7.5723 Y65.3446 
G01 X-7.5570 Y65.3075 
G01 X-7.5570 Y65.3068 
G01 X-7.5567 Y65.3061 
G01 X-7.5570 Y65.2657 
G01 X-7.5570 Y65.2256 
G01 X-7.5572 Y65.2250 
G01 X-7.5620 Y64.4964 
G01 X-7.5592 Y64.4654 
G01 X-7.5622 Y64.4558 
G01 X-7.5623 Y64.4457 
G01 X-7.5744 Y64.4170 
G01 X-7.5782 Y64.4049 
G01 X-7.5672 Y64.2811 
G01 X-7.5634 Y64.2718 
G01 X-7.5636 Y64.2406 
G01 X-7.5609 Y64.2096 
G01 X-7.5639 Y64.2000 
G01 X-7.5647 Y64.0756 
G01 X-7.5599 Y64.0639 
G01 X-7.5455 Y64.0363 
G01 X-7.5446 Y64.0262 
G01 X-7.5408 Y64.0169 
G01 X-7.5410 Y63.9858 
G01 X-7.5399 Y63.9731 
G01 X-7.4824 Y63.8629 
G01 X-7.4753 Y63.8557 
G01 X-7.4635 Y63.8269 
G01 X-7.4491 Y63.7993 
G01 X-7.4483 Y63.7893 
G01 X-7.4014 Y63.6741 
G01 X-7.3925 Y63.6650 
G01 X-7.3686 Y63.6450 
G01 X-7.3640 Y63.6361 
G01 X-7.3569 Y63.6290 
G01 X-7.3452 Y63.6001 
G01 X-6.6512 Y62.2708 
G01 X-6.6445 Y62.2642 
G01 X-6.6324 Y62.2348 
G01 X-6.6176 Y62.2066 
G01 X-6.6168 Y62.1972 
G01 X-6.6132 Y62.1886 
G01 X-6.6132 Y62.1567 
G01 X-6.6104 Y62.1250 
G01 X-6.6132 Y62.1161 
G01 X-6.6132 Y62.1067 
G01 X-6.6254 Y62.0773 
G01 X-6.6349 Y62.0469 
G01 X-6.6409 Y62.0398 
G01 X-6.7018 Y61.8927 
G01 X-6.7018 Y61.2369 
G01 X-6.4509 Y60.6311 
G01 X-5.9871 Y60.1674 
G00 Z0.5080 
G00 X-7.5338 Y68.2663 
G01 Z-0.2540 F254.00 
G01 X-5.3763 Y68.2663 
G01 X-5.2022 Y68.2387 
G01 X-5.0345 Y68.1842 
G01 X-4.8774 Y68.1042 
G01 X-4.7348 Y68.0005 
G01 X-4.6101 Y67.8759 
G01 X-4.5064 Y67.7332 
G01 X-4.4264 Y67.5761 
G01 X-4.3719 Y67.4084 
G01 X-4.3443 Y67.2343 
G01 X-4.3443 Y67.0580 
G01 X-4.3719 Y66.8838 
G01 X-4.4264 Y66.7161 
G01 X-4.5064 Y66.5590 
G01 X-4.6101 Y66.4164 
G01 X-4.7348 Y66.2917 
G01 X-4.8774 Y66.1881 
G01 X-5.0345 Y66.1081 
G01 X-5.2022 Y66.0536 
G01 X-5.3763 Y66.0260 
G01 X-5.9264 Y66.0260 
G01 X-5.9369 Y64.4151 
G01 X-5.0203 Y62.6596 
G01 X-4.9672 Y62.6596 
G01 X-4.7970 Y62.6326 
G01 X-4.6331 Y62.5794 
G01 X-4.4796 Y62.5012 
G01 X-4.3402 Y62.3999 
G01 X-4.2183 Y62.2780 
G01 X-4.1171 Y62.1386 
G01 X-4.0388 Y61.9851 
G01 X-3.9856 Y61.8212 
G01 X-3.9586 Y61.6510 
G01 X-3.9586 Y61.4787 
G01 X-3.9856 Y61.3085 
G01 X-4.0388 Y61.1446 
G01 X-4.1171 Y60.9911 
G01 X-4.2183 Y60.8517 
G01 X-4.3402 Y60.7298 
G01 X-4.4796 Y60.6285 
G01 X-4.6331 Y60.5503 
G01 X-4.7970 Y60.4971 
G01 X-4.9672 Y60.4701 
G01 X-5.1395 Y60.4701 
G01 X-5.3097 Y60.4971 
G01 X-5.4736 Y60.5503 
G01 X-5.6271 Y60.6285 
G01 X-5.7665 Y60.7298 
G01 X-5.8884 Y60.8517 
G01 X-5.9897 Y60.9911 
G01 X-6.0679 Y61.1446 
G01 X-6.1212 Y61.3085 
G01 X-6.1481 Y61.4787 
G01 X-6.1481 Y61.6510 
G01 X-6.1212 Y61.8212 
G01 X-6.0679 Y61.9851 
G01 X-5.9897 Y62.1386 
G01 X-5.9710 Y62.1644 
G01 X-6.9443 Y64.0287 
G01 X-6.9744 Y64.0817 
G01 X-6.9769 Y64.0911 
G01 X-6.9814 Y64.0998 
G01 X-6.9947 Y64.1593 
G01 X-7.0100 Y64.2182 
G01 X-7.0100 Y64.2280 
G01 X-7.0121 Y64.2375 
G01 X-7.0095 Y64.2985 
G01 X-6.9983 Y66.0260 
G01 X-7.5338 Y66.0260 
G01 X-7.7080 Y66.0536 
G01 X-7.8757 Y66.1081 
G01 X-8.0328 Y66.1881 
G01 X-8.1754 Y66.2917 
G01 X-8.3001 Y66.4164 
G01 X-8.4037 Y66.5590 
G01 X-8.4838 Y66.7161 
G01 X-8.5382 Y66.8838 
G01 X-8.5658 Y67.0580 
G01 X-8.5658 Y67.2343 
G01 X-8.5382 Y67.4084 
G01 X-8.4838 Y67.5761 
G01 X-8.4037 Y67.7332 
G01 X-8.3001 Y67.8759 
G01 X-8.1754 Y68.0005 
G01 X-8.0328 Y68.1042 
G01 X-7.8757 Y68.1842 
G01 X-7.7080 Y68.2387 
G01 X-7.5338 Y68.2663 
G00 Z0.5080 
G00 X-9.5895 Y22.7018 
G01 Z-0.2540 F254.00 
G01 X-9.5895 Y22.9951 
G01 X-9.5512 Y23.2859 
G01 X-9.4753 Y23.5692 
G01 X-9.3630 Y23.8402 
G01 X-9.2164 Y24.0942 
G01 X-9.0378 Y24.3269 
G01 X-8.8304 Y24.5343 
G01 X-8.5977 Y24.7129 
G01 X-8.3437 Y24.8596 
G01 X-8.0727 Y24.9718 
G01 X-7.7894 Y25.0477 
G01 X-7.4986 Y25.0860 
G01 X-7.2053 Y25.0860 
G01 X-6.9145 Y25.0477 
G01 X-6.6312 Y24.9718 
G01 X-6.3602 Y24.8596 
G01 X-6.1062 Y24.7129 
G01 X-5.8735 Y24.5343 
G01 X-5.6661 Y24.3269 
G01 X-5.4875 Y24.0942 
G01 X-5.3408 Y23.8402 
G01 X-5.2286 Y23.5692 
G01 X-5.1527 Y23.2859 
G01 X-5.1144 Y22.9951 
G01 X-5.1144 Y22.7018 
G01 X-5.1527 Y22.4110 
G01 X-5.2286 Y22.1277 
G01 X-5.3408 Y21.8567 
G01 X-5.4875 Y21.6027 
G01 X-5.6661 Y21.3700 
G01 X-5.8735 Y21.1626 
G01 X-6.1062 Y20.9840 
G01 X-6.3602 Y20.8374 
G01 X-6.6312 Y20.7251 
G01 X-6.9145 Y20.6492 
G01 X-7.2053 Y20.6109 
G01 X-7.4986 Y20.6109 
G01 X-7.7894 Y20.6492 
G01 X-8.0727 Y20.7251 
G01 X-8.3437 Y20.8374 
G01 X-8.5977 Y20.9840 
G01 X-8.8304 Y21.1626 
G01 X-9.0378 Y21.3700 
G01 X-9.2164 Y21.6027 
G01 X-9.3630 Y21.8567 
G01 X-9.4753 Y22.1277 
G01 X-9.5512 Y22.4110 
G01 X-9.5895 Y22.7018 
G00 Z0.5080 
G00 X-2.6582 Y77.6126 
G01 Z-0.2540 F254.00 
G01 X-2.6582 Y77.6116 
G01 X-2.6578 Y77.6106 
G01 X-2.6578 Y77.5706 
G01 X-2.1834 Y29.9609 
G01 X-2.1830 Y29.9599 
G01 X-2.1830 Y29.9199 
G01 X-2.1826 Y29.8800 
G01 X-2.1829 Y29.8791 
G01 X-2.1829 Y29.8780 
G01 X-2.1982 Y29.8412 
G01 X-2.2131 Y29.8041 
G01 X-2.2139 Y29.8034 
G01 X-2.2143 Y29.8024 
G01 X-2.2425 Y29.7742 
G01 X-2.2704 Y29.7457 
G01 X-2.2714 Y29.7453 
G01 X-2.2721 Y29.7445 
G01 X-2.3091 Y29.7292 
G01 X-2.3457 Y29.7136 
G01 X-2.3468 Y29.7136 
G01 X-2.3477 Y29.7132 
G01 X-2.3878 Y29.7132 
G01 X-2.4276 Y29.7128 
G01 X-2.4285 Y29.7132 
G01 X-46.3757 Y29.7022 
G01 X-46.4156 Y29.7017 
G01 X-46.4167 Y29.7022 
G01 X-46.4178 Y29.7022 
G01 X-46.4546 Y29.7174 
G01 X-46.4916 Y29.7322 
G01 X-46.4924 Y29.7330 
G01 X-46.4935 Y29.7335 
G01 X-46.5217 Y29.7617 
G01 X-46.5501 Y29.7895 
G01 X-46.5505 Y29.7905 
G01 X-46.5514 Y29.7913 
G01 X-46.5666 Y29.8282 
G01 X-46.5822 Y29.8647 
G01 X-46.5823 Y29.8659 
G01 X-46.5827 Y29.8669 
G01 X-46.5827 Y29.9067 
G01 X-47.1069 Y77.5166 
G01 X-47.1073 Y77.5177 
G01 X-47.1073 Y77.5575 
G01 X-47.1078 Y77.5973 
G01 X-47.1073 Y77.5984 
G01 X-47.1073 Y77.5995 
G01 X-47.0921 Y77.6363 
G01 X-47.0773 Y77.6733 
G01 X-47.0765 Y77.6741 
G01 X-47.0760 Y77.6751 
G01 X-47.0478 Y77.7033 
G01 X-47.0200 Y77.7318 
G01 X-47.0190 Y77.7322 
G01 X-47.0182 Y77.7330 
G01 X-46.9813 Y77.7483 
G01 X-46.9448 Y77.7639 
G01 X-46.9436 Y77.7639 
G01 X-46.9426 Y77.7644 
G01 X-46.9027 Y77.7644 
G01 X-46.8629 Y77.7648 
G01 X-46.8619 Y77.7644 
G01 X-2.8646 Y77.7754 
G01 X-2.8246 Y77.7758 
G01 X-2.8237 Y77.7754 
G01 X-2.8226 Y77.7754 
G01 X-2.7858 Y77.7602 
G01 X-2.7487 Y77.7452 
G01 X-2.7480 Y77.7445 
G01 X-2.7470 Y77.7441 
G01 X-2.7188 Y77.7159 
G01 X-2.6903 Y77.6879 
G01 X-2.6899 Y77.6870 
G01 X-2.6891 Y77.6862 
G01 X-2.6738 Y77.6493 
G01 X-2.6582 Y77.6126 
G00 Z0.5080 
G00 X-5.9152 Y60.2750 
G01 Z-0.2540 F254.00 
G01 X-5.3560 Y60.0434 
G01 X-4.7507 Y60.0434 
G01 X-4.1915 Y60.2750 
G01 X-3.7635 Y60.7030 
G01 X-3.5319 Y61.2622 
G01 X-3.5319 Y61.8675 
G01 X-3.7635 Y62.4267 
G01 X-4.1915 Y62.8547 
G01 X-4.6395 Y63.0402 
G01 X-4.6672 Y63.0489 
G01 X-4.6798 Y63.0569 
G01 X-4.6936 Y63.0626 
G01 X-4.7166 Y63.0803 
G01 X-4.7412 Y63.0959 
G01 X-4.7512 Y63.1069 
G01 X-4.7631 Y63.1160 
G01 X-4.7808 Y63.1390 
G01 X-4.8004 Y63.1604 
G01 X-4.8073 Y63.1737 
G01 X-4.8164 Y63.1855 
G01 X-4.8275 Y63.2123 
G01 X-5.4684 Y64.4398 
G01 X-5.4871 Y64.4727 
G01 X-5.4886 Y64.4786 
G01 X-5.4914 Y64.4840 
G01 X-5.4996 Y64.5209 
G01 X-5.5092 Y64.5575 
G01 X-5.5092 Y64.5636 
G01 X-5.5105 Y64.5695 
G01 X-5.5089 Y64.6073 
G01 X-5.5046 Y65.2678 
G01 X-5.5046 Y65.3103 
G01 X-5.5043 Y65.3114 
G01 X-5.5043 Y65.3125 
G01 X-5.4930 Y65.3538 
G01 X-5.4819 Y65.3950 
G01 X-5.4814 Y65.3959 
G01 X-5.4811 Y65.3970 
G01 X-5.4594 Y65.4340 
G01 X-5.4381 Y65.4708 
G01 X-5.4373 Y65.4716 
G01 X-5.4368 Y65.4726 
G01 X-5.4063 Y65.5026 
G01 X-5.3762 Y65.5328 
G01 X-5.3752 Y65.5333 
G01 X-5.3744 Y65.5341 
G01 X-5.3372 Y65.5553 
G01 X-5.3003 Y65.5766 
G01 X-5.2992 Y65.5769 
G01 X-5.2983 Y65.5774 
G01 X-5.2568 Y65.5882 
G01 X-5.2157 Y65.5993 
G01 X-5.2146 Y65.5993 
G01 X-5.2135 Y65.5996 
G01 X-5.1707 Y65.5993 
G01 X-5.1568 Y65.5993 
G01 X-4.5883 Y65.8348 
G01 X-4.1531 Y66.2699 
G01 X-3.9176 Y66.8384 
G01 X-3.9176 Y67.4538 
G01 X-4.1531 Y68.0224 
G01 X-4.5883 Y68.4575 
G01 X-5.1568 Y68.6930 
G01 X-7.7534 Y68.6930 
G01 X-8.3219 Y68.4575 
G01 X-8.7570 Y68.0224 
G01 X-8.9925 Y67.4538 
G01 X-8.9925 Y66.8384 
G01 X-8.7570 Y66.2699 
G01 X-8.3219 Y65.8348 
G01 X-7.7534 Y65.5993 
G01 X-7.7189 Y65.5993 
G01 X-7.7178 Y65.5990 
G01 X-7.7167 Y65.5990 
G01 X-7.6755 Y65.5876 
G01 X-7.6343 Y65.5766 
G01 X-7.6333 Y65.5760 
G01 X-7.6323 Y65.5758 
G01 X-7.5953 Y65.5541 
G01 X-7.5584 Y65.5328 
G01 X-7.5576 Y65.5320 
G01 X-7.5567 Y65.5315 
G01 X-7.5266 Y65.5010 
G01 X-7.4965 Y65.4708 
G01 X-7.4959 Y65.4699 
G01 X-7.4951 Y65.4691 
G01 X-7.4740 Y65.4319 
G01 X-7.4526 Y65.3950 
G01 X-7.4524 Y65.3939 
G01 X-7.4518 Y65.3929 
G01 X-7.4410 Y65.3515 
G01 X-7.4300 Y65.3103 
G01 X-7.4300 Y65.3092 
G01 X-7.4297 Y65.3082 
G01 X-7.4300 Y65.2654 
G01 X-7.4300 Y65.2227 
G01 X-7.4303 Y65.2217 
G01 X-7.4348 Y64.5235 
G01 X-7.4335 Y64.5176 
G01 X-7.4351 Y64.4799 
G01 X-7.4353 Y64.4420 
G01 X-7.4369 Y64.4362 
G01 X-7.4372 Y64.4301 
G01 X-7.4485 Y64.3940 
G01 X-7.4494 Y64.3907 
G01 X-7.4404 Y64.2893 
G01 X-7.4364 Y64.2738 
G01 X-7.4366 Y64.2458 
G01 X-7.4341 Y64.2179 
G01 X-7.4369 Y64.2022 
G01 X-7.4375 Y64.1004 
G01 X-7.4364 Y64.0972 
G01 X-7.4221 Y64.0621 
G01 X-7.4213 Y64.0560 
G01 X-7.4193 Y64.0503 
G01 X-7.4159 Y64.0127 
G01 X-7.4155 Y64.0092 
G01 X-7.3684 Y63.9190 
G01 X-7.3587 Y63.9063 
G01 X-7.3482 Y63.8803 
G01 X-7.3352 Y63.8555 
G01 X-7.3317 Y63.8399 
G01 X-7.2934 Y63.7456 
G01 X-7.2911 Y63.7430 
G01 X-7.2645 Y63.7161 
G01 X-7.2615 Y63.7108 
G01 X-7.2574 Y63.7064 
G01 X-7.2399 Y63.6728 
G01 X-7.2212 Y63.6400 
G01 X-7.2196 Y63.6341 
G01 X-6.5374 Y62.3273 
G01 X-6.5283 Y62.3154 
G01 X-6.5172 Y62.2885 
G01 X-6.5037 Y62.2628 
G01 X-6.5005 Y62.2483 
G01 X-6.4948 Y62.2345 
G01 X-6.4910 Y62.2056 
G01 X-6.4846 Y62.1773 
G01 X-6.4853 Y62.1624 
G01 X-6.4833 Y62.1476 
G01 X-6.4871 Y62.1188 
G01 X-6.4884 Y62.0897 
G01 X-6.4928 Y62.0755 
G01 X-6.4948 Y62.0608 
G01 X-6.5059 Y62.0339 
G01 X-6.5146 Y62.0062 
G01 X-6.5226 Y61.9936 
G01 X-6.5748 Y61.8675 
G01 X-6.5748 Y61.2622 
G01 X-6.3432 Y60.7030 
G01 X-5.9152 Y60.2750 
G00 Z0.5080 
G00 X-7.5438 Y68.3933 
G01 Z-0.2540 F254.00 
G01 X-5.3663 Y68.3933 
G01 X-5.1724 Y68.3626 
G01 X-4.9857 Y68.3019 
G01 X-4.8108 Y68.2128 
G01 X-4.6520 Y68.0974 
G01 X-4.5132 Y67.9586 
G01 X-4.3978 Y67.7998 
G01 X-4.3087 Y67.6249 
G01 X-4.2480 Y67.4382 
G01 X-4.2173 Y67.2443 
G01 X-4.2173 Y67.0480 
G01 X-4.2480 Y66.8541 
G01 X-4.3087 Y66.6674 
G01 X-4.3978 Y66.4925 
G01 X-4.5132 Y66.3337 
G01 X-4.6520 Y66.1949 
G01 X-4.8108 Y66.0795 
G01 X-4.9857 Y65.9904 
G01 X-5.1724 Y65.9297 
G01 X-5.3663 Y65.8990 
G01 X-5.8002 Y65.8990 
G01 X-5.8097 Y64.4459 
G01 X-4.9421 Y62.7842 
G01 X-4.7673 Y62.7565 
G01 X-4.5844 Y62.6971 
G01 X-4.4130 Y62.6098 
G01 X-4.2575 Y62.4967 
G01 X-4.1215 Y62.3608 
G01 X-4.0084 Y62.2052 
G01 X-3.9211 Y62.0338 
G01 X-3.8617 Y61.8509 
G01 X-3.8316 Y61.6610 
G01 X-3.8316 Y61.4687 
G01 X-3.8617 Y61.2788 
G01 X-3.9211 Y61.0959 
G01 X-4.0084 Y60.9245 
G01 X-4.1215 Y60.7689 
G01 X-4.2575 Y60.6330 
G01 X-4.4130 Y60.5199 
G01 X-4.5844 Y60.4326 
G01 X-4.7673 Y60.3732 
G01 X-4.9572 Y60.3431 
G01 X-5.1495 Y60.3431 
G01 X-5.3395 Y60.3732 
G01 X-5.5224 Y60.4326 
G01 X-5.6937 Y60.5199 
G01 X-5.8493 Y60.6330 
G01 X-5.9853 Y60.7689 
G01 X-6.0983 Y60.9245 
G01 X-6.1856 Y61.0959 
G01 X-6.2450 Y61.2788 
G01 X-6.2751 Y61.4687 
G01 X-6.2751 Y61.6610 
G01 X-6.2450 Y61.8509 
G01 X-6.1856 Y62.0338 
G01 X-6.1167 Y62.1691 
G01 X-7.0458 Y63.9487 
G01 X-7.0632 Y63.9751 
G01 X-7.0759 Y64.0064 
G01 X-7.0915 Y64.0364 
G01 X-7.1004 Y64.0668 
G01 X-7.1124 Y64.0961 
G01 X-7.1187 Y64.1292 
G01 X-7.1282 Y64.1617 
G01 X-7.1310 Y64.1932 
G01 X-7.1370 Y64.2243 
G01 X-7.1368 Y64.2581 
G01 X-7.1398 Y64.2918 
G01 X-7.1364 Y64.3232 
G01 X-7.1261 Y65.8990 
G01 X-7.5438 Y65.8990 
G01 X-7.7377 Y65.9297 
G01 X-7.9244 Y65.9904 
G01 X-8.0993 Y66.0795 
G01 X-8.2581 Y66.1949 
G01 X-8.3969 Y66.3337 
G01 X-8.5123 Y66.4925 
G01 X-8.6014 Y66.6674 
G01 X-8.6621 Y66.8541 
G01 X-8.6928 Y67.0480 
G01 X-8.6928 Y67.2443 
G01 X-8.6621 Y67.4382 
G01 X-8.6014 Y67.6249 
G01 X-8.5123 Y67.7998 
G01 X-8.3969 Y67.9586 
G01 X-8.2581 Y68.0974 
G01 X-8.0993 Y68.2128 
G01 X-7.9244 Y68.3019 
G01 X-7.7377 Y68.3626 
G01 X-7.5438 Y68.3933 
G00 Z0.5080 
G00 X-44.8898 Y31.2541 
G01 Z-0.2540 F254.00 
G01 X-44.5464 Y31.1118 
G01 X-44.1746 Y31.1118 
G01 X-43.8312 Y31.2541 
G01 X-43.5683 Y31.5169 
G01 X-43.4260 Y31.8604 
G01 X-43.4260 Y32.2321 
G01 X-43.5683 Y32.5756 
G01 X-43.8312 Y32.8385 
G01 X-44.1746 Y32.9807 
G01 X-44.5464 Y32.9807 
G01 X-44.8898 Y32.8385 
G01 X-45.1527 Y32.5756 
G01 X-45.2950 Y32.2321 
G01 X-45.2950 Y31.8604 
G01 X-45.1527 Y31.5169 
G01 X-44.8898 Y31.2541 
G00 Z0.5080 
G00 X-4.2571 Y76.9496 
G01 Z-0.2540 F254.00 
G01 X-4.6005 Y77.0918 
G01 X-4.9723 Y77.0918 
G01 X-5.3158 Y76.9496 
G01 X-5.5786 Y76.6867 
G01 X-5.7209 Y76.3433 
G01 X-5.7209 Y75.9715 
G01 X-5.5786 Y75.6281 
G01 X-5.3158 Y75.3652 
G01 X-4.9723 Y75.2229 
G01 X-4.6005 Y75.2229 
G01 X-4.2571 Y75.3652 
G01 X-3.9942 Y75.6281 
G01 X-3.8520 Y75.9715 
G01 X-3.8520 Y76.3433 
G01 X-3.9942 Y76.6867 
G01 X-4.2571 Y76.9496 
G00 Z0.5080 
G00 X-12.7432 Y64.6455 
G01 Z-0.2540 F254.00 
G01 X-11.8526 Y64.6455 
G01 X-12.0906 Y64.8945 
G01 X-12.7432 Y64.8945 
G01 X-13.4143 Y65.5655 
G01 X-13.4143 Y66.5145 
G01 X-12.7432 Y67.1855 
G01 X-11.7942 Y67.1855 
G01 X-11.1232 Y66.5145 
G01 X-11.1232 Y65.8013 
G01 X-9.1001 Y63.6856 
G01 X-9.0592 Y63.6447 
G01 X-9.0550 Y63.6385 
G01 X-9.0499 Y63.6331 
G01 X-9.0188 Y63.5842 
G01 X-8.9866 Y63.5361 
G01 X-8.9838 Y63.5292 
G01 X-8.9798 Y63.5229 
G01 X-8.9588 Y63.4689 
G01 X-8.9367 Y63.4154 
G01 X-8.9352 Y63.4081 
G01 X-8.9325 Y63.4011 
G01 X-8.9225 Y63.3441 
G01 X-8.9112 Y63.2874 
G01 X-8.9112 Y63.2799 
G01 X-8.9099 Y63.2725 
G01 X-8.9112 Y63.2147 
G01 X-8.9112 Y59.5521 
G01 X-8.3695 Y58.8208 
G01 X-7.6711 Y58.8208 
G01 X-7.4841 Y58.7836 
G01 X-7.3080 Y58.7107 
G01 X-7.1495 Y58.6048 
G01 X-7.0147 Y58.4700 
G01 X-6.9088 Y58.3115 
G01 X-6.8358 Y58.1354 
G01 X-6.7986 Y57.9484 
G01 X-6.7986 Y57.7578 
G01 X-6.8358 Y57.5708 
G01 X-6.9088 Y57.3947 
G01 X-7.0147 Y57.2362 
G01 X-7.1495 Y57.1014 
G01 X-7.3080 Y56.9955 
G01 X-7.4841 Y56.9225 
G01 X-7.6711 Y56.8853 
G01 X-9.2841 Y56.8853 
G01 X-9.4711 Y56.9225 
G01 X-9.6472 Y56.9955 
G01 X-9.8057 Y57.1014 
G01 X-9.9405 Y57.2362 
G01 X-10.0464 Y57.3947 
G01 X-10.1193 Y57.5708 
G01 X-10.1565 Y57.7578 
G01 X-10.1565 Y57.9484 
G01 X-10.1193 Y58.1354 
G01 X-10.0464 Y58.3115 
G01 X-9.9405 Y58.4700 
G01 X-9.8366 Y58.5739 
G01 X-10.0776 Y58.8992 
G01 X-10.0891 Y58.9107 
G01 X-10.1164 Y58.9516 
G01 X-10.1457 Y58.9911 
G01 X-10.1526 Y59.0058 
G01 X-10.1616 Y59.0193 
G01 X-10.1804 Y59.0647 
G01 X-10.2014 Y59.1092 
G01 X-10.2054 Y59.1249 
G01 X-10.2116 Y59.1399 
G01 X-10.2212 Y59.1881 
G01 X-10.2331 Y59.2359 
G01 X-10.2339 Y59.2521 
G01 X-10.2370 Y59.2680 
G01 X-10.2370 Y59.3172 
G01 X-10.2394 Y59.3663 
G01 X-10.2370 Y59.3824 
G01 X-10.2371 Y62.9561 
G01 X-11.1232 Y63.8828 
G01 X-11.1232 Y63.0255 
G01 X-11.7942 Y62.3545 
G01 X-12.7432 Y62.3545 
G01 X-13.2219 Y62.8332 
G01 X-23.7000 Y55.5436 
G01 X-23.6850 Y50.4949 
G01 X-23.5921 Y50.4019 
G01 X-23.4862 Y50.2435 
G01 X-23.4132 Y50.0673 
G01 X-23.3760 Y49.8804 
G01 X-23.3760 Y48.2673 
G01 X-23.4132 Y48.0804 
G01 X-23.4862 Y47.9043 
G01 X-23.5212 Y47.8518 
G01 X-23.5076 Y47.7445 
G01 X-23.4990 Y47.6920 
G01 X-23.4994 Y47.6798 
G01 X-23.4979 Y47.6677 
G01 X-23.5017 Y47.6146 
G01 X-23.5035 Y47.5615 
G01 X-23.5063 Y47.5496 
G01 X-23.5071 Y47.5374 
G01 X-23.5212 Y47.4861 
G01 X-23.5333 Y47.4343 
G01 X-23.5384 Y47.4232 
G01 X-23.5416 Y47.4114 
G01 X-23.5654 Y47.3638 
G01 X-23.5874 Y47.3155 
G01 X-23.5945 Y47.3055 
G01 X-23.6000 Y47.2946 
G01 X-23.6325 Y47.2526 
G01 X-23.6636 Y47.2094 
G01 X-23.6725 Y47.2011 
G01 X-23.6800 Y47.1914 
G01 X-23.7201 Y47.1566 
G01 X-24.2041 Y46.7046 
G01 X-24.0682 Y46.7316 
G01 X-23.8876 Y46.7316 
G01 X-23.7104 Y46.6964 
G01 X-23.5819 Y46.6431 
G01 X-22.5702 Y47.7679 
G01 X-22.6613 Y47.9043 
G01 X-22.7343 Y48.0804 
G01 X-22.7715 Y48.2673 
G01 X-22.7715 Y49.8804 
G01 X-22.7343 Y50.0673 
G01 X-22.6613 Y50.2435 
G01 X-22.5554 Y50.4019 
G01 X-22.4623 Y50.4950 
G01 X-22.4484 Y55.0392 
G01 X-22.4502 Y55.0920 
G01 X-22.4482 Y55.1044 
G01 X-22.4482 Y55.1168 
G01 X-22.4377 Y55.1687 
G01 X-22.4292 Y55.2209 
G01 X-22.4248 Y55.2326 
G01 X-22.4223 Y55.2448 
G01 X-22.4019 Y55.2937 
G01 X-22.3834 Y55.3432 
G01 X-22.3768 Y55.3538 
G01 X-22.3720 Y55.3653 
G01 X-22.3424 Y55.4093 
G01 X-22.3146 Y55.4542 
G01 X-22.3061 Y55.4633 
G01 X-22.2991 Y55.4737 
G01 X-22.2616 Y55.5110 
G01 X-22.2255 Y55.5497 
G01 X-22.2153 Y55.5570 
G01 X-22.2065 Y55.5658 
G01 X-22.1624 Y55.5950 
G01 X-14.1417 Y61.3621 
G01 X-14.1040 Y61.3922 
G01 X-14.0888 Y61.4001 
G01 X-14.0749 Y61.4101 
G01 X-14.0309 Y61.4301 
G01 X-13.9880 Y61.4523 
G01 X-13.9716 Y61.4571 
G01 X-13.9560 Y61.4642 
G01 X-13.9090 Y61.4752 
G01 X-13.8626 Y61.4886 
